;FLAVOR:Marlin
;TIME:5222
;Filament used: 3.99835m
;Layer height: 0.2
;MINX:90.087
;MINY:61.365
;MINZ:0.2
;MAXX:175.99
;MAXY:152.624
;MAXZ:15
;TARGET_MACHINE.NAME:Creality Ender-3 v2 Neo
;Generated with Cura_SteamEngine 5.7.2
M140 S60
M105
M190 S60
M104 S200
M105
M109 S200
M82 ;absolute extrusion mode
G92 E0 ;Reset Extruder
G28 ;Home
G1 Z2.0 F3000 ;Move Z Axis up
G1 X10.1 Y20 Z0.28 F5000.0 ;Move to start position
G1 X10.1 Y200.0 Z0.28 F1500.0 E15 ;Draw the first line
G1 X10.4 Y200.0 Z0.28 F5000.0 ;Move to side a little
G1 X10.4 Y20 Z0.28 F1500.0 E30 ;Draw the second line
G92 E0 ;Reset Extruder
G1 Z2.0 F3000 ;Move Z Axis up
G92 E0
G92 E0
G1 F1500 E-4
;LAYER_COUNT:75
;LAYER:0
M107
G0 F6000 X94.165 Y67.67 Z0.2
;TYPE:SKIRT
G1 F1500 E0
G1 F1200 X94.74 Y66.973 E0.03005
G1 X95.601 Y66.114 E0.0705
G1 X96.445 Y65.365 E0.10804
G1 X97.487 Y64.481 E0.15348
G1 X98.259 Y63.887 E0.18588
G1 X99.079 Y63.363 E0.21825
G1 X99.943 Y62.914 E0.25063
G1 X100.85 Y62.54 E0.28327
G1 X101.874 Y62.227 E0.31888
G1 X102.899 Y61.974 E0.35399
G1 X104.382 Y61.639 E0.40456
G1 X105.27 Y61.48 E0.43457
G1 X106.604 Y61.378 E0.47906
G1 X107.349 Y61.367 E0.50385
G1 X122.53 Y61.365 E1.00877
G1 X123.71 Y61.389 E1.04802
G1 X124.406 Y61.427 E1.07121
G1 X125.232 Y61.504 E1.0988
G1 X125.995 Y61.594 E1.12435
G1 X128.508 Y61.852 E1.20837
G1 X131.052 Y62.043 E1.29323
G1 X133.572 Y62.159 E1.37713
G1 X136.082 Y62.204 E1.46063
G1 X138.579 Y62.178 E1.54368
G1 X141.1 Y62.081 E1.62759
G1 X143.133 Y61.953 E1.69534
G1 X143.665 Y61.932 E1.71305
G1 X144.405 Y61.921 E1.73767
G1 X159.819 Y61.921 E2.25034
G1 X160.777 Y61.943 E2.28221
G1 X161.478 Y61.982 E2.30556
G1 X162.014 Y62.028 E2.32346
G1 X162.909 Y62.147 E2.35349
G1 X163.924 Y62.375 E2.38809
G1 X164.714 Y62.623 E2.41563
G1 X165.375 Y62.866 E2.43905
G1 X167.113 Y63.554 E2.50122
G1 X168.001 Y63.955 E2.53363
G1 X168.85 Y64.433 E2.56603
G1 X169.651 Y64.982 E2.59833
G1 X170.38 Y65.581 E2.62971
G1 X171.241 Y66.443 E2.67023
G1 X171.99 Y67.287 E2.70777
G1 X172.874 Y68.329 E2.75322
G1 X173.468 Y69.101 E2.78561
G1 X173.992 Y69.921 E2.81798
G1 X174.441 Y70.785 E2.85036
G1 X174.815 Y71.692 E2.883
G1 X175.128 Y72.716 E2.91861
G1 X175.381 Y73.741 E2.95372
G1 X175.716 Y75.224 E3.00429
G1 X175.875 Y76.112 E3.0343
G1 X175.977 Y77.446 E3.0788
G1 X175.988 Y78.191 E3.10358
G1 X175.99 Y93.367 E3.60833
G1 X175.977 Y94.254 E3.63784
G1 X175.918 Y95.219 E3.66999
G1 X175.82 Y95.928 E3.6938
G1 X175.332 Y98.765 E3.78954
G1 X174.978 Y101.267 E3.87359
G1 X174.702 Y103.714 E3.95549
G1 X174.482 Y106.286 E4.04135
G1 X174.344 Y108.767 E4.124
G1 X174.273 Y111.298 E4.20821
G1 X174.275 Y113.811 E4.29179
G1 X174.348 Y116.345 E4.37611
G1 X174.503 Y119.032 E4.46563
G1 X174.551 Y119.688 E4.48751
G1 X174.577 Y120.301 E4.50791
G1 X174.588 Y121.049 E4.53279
G1 X174.59 Y136.225 E5.03755
G1 X174.577 Y137.108 E5.06692
G1 X174.516 Y138.088 E5.09958
G1 X174.333 Y139.233 E5.13815
G1 X174.121 Y140.204 E5.1712
G1 X173.757 Y141.716 E5.22293
G1 X173.485 Y142.651 E5.25532
G1 X173.132 Y143.557 E5.28766
G1 X172.7 Y144.431 E5.32008
G1 X172.231 Y145.203 E5.35013
G1 X171.5 Y146.182 E5.39076
G1 X170.981 Y146.8 E5.4176
G1 X169.909 Y148.027 E5.4718
G1 X169.259 Y148.705 E5.50304
G1 X168.498 Y149.368 E5.53661
G1 X167.711 Y149.94 E5.56896
G1 X166.938 Y150.406 E5.59899
G1 X165.817 Y150.939 E5.64027
G1 X164.689 Y151.396 E5.68075
G1 X163.458 Y151.862 E5.72453
G1 X162.531 Y152.165 E5.75697
G1 X161.577 Y152.384 E5.78952
G1 X160.461 Y152.531 E5.82696
G1 X160.046 Y152.564 E5.84081
G1 X159.421 Y152.594 E5.86162
G1 X157.867 Y152.623 E5.91331
G1 X143.142 Y152.624 E6.40307
G1 X142.259 Y152.611 E6.43244
G1 X141.279 Y152.55 E6.4651
G1 X140.134 Y152.367 E6.50366
G1 X139.23 Y152.17 E6.53444
G1 X138.254 Y151.942 E6.56777
G1 X137.533 Y151.76 E6.59251
G1 X136.615 Y151.485 E6.62438
G1 X136.119 Y151.299 E6.642
G1 X135.519 Y151.057 E6.66352
G1 X133.151 Y150.137 E6.74801
G1 X130.772 Y149.29 E6.832
G1 X128.367 Y148.511 E6.91609
G1 X125.962 Y147.805 E6.99945
G1 X123.561 Y147.174 E7.08202
G1 X121.069 Y146.593 E7.16713
G1 X118.566 Y146.084 E7.25208
G1 X116.125 Y145.66 E7.33449
G1 X113.656 Y145.301 E7.41747
G1 X111.118 Y145.005 E7.50245
G1 X108.656 Y144.79 E7.58465
G1 X105.807 Y144.625 E7.67957
G1 X105.291 Y144.603 E7.69675
G1 X104.391 Y144.525 E7.72679
G1 X103.462 Y144.365 E7.75815
G1 X102.508 Y144.155 E7.79064
G1 X100.995 Y143.791 E7.8424
G1 X100.06 Y143.52 E7.87477
G1 X99.151 Y143.168 E7.90719
G1 X98.31 Y142.752 E7.9384
G1 X97.475 Y142.245 E7.97089
G1 X96.52 Y141.53 E8.01057
G1 X95.784 Y140.91 E8.04258
G1 X94.678 Y139.94 E8.09151
G1 X94.026 Y139.315 E8.12155
G1 X93.339 Y138.528 E8.15629
G1 X92.767 Y137.74 E8.18868
G1 X92.284 Y136.932 E8.21999
G1 X91.772 Y135.856 E8.25962
G1 X91.316 Y134.732 E8.29997
G1 X90.846 Y133.489 E8.34417
G1 X90.544 Y132.564 E8.37653
G1 X90.339 Y131.685 E8.40655
G1 X90.178 Y130.498 E8.44639
G1 X90.145 Y130.084 E8.4602
G1 X90.115 Y129.45 E8.48131
G1 X90.087 Y127.919 E8.53224
G1 X90.088 Y112.92 E9.03111
G1 X90.11 Y111.985 E9.06222
G1 X90.15 Y111.275 E9.08587
G1 X90.242 Y110.326 E9.11758
G1 X90.553 Y107.932 E9.19788
G1 X90.813 Y105.402 E9.28247
G1 X91 Y102.887 E9.36635
G1 X91.115 Y100.377 E9.44992
G1 X91.158 Y97.89 E9.53265
G1 X91.139 Y95.66 E9.60682
G1 X91.079 Y92.703 E9.70519
G1 X91.076 Y77.732 E10.20313
G1 X91.101 Y76.575 E10.24162
G1 X91.141 Y75.864 E10.26531
G1 X91.186 Y75.371 E10.28177
G1 X91.318 Y74.405 E10.3142
G1 X91.535 Y73.46 E10.34645
G1 X91.807 Y72.606 E10.37626
G1 X92.304 Y71.264 E10.42386
G1 X92.728 Y70.204 E10.46183
G1 X93.131 Y69.318 E10.4942
G1 X93.612 Y68.47 E10.52663
G1 X94.165 Y67.67 E10.55897
G0 F6000 X94.474 Y67.925
G1 F1200 X95.049 Y67.228 E10.58903
G1 X95.867 Y66.413 E10.62743
G1 X96.704 Y65.67 E10.66466
G1 X97.732 Y64.798 E10.70949
G1 X98.475 Y64.224 E10.74072
G1 X99.264 Y63.718 E10.7719
G1 X100.096 Y63.284 E10.80311
G1 X100.967 Y62.923 E10.83447
G1 X101.991 Y62.61 E10.87008
G1 X102.987 Y62.364 E10.9042
G1 X104.453 Y62.033 E10.95419
G1 X105.341 Y61.874 E10.98419
G1 X106.61 Y61.778 E11.02652
G1 X107.349 Y61.767 E11.0511
G1 X122.522 Y61.765 E11.55576
G1 X123.688 Y61.788 E11.59455
G1 X124.369 Y61.825 E11.61723
G1 X125.185 Y61.901 E11.64449
G1 X125.954 Y61.992 E11.67025
G1 X128.473 Y62.251 E11.75447
G1 X131.034 Y62.443 E11.83989
G1 X133.554 Y62.559 E11.92379
G1 X136.079 Y62.604 E12.00779
G1 X138.594 Y62.578 E12.09144
G1 X141.115 Y62.481 E12.17535
G1 X143.158 Y62.352 E12.24344
G1 X143.671 Y62.332 E12.26051
G1 X144.411 Y62.321 E12.28513
G1 X159.81 Y62.321 E12.7973
G1 X160.755 Y62.342 E12.82874
G1 X161.443 Y62.38 E12.85166
G1 X161.961 Y62.425 E12.86895
G1 X162.856 Y62.544 E12.89898
G1 X163.804 Y62.757 E12.9313
G1 X164.576 Y62.999 E12.95821
G1 X165.228 Y63.238 E12.9813
G1 X166.949 Y63.919 E13.04286
G1 X167.805 Y64.304 E13.07408
G1 X168.624 Y64.763 E13.10531
G1 X169.398 Y65.292 E13.13649
G1 X170.097 Y65.864 E13.16653
G1 X170.942 Y66.709 E13.20628
G1 X171.685 Y67.546 E13.2435
G1 X172.557 Y68.574 E13.28834
G1 X173.131 Y69.317 E13.31956
G1 X173.637 Y70.106 E13.35074
G1 X174.071 Y70.938 E13.38195
G1 X174.432 Y71.809 E13.41331
G1 X174.745 Y72.833 E13.44892
G1 X174.991 Y73.829 E13.48305
G1 X175.322 Y75.295 E13.53303
G1 X175.481 Y76.183 E13.56304
G1 X175.577 Y77.452 E13.60536
G1 X175.588 Y78.191 E13.62995
G1 X175.59 Y93.361 E14.1345
G1 X175.578 Y94.23 E14.16341
G1 X175.522 Y95.164 E14.19453
G1 X175.426 Y95.86 E14.2179
G1 X174.938 Y98.697 E14.31364
G1 X174.582 Y101.211 E14.39809
G1 X174.303 Y103.68 E14.48073
G1 X174.084 Y106.252 E14.56659
G1 X173.944 Y108.756 E14.65
G1 X173.873 Y111.287 E14.73422
G1 X173.875 Y113.811 E14.81817
G1 X173.948 Y116.356 E14.90285
G1 X174.104 Y119.061 E14.99297
G1 X174.151 Y119.705 E15.01444
G1 X174.177 Y120.307 E15.03448
G1 X174.188 Y121.049 E15.05916
G1 X174.19 Y136.219 E15.56372
G1 X174.178 Y137.084 E15.59249
G1 X174.121 Y138.025 E15.62385
G1 X173.942 Y139.148 E15.66167
G1 X173.732 Y140.111 E15.69445
G1 X173.373 Y141.605 E15.74556
G1 X173.112 Y142.506 E15.77676
G1 X172.773 Y143.38 E15.80794
G1 X172.358 Y144.223 E15.83919
G1 X171.889 Y144.995 E15.86923
G1 X171.194 Y145.925 E15.90785
G1 X170.68 Y146.537 E15.93443
G1 X169.62 Y147.75 E15.98801
G1 X168.97 Y148.428 E16.01925
G1 X168.263 Y149.045 E16.05046
G1 X167.504 Y149.597 E16.08167
G1 X166.731 Y150.063 E16.11169
G1 X165.667 Y150.568 E16.15087
G1 X164.547 Y151.022 E16.19106
G1 X163.333 Y151.482 E16.23424
G1 X162.441 Y151.775 E16.26547
G1 X161.524 Y151.987 E16.29677
G1 X160.429 Y152.132 E16.33351
G1 X160.026 Y152.164 E16.34696
G1 X159.414 Y152.194 E16.36734
G1 X157.867 Y152.223 E16.4188
G1 X143.148 Y152.224 E16.90835
G1 X142.283 Y152.212 E16.93713
G1 X141.342 Y152.155 E16.96848
G1 X140.219 Y151.976 E17.00631
G1 X139.321 Y151.781 E17.03687
G1 X138.352 Y151.554 E17.06997
G1 X137.648 Y151.377 E17.09411
G1 X136.755 Y151.11 E17.12511
G1 X136.269 Y150.928 E17.14238
G1 X135.669 Y150.686 E17.16389
G1 X133.296 Y149.764 E17.24857
G1 X130.895 Y148.909 E17.33334
G1 X128.49 Y148.13 E17.41742
G1 X126.075 Y147.421 E17.50113
G1 X123.652 Y146.784 E17.58446
G1 X121.16 Y146.203 E17.66957
G1 X118.646 Y145.692 E17.75489
G1 X116.183 Y145.264 E17.83804
G1 X113.714 Y144.905 E17.92102
G1 X111.164 Y144.608 E18.00641
G1 X108.681 Y144.391 E18.08931
G1 X105.824 Y144.225 E18.18449
G1 X105.326 Y144.204 E18.20107
G1 X104.426 Y144.126 E18.23112
G1 X103.548 Y143.974 E18.26076
G1 X102.601 Y143.766 E18.293
G1 X101.106 Y143.407 E18.34414
G1 X100.204 Y143.147 E18.37536
G1 X99.328 Y142.809 E18.40659
G1 X98.518 Y142.41 E18.43663
G1 X97.683 Y141.903 E18.46912
G1 X96.778 Y141.224 E18.50675
G1 X96.048 Y140.609 E18.53849
G1 X94.955 Y139.651 E18.58684
G1 X94.303 Y139.026 E18.61687
G1 X93.662 Y138.293 E18.64926
G1 X93.11 Y137.534 E18.68048
G1 X92.645 Y136.76 E18.71051
G1 X92.143 Y135.706 E18.74934
G1 X91.69 Y134.59 E18.7894
G1 X91.226 Y133.365 E18.83297
G1 X90.934 Y132.473 E18.86418
G1 X90.729 Y131.594 E18.8942
G1 X90.577 Y130.466 E18.93206
G1 X90.545 Y130.065 E18.94544
G1 X90.515 Y129.443 E18.96615
G1 X90.487 Y127.919 E19.01685
G1 X90.488 Y112.929 E19.51542
G1 X90.509 Y112.007 E19.54609
G1 X90.548 Y111.314 E19.56918
G1 X90.639 Y110.378 E19.60046
G1 X90.95 Y107.984 E19.68075
G1 X91.211 Y105.443 E19.76571
G1 X91.399 Y102.917 E19.84996
G1 X91.515 Y100.395 E19.93393
G1 X91.558 Y97.897 E20.01702
G1 X91.539 Y95.657 E20.09153
G1 X91.479 Y92.703 E20.1898
G1 X91.476 Y77.74 E20.68747
G1 X91.5 Y76.597 E20.72549
G1 X91.539 Y75.9 E20.74871
G1 X91.582 Y75.425 E20.76458
G1 X91.708 Y74.494 E20.79582
G1 X91.916 Y73.581 E20.82697
G1 X92.182 Y72.745 E20.85615
G1 X92.675 Y71.412 E20.90342
G1 X93.092 Y70.369 E20.94078
G1 X93.479 Y69.515 E20.97196
G1 X93.941 Y68.697 E21.00321
G1 X94.474 Y67.925 E21.03441
G0 F6000 X94.783 Y68.18
G1 F1200 X95.358 Y67.483 E21.06446
G1 X96.133 Y66.712 E21.10082
G1 X96.963 Y65.975 E21.13774
G1 X97.977 Y65.114 E21.18199
G1 X98.691 Y64.56 E21.21204
G1 X99.45 Y64.072 E21.24206
G1 X100.25 Y63.653 E21.27209
G1 X101.084 Y63.306 E21.30214
G1 X102.108 Y62.993 E21.33775
G1 X103.075 Y62.754 E21.37088
G1 X104.524 Y62.427 E21.42029
G1 X105.412 Y62.268 E21.45029
G1 X106.616 Y62.178 E21.49045
G1 X107.349 Y62.167 E21.51483
G1 X122.514 Y62.165 E22.01922
G1 X123.666 Y62.187 E22.05754
G1 X124.332 Y62.223 E22.07973
G1 X125.138 Y62.298 E22.10665
G1 X125.913 Y62.39 E22.13261
G1 X128.438 Y62.65 E22.21703
G1 X131.016 Y62.843 E22.30302
G1 X133.536 Y62.959 E22.38692
G1 X136.076 Y63.004 E22.47142
G1 X138.609 Y62.978 E22.55567
G1 X141.13 Y62.881 E22.63958
G1 X143.183 Y62.751 E22.708
G1 X143.677 Y62.732 E22.72444
G1 X144.417 Y62.721 E22.74906
G1 X159.801 Y62.721 E23.26073
G1 X160.733 Y62.741 E23.29174
G1 X161.408 Y62.778 E23.31422
G1 X161.908 Y62.822 E23.33092
G1 X162.803 Y62.941 E23.36095
G1 X163.685 Y63.139 E23.39101
G1 X164.439 Y63.375 E23.41729
G1 X165.081 Y63.61 E23.44003
G1 X166.786 Y64.284 E23.50101
G1 X167.61 Y64.653 E23.53104
G1 X168.399 Y65.093 E23.56108
G1 X169.145 Y65.602 E23.59112
G1 X169.844 Y66.174 E23.62116
G1 X170.643 Y66.975 E23.65879
G1 X171.38 Y67.805 E23.69571
G1 X172.241 Y68.819 E23.73995
G1 X172.795 Y69.533 E23.77001
G1 X173.283 Y70.292 E23.80002
G1 X173.702 Y71.092 E23.83006
G1 X174.049 Y71.926 E23.8601
G1 X174.362 Y72.95 E23.89572
G1 X174.601 Y73.917 E23.92885
G1 X174.928 Y75.366 E23.97825
G1 X175.087 Y76.254 E24.00826
G1 X175.177 Y77.458 E24.04841
G1 X175.188 Y78.191 E24.0728
G1 X175.19 Y93.356 E24.57719
G1 X175.179 Y94.207 E24.60549
G1 X175.126 Y95.109 E24.63555
G1 X175.032 Y95.792 E24.65848
G1 X174.544 Y98.629 E24.75422
G1 X174.186 Y101.155 E24.83908
G1 X173.904 Y103.646 E24.92246
G1 X173.686 Y106.218 E25.00831
G1 X173.544 Y108.745 E25.09249
G1 X173.473 Y111.276 E25.1767
G1 X173.475 Y113.811 E25.26102
G1 X173.548 Y116.367 E25.34607
G1 X173.705 Y119.09 E25.43678
G1 X173.751 Y119.723 E25.45789
G1 X173.777 Y120.313 E25.47754
G1 X173.788 Y121.049 E25.50202
G1 X173.79 Y136.214 E26.00641
G1 X173.779 Y137.061 E26.03458
G1 X173.726 Y137.962 E26.0646
G1 X173.551 Y139.063 E26.10168
G1 X173.343 Y140.018 E26.13419
G1 X172.989 Y141.494 E26.18467
G1 X172.739 Y142.362 E26.21471
G1 X172.414 Y143.204 E26.24473
G1 X172.016 Y144.015 E26.27478
G1 X171.547 Y144.787 E26.30482
G1 X170.887 Y145.668 E26.34144
G1 X170.379 Y146.274 E26.36774
G1 X169.331 Y147.474 E26.42073
G1 X168.707 Y148.127 E26.45077
G1 X168.027 Y148.722 E26.48082
G1 X167.297 Y149.254 E26.51087
G1 X166.524 Y149.72 E26.54089
G1 X165.517 Y150.197 E26.57795
G1 X164.405 Y150.648 E26.61786
G1 X163.208 Y151.102 E26.66044
G1 X162.35 Y151.385 E26.69049
G1 X161.471 Y151.59 E26.72051
G1 X160.397 Y151.733 E26.75654
G1 X160.006 Y151.764 E26.76959
G1 X159.406 Y151.794 E26.78957
G1 X157.867 Y151.823 E26.84077
G1 X143.153 Y151.824 E27.33016
G1 X142.306 Y151.813 E27.35833
G1 X141.405 Y151.76 E27.38835
G1 X140.304 Y151.585 E27.42543
G1 X139.412 Y151.392 E27.45578
G1 X138.449 Y151.166 E27.48868
G1 X137.762 Y150.994 E27.51224
G1 X136.896 Y150.736 E27.54229
G1 X136.419 Y150.557 E27.55924
G1 X135.819 Y150.315 E27.58076
G1 X133.441 Y149.391 E27.66561
G1 X131.029 Y148.533 E27.75076
G1 X128.603 Y147.746 E27.83559
G1 X126.188 Y147.037 E27.9193
G1 X123.743 Y146.394 E28.00338
G1 X121.251 Y145.813 E28.08849
G1 X118.726 Y145.3 E28.17419
G1 X116.243 Y144.868 E28.25802
G1 X113.771 Y144.509 E28.3411
G1 X111.21 Y144.211 E28.42685
G1 X108.706 Y143.992 E28.51045
G1 X105.841 Y143.825 E28.6059
G1 X105.361 Y143.805 E28.62188
G1 X104.461 Y143.727 E28.65193
G1 X103.634 Y143.583 E28.67985
G1 X102.694 Y143.377 E28.71186
G1 X101.216 Y143.023 E28.7624
G1 X100.348 Y142.774 E28.79244
G1 X99.505 Y142.45 E28.82248
G1 X98.695 Y142.051 E28.85251
G1 X97.923 Y141.583 E28.88253
G1 X97.036 Y140.918 E28.91941
G1 X96.312 Y140.308 E28.95089
G1 X95.232 Y139.362 E28.99865
G1 X94.58 Y138.737 E29.02869
G1 X93.985 Y138.057 E29.05874
G1 X93.453 Y137.328 E29.08876
G1 X92.988 Y136.554 E29.11879
G1 X92.514 Y135.555 E29.15557
G1 X92.064 Y134.448 E29.19531
G1 X91.606 Y133.24 E29.23828
G1 X91.324 Y132.382 E29.26832
G1 X91.119 Y131.503 E29.29834
G1 X90.976 Y130.434 E29.33421
G1 X90.945 Y130.045 E29.34719
G1 X90.915 Y129.436 E29.36747
G1 X90.887 Y127.919 E29.41793
G1 X90.888 Y112.938 E29.9162
G1 X90.908 Y112.029 E29.94644
G1 X90.946 Y111.353 E29.96896
G1 X91.036 Y110.43 E29.99981
G1 X91.347 Y108.036 E30.0801
G1 X91.609 Y105.484 E30.16543
G1 X91.798 Y102.947 E30.25004
G1 X91.915 Y100.413 E30.33441
G1 X91.958 Y97.904 E30.41788
G1 X91.939 Y95.654 E30.49271
G1 X91.879 Y92.703 E30.59089
G1 X91.876 Y77.748 E31.08829
G1 X91.899 Y76.619 E31.12585
G1 X91.937 Y75.936 E31.1486
G1 X91.978 Y75.478 E31.16389
G1 X92.098 Y74.582 E31.19396
G1 X92.297 Y73.702 E31.22397
G1 X92.557 Y72.884 E31.25252
G1 X93.046 Y71.56 E31.29946
G1 X93.456 Y70.534 E31.33621
G1 X93.828 Y69.711 E31.36625
G1 X94.271 Y68.924 E31.39629
G1 X94.783 Y68.18 E31.42633
G1 F1500 E27.42633
;MESH:Distans.stl
G0 F6000 X101.414 Y76.998
G0 X106.846 Y97.612
;TYPE:WALL-INNER
G1 F1500 E31.42633
G1 F1200 X123.191 Y97.608 E31.96996
G1 X123.796 Y97.567 E31.99013
G1 X125.627 Y96.858 E32.05544
G1 X126.857 Y95.428 E32.11817
G1 X127.324 Y93.438 E32.18616
G1 X127.32 Y77.133 E32.72847
G1 X126.857 Y75.144 E32.79639
G1 X125.627 Y73.717 E32.85905
G1 X123.817 Y73.012 E32.92366
G1 X123.189 Y72.964 E32.9446
