;FLAVOR:Marlin
;TIME:21767
;Filament used: 14.1313m
;Layer height: 0.2
;MINX:30.5
;MINY:47.181
;MINZ:0.2
;MAXX:199.5
;MAXY:198.944
;MAXZ:30
;TARGET_MACHINE.NAME:Creality Ender-3 v2 Neo
;Generated with Cura_SteamEngine 5.7.2
M140 S60
M105
M190 S60
M104 S200
M105
M109 S200
M82 ;absolute extrusion mode
G92 E0 ;Reset Extruder
G28 ;Home
G1 Z2.0 F3000 ;Move Z Axis up
G1 X10.1 Y20 Z0.28 F5000.0 ;Move to start position
G1 X10.1 Y200.0 Z0.28 F1500.0 E15 ;Draw the first line
G1 X10.4 Y200.0 Z0.28 F5000.0 ;Move to side a little
G1 X10.4 Y20 Z0.28 F1500.0 E30 ;Draw the second line
G92 E0 ;Reset Extruder
G1 Z2.0 F3000 ;Move Z Axis up
G92 E0
G92 E0
G1 F1500 E-4
;LAYER_COUNT:150
;LAYER:0
M107
G0 F6000 X39.531 Y51.932 Z0.2
;TYPE:SKIRT
G1 F1500 E0
G1 F1200 X40.289 Y51.371 E0.03136
G1 X41.26 Y50.786 E0.06907
G1 X41.984 Y50.402 E0.09633
G1 X44.311 Y49.216 E0.1832
G1 X44.958 Y48.898 E0.20717
G1 X45.818 Y48.522 E0.23839
G1 X46.782 Y48.2 E0.2722
G1 X47.895 Y47.945 E0.31017
G1 X48.669 Y47.81 E0.33631
G1 X51.25 Y47.401 E0.42322
G1 X51.942 Y47.302 E0.44647
G1 X53.162 Y47.196 E0.4872
G1 X53.819 Y47.181 E0.50906
G1 X175.961 Y47.182 E4.57152
G1 X176.722 Y47.195 E4.59683
G1 X177.858 Y47.276 E4.63471
G1 X178.51 Y47.363 E4.65659
G1 X181.412 Y47.823 E4.75432
G1 X182.131 Y47.949 E4.7786
G1 X183.013 Y48.144 E4.80864
G1 X184.016 Y48.462 E4.84364
G1 X185.027 Y48.894 E4.8802
G1 X185.723 Y49.234 E4.90597
G1 X188.041 Y50.414 E4.99248
G1 X188.697 Y50.761 E5.01716
G1 X189.537 Y51.255 E5.04957
G1 X190.335 Y51.826 E5.08221
G1 X191.206 Y52.586 E5.12066
G1 X191.761 Y53.125 E5.14639
G1 X193.619 Y54.984 E5.23381
G1 X194.109 Y55.489 E5.25721
G1 X194.709 Y56.164 E5.28725
G1 X195.335 Y57.01 E5.32225
G1 X195.911 Y57.971 E5.35952
G1 X196.356 Y58.815 E5.39125
G1 X197.462 Y60.984 E5.47223
G1 X197.78 Y61.631 E5.49621
G1 X198.156 Y62.491 E5.52743
G1 X198.479 Y63.455 E5.56124
G1 X198.729 Y64.538 E5.59821
G1 X198.901 Y65.532 E5.63176
G1 X199.259 Y67.795 E5.70796
G1 X199.379 Y68.631 E5.73605
G1 X199.485 Y69.847 E5.77665
G1 X199.5 Y70.504 E5.79851
G1 X199.499 Y87.608 E6.36739
G1 X199.487 Y88.367 E6.39264
G1 X199.429 Y89.339 E6.42502
G1 X199.283 Y90.303 E6.45745
G1 X199.05 Y91.258 E6.49015
G1 X198.659 Y92.374 E6.52948
G1 X197.675 Y94.733 E6.61449
G1 X196.789 Y97.029 E6.69635
G1 X195.947 Y99.415 E6.7805
G1 X195.167 Y101.836 E6.8651
G1 X194.463 Y104.25 E6.94873
G1 X193.834 Y106.668 E7.03183
G1 X193.266 Y109.135 E7.11603
G1 X192.764 Y111.624 E7.20048
G1 X192.348 Y114.057 E7.28258
G1 X191.99 Y116.565 E7.36684
G1 X191.707 Y119.043 E7.4498
G1 X191.487 Y121.6 E7.53516
G1 X191.349 Y124.048 E7.61671
G1 X191.275 Y126.618 E7.70222
G1 X191.273 Y129.129 E7.78574
G1 X191.344 Y131.636 E7.86915
G1 X191.485 Y134.134 E7.95237
G1 X191.698 Y136.682 E8.03741
G1 X191.975 Y139.116 E8.11889
G1 X192.336 Y141.667 E8.20458
G1 X192.752 Y144.101 E8.28671
G1 X193.253 Y146.603 E8.37158
G1 X193.802 Y149.002 E8.45343
G1 X194.446 Y151.481 E8.53862
G1 X195.148 Y153.899 E8.62237
G1 X195.908 Y156.27 E8.70518
G1 X196.751 Y158.661 E8.7895
G1 X197.695 Y161.113 E8.87689
G1 X198.109 Y162.142 E8.91378
G1 X198.434 Y163.073 E8.94658
G1 X198.733 Y164.328 E8.98949
G1 X198.901 Y165.295 E9.02213
G1 X199.259 Y167.558 E9.09834
G1 X199.379 Y168.394 E9.12643
G1 X199.485 Y169.61 E9.16703
G1 X199.5 Y170.267 E9.18888
G1 X199.499 Y187.344 E9.75687
G1 X199.488 Y188.107 E9.78225
G1 X199.431 Y189.08 E9.81466
G1 X199.286 Y190.043 E9.84705
G1 X199.057 Y190.989 E9.87943
G1 X198.746 Y191.913 E9.91185
G1 X198.354 Y192.804 E9.94423
G1 X197.886 Y193.656 E9.97656
G1 X197.364 Y194.437 E10.0078
G1 X196.731 Y195.222 E10.04135
G1 X196.106 Y195.873 E10.07136
G1 X195.317 Y196.561 E10.10618
G1 X194.557 Y197.111 E10.13738
G1 X193.69 Y197.628 E10.17096
G1 X192.812 Y198.05 E10.20336
G1 X191.901 Y198.392 E10.23572
G1 X190.962 Y198.653 E10.26814
G1 X189.996 Y198.831 E10.30081
G1 X188.845 Y198.929 E10.33923
G1 X188.17 Y198.944 E10.36168
G1 X42.064 Y198.943 E15.22119
G1 X41.331 Y198.932 E15.24557
G1 X40.359 Y198.875 E15.27796
G1 X39.396 Y198.729 E15.31035
G1 X38.45 Y198.5 E15.34272
G1 X37.526 Y198.188 E15.37516
G1 X36.636 Y197.796 E15.40751
G1 X35.813 Y197.345 E15.43872
G1 X34.974 Y196.784 E15.47229
G1 X34.27 Y196.218 E15.50233
G1 X33.517 Y195.493 E15.5371
G1 X32.88 Y194.757 E15.56947
G1 X32.35 Y194.026 E15.59951
G1 X31.814 Y193.129 E15.63426
G1 X31.392 Y192.251 E15.66666
G1 X31.05 Y191.339 E15.69906
G1 X30.79 Y190.401 E15.73143
G1 X30.612 Y189.432 E15.7642
G1 X30.514 Y188.253 E15.80355
G1 X30.5 Y187.602 E15.82521
G1 X30.501 Y170.483 E16.39459
G1 X30.514 Y169.721 E16.41993
G1 X30.595 Y168.584 E16.45785
G1 X30.687 Y167.898 E16.48087
G1 X31.139 Y165.053 E16.57668
G1 X31.257 Y164.362 E16.59999
G1 X31.47 Y163.397 E16.63286
G1 X31.862 Y162.212 E16.67438
G1 X32.737 Y160.023 E16.75278
G1 X33.619 Y157.642 E16.83724
G1 X34.419 Y155.277 E16.92027
G1 X35.158 Y152.876 E17.00383
G1 X35.831 Y150.439 E17.08792
G1 X36.44 Y147.977 E17.17227
G1 X36.972 Y145.518 E17.25595
G1 X37.433 Y143.061 E17.3391
G1 X37.823 Y140.591 E17.42227
G1 X38.151 Y138.057 E17.50725
G1 X38.404 Y135.544 E17.59126
G1 X38.581 Y133.081 E17.67339
G1 X38.692 Y130.552 E17.75758
G1 X38.732 Y128.006 E17.84227
G1 X38.7 Y125.494 E17.92583
G1 X38.596 Y122.987 E18.00929
G1 X38.422 Y120.482 E18.0928
G1 X38.176 Y117.971 E18.17672
G1 X37.86 Y115.483 E18.26014
G1 X37.473 Y112.988 E18.34411
G1 X37.018 Y110.521 E18.42755
G1 X36.49 Y108.059 E18.5113
G1 X35.898 Y105.628 E18.59452
G1 X35.231 Y103.195 E18.67842
G1 X34.489 Y100.756 E18.76322
G1 X33.694 Y98.387 E18.84633
G1 X32.832 Y96.039 E18.92952
G1 X31.776 Y93.412 E19.02369
G1 X31.347 Y92.383 E19.06077
G1 X31.015 Y91.469 E19.09311
G1 X30.764 Y90.527 E19.12553
G1 X30.597 Y89.561 E19.15814
G1 X30.513 Y88.475 E19.19437
G1 X30.5 Y87.851 E19.21513
G1 X30.501 Y70.72 E19.78491
G1 X30.514 Y69.958 E19.81026
G1 X30.595 Y68.821 E19.84817
G1 X30.687 Y68.135 E19.87119
G1 X31.143 Y65.266 E19.96781
G1 X31.263 Y64.572 E19.99123
G1 X31.474 Y63.622 E20.0236
G1 X31.745 Y62.76 E20.05366
G1 X32.213 Y61.654 E20.0936
G1 X32.642 Y60.78 E20.12598
G1 X33.683 Y58.736 E20.20227
G1 X34.092 Y57.964 E20.23133
G1 X34.588 Y57.125 E20.26375
G1 X35.159 Y56.329 E20.29633
G1 X35.868 Y55.515 E20.33223
G1 X36.432 Y54.932 E20.35921
G1 X38.295 Y53.068 E20.44687
G1 X38.788 Y52.589 E20.46973
G1 X39.531 Y51.932 E20.50272
G0 F6000 X39.769 Y52.254
G1 F1200 X40.527 Y51.693 E20.53408
G1 X41.466 Y51.129 E20.57051
G1 X42.166 Y50.758 E20.59686
G1 X44.487 Y49.575 E20.68351
G1 X45.118 Y49.265 E20.70689
G1 X45.978 Y48.889 E20.73811
G1 X46.872 Y48.59 E20.76946
G1 X47.964 Y48.339 E20.80673
G1 X48.732 Y48.205 E20.83266
G1 X51.307 Y47.797 E20.91938
G1 X51.999 Y47.698 E20.94263
G1 X53.171 Y47.596 E20.98175
G1 X53.819 Y47.581 E21.00331
G1 X175.955 Y47.582 E25.06557
G1 X176.694 Y47.594 E25.09015
G1 X177.83 Y47.675 E25.12803
G1 X178.447 Y47.758 E25.14874
G1 X181.343 Y48.217 E25.24626
G1 X182.045 Y48.34 E25.26997
G1 X182.927 Y48.535 E25.30001
G1 X183.859 Y48.83 E25.33253
G1 X184.851 Y49.253 E25.36839
G1 X185.541 Y49.59 E25.39394
G1 X187.854 Y50.768 E25.48027
G1 X188.495 Y51.106 E25.50437
G1 X189.305 Y51.581 E25.5356
G1 X190.072 Y52.128 E25.56694
G1 X190.927 Y52.873 E25.60465
G1 X191.482 Y53.412 E25.63039
G1 X193.332 Y55.262 E25.7174
G1 X193.81 Y55.755 E25.74024
G1 X194.41 Y56.43 E25.77028
G1 X194.992 Y57.216 E25.80281
G1 X195.557 Y58.158 E25.83934
G1 X196 Y58.997 E25.8709
G1 X197.103 Y61.161 E25.95169
G1 X197.413 Y61.791 E25.97504
G1 X197.789 Y62.651 E26.00626
G1 X198.089 Y63.545 E26.03762
G1 X198.339 Y64.628 E26.07459
G1 X198.506 Y65.594 E26.1072
G1 X198.863 Y67.852 E26.18323
G1 X198.983 Y68.688 E26.21132
G1 X199.085 Y69.856 E26.25032
G1 X199.1 Y70.504 E26.27187
G1 X199.099 Y87.602 E26.84056
G1 X199.088 Y88.344 E26.86524
G1 X199.033 Y89.28 E26.89642
G1 X198.894 Y90.209 E26.92767
G1 X198.672 Y91.126 E26.95905
G1 X198.281 Y92.242 E26.99838
G1 X197.306 Y94.579 E27.0826
G1 X196.416 Y96.885 E27.16481
G1 X195.566 Y99.292 E27.24971
G1 X194.786 Y101.713 E27.33431
G1 X194.079 Y104.138 E27.41833
G1 X193.447 Y106.567 E27.5018
G1 X192.876 Y109.045 E27.58638
G1 X192.372 Y111.545 E27.67121
G1 X191.952 Y114 E27.75405
G1 X191.594 Y116.508 E27.83831
G1 X191.308 Y119.009 E27.92203
G1 X191.089 Y121.566 E28.00739
G1 X190.949 Y124.036 E28.08968
G1 X190.875 Y126.606 E28.17519
G1 X190.873 Y129.129 E28.2591
G1 X190.944 Y131.647 E28.34289
G1 X191.086 Y134.167 E28.42684
G1 X191.3 Y136.715 E28.51188
G1 X191.579 Y139.172 E28.59413
G1 X191.942 Y141.734 E28.68019
G1 X192.36 Y144.18 E28.76272
G1 X192.863 Y146.692 E28.84793
G1 X193.415 Y149.103 E28.9302
G1 X194.062 Y151.592 E29.01573
G1 X194.767 Y154.021 E29.09986
G1 X195.531 Y156.403 E29.18306
G1 X196.378 Y158.805 E29.26777
G1 X197.324 Y161.262 E29.35534
G1 X197.732 Y162.275 E29.39166
G1 X198.045 Y163.166 E29.42307
G1 X198.339 Y164.397 E29.46516
G1 X198.506 Y165.357 E29.49757
G1 X198.863 Y167.615 E29.57361
G1 X198.983 Y168.451 E29.6017
G1 X199.085 Y169.619 E29.64069
G1 X199.1 Y170.267 E29.66225
G1 X199.099 Y187.339 E30.23007
G1 X199.089 Y188.084 E30.25485
G1 X199.035 Y189.021 E30.28607
G1 X198.897 Y189.95 E30.3173
G1 X198.678 Y190.862 E30.3485
G1 X198.38 Y191.752 E30.37972
G1 X198.003 Y192.612 E30.41095
G1 X197.553 Y193.434 E30.44212
G1 X197.031 Y194.215 E30.47336
G1 X196.442 Y194.945 E30.50456
G1 X195.817 Y195.596 E30.53457
G1 X195.082 Y196.237 E30.56701
G1 X194.322 Y196.787 E30.59821
G1 X193.516 Y197.268 E30.62943
G1 X192.671 Y197.676 E30.66064
G1 X191.793 Y198.007 E30.69185
G1 X190.889 Y198.26 E30.72307
G1 X189.962 Y198.432 E30.75443
G1 X188.811 Y198.53 E30.79285
G1 X188.17 Y198.544 E30.81418
G1 X42.07 Y198.543 E35.67348
G1 X41.354 Y198.533 E35.6973
G1 X40.418 Y198.479 E35.72848
G1 X39.489 Y198.34 E35.75972
G1 X38.577 Y198.121 E35.79092
G1 X37.687 Y197.822 E35.82215
G1 X36.828 Y197.445 E35.85335
G1 X36.005 Y196.994 E35.88456
G1 X35.225 Y196.472 E35.91578
G1 X34.521 Y195.906 E35.94582
G1 X33.819 Y195.231 E35.97821
G1 X33.204 Y194.522 E36.00943
G1 X32.674 Y193.791 E36.03946
G1 X32.174 Y192.955 E36.07186
G1 X31.766 Y192.11 E36.10307
G1 X31.435 Y191.232 E36.13428
G1 X31.183 Y190.328 E36.16549
G1 X31.011 Y189.399 E36.19692
G1 X30.913 Y188.22 E36.23627
G1 X30.9 Y187.602 E36.25682
G1 X30.901 Y170.489 E36.82601
G1 X30.913 Y169.749 E36.85062
G1 X30.994 Y168.612 E36.88853
G1 X31.082 Y167.961 E36.91038
G1 X31.533 Y165.12 E37.00606
G1 X31.648 Y164.447 E37.02877
G1 X31.85 Y163.523 E37.06023
G1 X32.242 Y162.338 E37.10174
G1 X33.112 Y160.162 E37.17968
G1 X33.994 Y157.781 E37.26413
G1 X34.798 Y155.405 E37.34756
G1 X35.544 Y152.982 E37.43188
G1 X36.217 Y150.545 E37.51597
G1 X36.831 Y148.062 E37.60105
G1 X37.363 Y145.603 E37.68473
G1 X37.826 Y143.135 E37.76824
G1 X38.22 Y140.642 E37.85219
G1 X38.548 Y138.108 E37.93717
G1 X38.802 Y135.584 E38.02155
G1 X38.981 Y133.099 E38.10441
G1 X39.092 Y130.57 E38.18861
G1 X39.132 Y128.012 E38.2737
G1 X39.1 Y125.489 E38.35762
G1 X38.996 Y122.97 E38.44147
G1 X38.821 Y120.454 E38.52536
G1 X38.574 Y117.932 E38.60964
G1 X38.257 Y115.433 E38.69342
G1 X37.868 Y112.927 E38.77777
G1 X37.411 Y110.448 E38.86161
G1 X36.879 Y107.964 E38.94611
G1 X36.287 Y105.533 E39.02932
G1 X35.617 Y103.089 E39.11361
G1 X34.872 Y100.64 E39.19875
G1 X34.073 Y98.26 E39.28225
G1 X33.207 Y95.901 E39.36583
G1 X32.147 Y93.263 E39.46039
G1 X31.723 Y92.246 E39.49704
G1 X31.401 Y91.365 E39.52824
G1 X31.158 Y90.458 E39.55947
G1 X30.996 Y89.53 E39.5908
G1 X30.913 Y88.467 E39.62626
G1 X30.9 Y87.851 E39.64676
G1 X30.901 Y70.726 E40.21634
G1 X30.913 Y69.986 E40.24095
G1 X30.994 Y68.849 E40.27886
G1 X31.082 Y68.198 E40.30071
G1 X31.537 Y65.334 E40.39716
G1 X31.654 Y64.658 E40.41998
G1 X31.856 Y63.742 E40.45118
G1 X32.127 Y62.88 E40.48123
G1 X32.572 Y61.83 E40.51916
G1 X32.998 Y60.962 E40.55132
G1 X34.037 Y58.923 E40.62744
G1 X34.437 Y58.167 E40.65589
G1 X34.913 Y57.358 E40.68711
G1 X35.461 Y56.592 E40.71843
G1 X36.17 Y55.778 E40.75433
G1 X36.715 Y55.215 E40.7804
G1 X38.574 Y53.355 E40.86786
G1 X39.067 Y52.876 E40.89072
G1 X39.769 Y52.254 E40.92192
G0 F6000 X40.008 Y52.575
G1 F1200 X40.733 Y52.036 E40.95197
G1 X41.672 Y51.472 E40.9884
G1 X42.348 Y51.114 E41.01384
G1 X44.664 Y49.934 E41.10029
G1 X45.279 Y49.631 E41.1231
G1 X46.106 Y49.268 E41.15313
G1 X46.962 Y48.98 E41.18317
G1 X48.033 Y48.733 E41.21973
G1 X48.795 Y48.6 E41.24546
G1 X51.364 Y48.193 E41.33197
G1 X52.056 Y48.094 E41.35522
G1 X53.18 Y47.996 E41.39275
G1 X53.819 Y47.981 E41.414
G1 X175.949 Y47.982 E45.47606
G1 X176.666 Y47.993 E45.49992
G1 X177.802 Y48.074 E45.53779
G1 X178.384 Y48.153 E45.55733
G1 X181.274 Y48.611 E45.65465
G1 X181.959 Y48.731 E45.67778
G1 X182.841 Y48.926 E45.70782
G1 X183.702 Y49.198 E45.73786
G1 X184.675 Y49.612 E45.77303
G1 X185.359 Y49.946 E45.79834
G1 X187.668 Y51.122 E45.88453
G1 X188.293 Y51.451 E45.90802
G1 X189.073 Y51.907 E45.93807
G1 X189.809 Y52.43 E45.9681
G1 X190.648 Y53.16 E46.00509
G1 X191.203 Y53.699 E46.03082
G1 X193.045 Y55.541 E46.11747
G1 X193.511 Y56.021 E46.13972
G1 X194.111 Y56.696 E46.16975
G1 X194.649 Y57.422 E46.19981
G1 X195.203 Y58.345 E46.23561
G1 X195.644 Y59.179 E46.26699
G1 X196.744 Y61.338 E46.34758
G1 X197.047 Y61.952 E46.37036
G1 X197.41 Y62.779 E46.40039
G1 X197.699 Y63.635 E46.43044
G1 X197.949 Y64.718 E46.46741
G1 X198.111 Y65.656 E46.49907
G1 X198.467 Y67.909 E46.57494
G1 X198.587 Y68.745 E46.60303
G1 X198.685 Y69.865 E46.64042
G1 X198.7 Y70.504 E46.66168
G1 X198.699 Y87.596 E47.23016
G1 X198.689 Y88.321 E47.25428
G1 X198.637 Y89.222 E47.2843
G1 X198.505 Y90.116 E47.31435
G1 X198.294 Y90.994 E47.34439
G1 X197.903 Y92.11 E47.38372
G1 X196.937 Y94.425 E47.46715
G1 X196.043 Y96.741 E47.54972
G1 X195.185 Y99.169 E47.63537
G1 X194.405 Y101.59 E47.71997
G1 X193.695 Y104.026 E47.80436
G1 X193.06 Y106.466 E47.88822
G1 X192.486 Y108.955 E47.97318
G1 X191.98 Y111.466 E48.05837
G1 X191.556 Y113.943 E48.14195
G1 X191.198 Y116.451 E48.22622
G1 X190.909 Y118.975 E48.31071
G1 X190.691 Y121.532 E48.39607
G1 X190.549 Y124.024 E48.47909
G1 X190.475 Y126.594 E48.5646
G1 X190.473 Y129.129 E48.64891
G1 X190.544 Y131.658 E48.73306
G1 X190.687 Y134.201 E48.81778
G1 X190.902 Y136.749 E48.90283
G1 X191.183 Y139.228 E48.9858
G1 X191.548 Y141.801 E49.07224
G1 X191.968 Y144.259 E49.15518
G1 X192.473 Y146.781 E49.24073
G1 X193.028 Y149.204 E49.3234
G1 X193.678 Y151.703 E49.40928
G1 X194.386 Y154.143 E49.49379
G1 X195.154 Y156.536 E49.57738
G1 X196.005 Y158.949 E49.66248
G1 X196.953 Y161.412 E49.75026
G1 X197.355 Y162.408 E49.78598
G1 X197.656 Y163.259 E49.816
G1 X197.945 Y164.466 E49.85728
G1 X198.111 Y165.419 E49.88946
G1 X198.467 Y167.672 E49.96532
G1 X198.587 Y168.508 E49.99341
G1 X198.685 Y169.628 E50.03081
G1 X198.7 Y170.267 E50.05206
G1 X198.699 Y187.334 E50.61972
G1 X198.69 Y188.061 E50.6439
G1 X198.639 Y188.963 E50.67395
G1 X198.508 Y189.857 E50.704
G1 X198.299 Y190.735 E50.73402
G1 X198.013 Y191.592 E50.76407
G1 X197.652 Y192.42 E50.79411
G1 X197.22 Y193.212 E50.82411
G1 X196.719 Y193.964 E50.85417
G1 X196.153 Y194.668 E50.88421
G1 X195.528 Y195.319 E50.91423
G1 X194.847 Y195.913 E50.94428
G1 X194.116 Y196.444 E50.97434
G1 X193.342 Y196.908 E51.00435
G1 X192.529 Y197.302 E51.0344
G1 X191.685 Y197.622 E51.06442
G1 X190.815 Y197.867 E51.09448
G1 X189.928 Y198.033 E51.1245
G1 X188.777 Y198.131 E51.16292
G1 X188.17 Y198.144 E51.18311
G1 X42.075 Y198.143 E56.04225
G1 X41.377 Y198.134 E56.06547
G1 X40.476 Y198.083 E56.09548
G1 X39.582 Y197.951 E56.12554
G1 X38.704 Y197.742 E56.15556
G1 X37.847 Y197.455 E56.18562
G1 X37.02 Y197.094 E56.21563
G1 X36.227 Y196.661 E56.24568
G1 X35.476 Y196.16 E56.27571
G1 X34.772 Y195.594 E56.30575
G1 X34.121 Y194.968 E56.33579
G1 X33.528 Y194.287 E56.36582
G1 X32.998 Y193.556 E56.39586
G1 X32.534 Y192.781 E56.4259
G1 X32.14 Y191.968 E56.45595
G1 X31.82 Y191.124 E56.48597
G1 X31.576 Y190.254 E56.51602
G1 X31.41 Y189.366 E56.54607
G1 X31.313 Y188.211 E56.58462
G1 X31.3 Y187.602 E56.60488
G1 X31.301 Y170.495 E57.17386
G1 X31.312 Y169.777 E57.19774
G1 X31.393 Y168.64 E57.23566
G1 X31.477 Y168.024 E57.25633
G1 X31.927 Y165.187 E57.35187
G1 X32.039 Y164.532 E57.37397
G1 X32.23 Y163.649 E57.40402
G1 X32.622 Y162.464 E57.44554
G1 X33.483 Y160.311 E57.52266
G1 X34.369 Y157.92 E57.60747
