;FLAVOR:Marlin
;TIME:249
;Filament used: 0.0835278m
;Layer height: 0.2
;MINX:100.821
;MINY:100.957
;MINZ:0.2
;MAXX:129.179
;MAXY:129.043
;MAXZ:10
;TARGET_MACHINE.NAME:Creality Ender-3 v2 Neo
;Generated with Cura_SteamEngine 5.7.2
M140 S60
M105
M190 S60
M104 S200
M105
M109 S200
M82 ;absolute extrusion mode
G92 E0 ;Reset Extruder
G28 ;Home
G1 Z2.0 F3000 ;Move Z Axis up
G1 X10.1 Y20 Z0.28 F5000.0 ;Move to start position
G1 X10.1 Y200.0 Z0.28 F1500.0 E15 ;Draw the first line
G1 X10.4 Y200.0 Z0.28 F5000.0 ;Move to side a little
G1 X10.4 Y20 Z0.28 F1500.0 E30 ;Draw the second line
G92 E0 ;Reset Extruder
G1 Z2.0 F3000 ;Move Z Axis up
G92 E0
G92 E0
G1 F1500 E-4
;LAYER_COUNT:50
;LAYER:0
M107
G0 F6000 X104.496 Y105.501 Z0.2
;TYPE:SKIRT
G1 F1500 E0
G1 F1200 X105.223 Y104.812 E0.03331
G1 X105.801 Y104.345 E0.05803
G1 X106.72 Y103.657 E0.09621
G1 X107.659 Y102.99 E0.13452
G1 X108.479 Y102.463 E0.16694
G1 X109.34 Y102.012 E0.19927
G1 X110.173 Y101.662 E0.22932
G1 X111.169 Y101.346 E0.26407
G1 X112.121 Y101.135 E0.29651
G1 X113.016 Y101.017 E0.32653
G1 X113.822 Y100.973 E0.35338
G1 X114.986 Y100.957 E0.3921
G1 X116.099 Y100.968 E0.42912
G1 X117.088 Y101.024 E0.46207
G1 X118.053 Y101.165 E0.4945
G1 X118.999 Y101.39 E0.52684
G1 X119.924 Y101.699 E0.55928
G1 X120.815 Y102.087 E0.5916
G1 X121.637 Y102.533 E0.62271
G1 X122.304 Y102.967 E0.64918
G1 X123.021 Y103.471 E0.67833
G1 X124.131 Y104.288 E0.72417
G1 X124.888 Y104.903 E0.75661
G1 X125.585 Y105.582 E0.78897
G1 X126.22 Y106.32 E0.82135
G1 X126.768 Y107.082 E0.85257
G1 X127.283 Y107.951 E0.88617
G1 X127.686 Y108.793 E0.91721
G1 X127.973 Y109.534 E0.94364
G1 X128.358 Y110.663 E0.98332
G1 X128.692 Y111.728 E1.02044
G1 X128.924 Y112.601 E1.05049
G1 X129.102 Y113.632 E1.08528
G1 X129.179 Y114.602 E1.11765
G1 X129.17 Y115.575 E1.15001
G1 X129.076 Y116.545 E1.18242
G1 X128.905 Y117.463 E1.21348
G1 X128.706 Y118.207 E1.2391
G1 X128.367 Y119.303 E1.27726
G1 X127.998 Y120.402 E1.31581
G1 X127.645 Y121.308 E1.34815
G1 X127.213 Y122.181 E1.38055
G1 X126.705 Y123.012 E1.41294
G1 X126.126 Y123.796 E1.44536
G1 X125.505 Y124.498 E1.47653
G1 X124.777 Y125.188 E1.5099
G1 X124.202 Y125.653 E1.53449
G1 X123.302 Y126.327 E1.57189
G1 X122.344 Y127.008 E1.61098
G1 X121.525 Y127.535 E1.64337
G1 X120.662 Y127.987 E1.67578
G1 X119.764 Y128.36 E1.70812
G1 X118.87 Y128.644 E1.73932
G1 X117.885 Y128.864 E1.77289
G1 X116.989 Y128.983 E1.80295
G1 X116.178 Y129.027 E1.82996
G1 X115.014 Y129.043 E1.86868
G1 X113.903 Y129.032 E1.90563
G1 X112.914 Y128.976 E1.93858
G1 X111.949 Y128.835 E1.97102
G1 X111.003 Y128.61 E2.00336
G1 X110.078 Y128.301 E2.0358
G1 X109.187 Y127.913 E2.06812
G1 X108.365 Y127.467 E2.09922
G1 X107.72 Y127.049 E2.12479
G1 X106.783 Y126.388 E2.16293
G1 X105.87 Y125.715 E2.20065
G1 X105.142 Y125.124 E2.23184
G1 X104.417 Y124.421 E2.26543
G1 X103.783 Y123.683 E2.29779
G1 X103.214 Y122.893 E2.33017
G1 X102.752 Y122.117 E2.36021
G1 X102.315 Y121.211 E2.39366
G1 X102.02 Y120.447 E2.4209
G1 X101.637 Y119.319 E2.46052
G1 X101.314 Y118.291 E2.49636
G1 X101.069 Y117.367 E2.52816
G1 X100.898 Y116.371 E2.56177
G1 X100.821 Y115.401 E2.59413
G1 X100.83 Y114.428 E2.6265
G1 X100.924 Y113.458 E2.65891
G1 X101.094 Y112.54 E2.68996
G1 X101.295 Y111.789 E2.71582
G1 X101.637 Y110.685 E2.75426
G1 X102.002 Y109.598 E2.7924
G1 X102.355 Y108.692 E2.82474
G1 X102.787 Y107.819 E2.85713
G1 X103.295 Y106.988 E2.88953
G1 X103.874 Y106.205 E2.92192
G1 X104.496 Y105.501 E2.95316
G0 F6000 X104.796 Y105.766
G1 F1200 X105.474 Y105.123 E2.98424
G1 X106.041 Y104.665 E3.00848
G1 X106.952 Y103.983 E3.04633
G1 X107.876 Y103.326 E3.08404
G1 X108.665 Y102.817 E3.11527
G1 X109.495 Y102.381 E3.14646
G1 X110.328 Y102.031 E3.17651
G1 X111.256 Y101.736 E3.2089
G1 X112.173 Y101.532 E3.24014
G1 X113.068 Y101.414 E3.27017
G1 X113.828 Y101.373 E3.29548
G1 X114.982 Y101.357 E3.33387
G1 X116.095 Y101.368 E3.37089
G1 X117.031 Y101.42 E3.40207
G1 X117.961 Y101.554 E3.43332
G1 X118.873 Y101.77 E3.46449
G1 X119.765 Y102.066 E3.49575
G1 X120.625 Y102.439 E3.52693
G1 X121.419 Y102.869 E3.55696
G1 X122.074 Y103.294 E3.58293
G1 X122.784 Y103.793 E3.61179
G1 X123.879 Y104.599 E3.65701
G1 X124.609 Y105.19 E3.68825
G1 X125.282 Y105.843 E3.71944
G1 X125.895 Y106.554 E3.75067
G1 X126.443 Y107.316 E3.78188
G1 X126.922 Y108.124 E3.81313
G1 X127.313 Y108.938 E3.84316
G1 X127.594 Y109.663 E3.86902
G1 X127.976 Y110.783 E3.90838
G1 X128.305 Y111.831 E3.94491
G1 X128.537 Y112.704 E3.97496
G1 X128.703 Y113.664 E4.00736
G1 X128.779 Y114.599 E4.03856
G1 X128.772 Y115.537 E4.06976
G1 X128.683 Y116.472 E4.101
G1 X128.518 Y117.36 E4.13104
G1 X128.324 Y118.089 E4.15613
G1 X127.988 Y119.176 E4.19397
G1 X127.625 Y120.257 E4.2319
G1 X127.286 Y121.131 E4.26308
G1 X126.871 Y121.973 E4.2943
G1 X126.383 Y122.775 E4.32553
G1 X125.826 Y123.531 E4.35676
G1 X125.205 Y124.233 E4.38793
G1 X124.526 Y124.877 E4.41906
G1 X123.962 Y125.333 E4.44318
G1 X123.07 Y126.001 E4.48025
G1 X122.127 Y126.672 E4.51874
G1 X121.339 Y127.181 E4.54994
G1 X120.508 Y127.618 E4.58117
G1 X119.642 Y127.979 E4.61237
G1 X118.782 Y128.254 E4.64241
G1 X117.832 Y128.467 E4.67479
G1 X116.936 Y128.586 E4.70485
G1 X116.172 Y128.627 E4.7303
G1 X115.018 Y128.643 E4.76868
G1 X113.907 Y128.632 E4.80564
G1 X112.971 Y128.58 E4.83682
G1 X112.041 Y128.446 E4.86807
G1 X111.129 Y128.23 E4.89924
G1 X110.237 Y127.934 E4.9305
G1 X109.377 Y127.561 E4.96168
G1 X108.583 Y127.131 E4.99171
G1 X107.938 Y126.713 E5.01727
G1 X107.02 Y126.066 E5.05463
G1 X106.122 Y125.404 E5.09173
G1 X105.394 Y124.813 E5.12292
G1 X104.72 Y124.16 E5.15413
G1 X104.107 Y123.449 E5.18536
G1 X103.558 Y122.688 E5.21657
G1 X103.096 Y121.912 E5.24661
G1 X102.688 Y121.067 E5.27782
G1 X102.399 Y120.318 E5.30452
G1 X102.019 Y119.199 E5.34382
G1 X101.701 Y118.188 E5.37907
G1 X101.456 Y117.264 E5.41087
G1 X101.297 Y116.339 E5.44208
G1 X101.221 Y115.404 E5.47329
G1 X101.228 Y114.466 E5.50448
G1 X101.317 Y113.531 E5.53572
G1 X101.481 Y112.643 E5.56576
G1 X101.677 Y111.907 E5.59109
G1 X102.016 Y110.812 E5.62922
G1 X102.375 Y109.743 E5.66672
G1 X102.714 Y108.869 E5.6979
G1 X103.129 Y108.027 E5.72912
G1 X103.617 Y107.225 E5.76035
G1 X104.174 Y106.47 E5.79155
G1 X104.796 Y105.766 E5.8228
G0 F6000 X105.071 Y106.056
G1 F1200 X105.726 Y105.434 E5.85284
G1 X106.281 Y104.985 E5.87659
G1 X107.184 Y104.309 E5.9141
G1 X108.093 Y103.662 E5.95121
G1 X108.851 Y103.171 E5.98125
G1 X109.65 Y102.75 E6.01129
G1 X110.483 Y102.4 E6.04134
G1 X111.343 Y102.126 E6.07136
G1 X112.225 Y101.929 E6.10142
G1 X113.12 Y101.811 E6.13144
G1 X113.834 Y101.773 E6.15523
G1 X114.978 Y101.757 E6.19328
G1 X116.073 Y101.767 E6.2297
G1 X116.975 Y101.816 E6.25975
G1 X117.869 Y101.943 E6.28978
G1 X118.748 Y102.15 E6.31981
G1 X119.606 Y102.433 E6.34986
G1 X120.435 Y102.791 E6.3799
G1 X121.229 Y103.221 E6.40993
G1 X121.844 Y103.621 E6.43433
G1 X122.547 Y104.115 E6.46291
G1 X123.628 Y104.91 E6.50754
G1 X124.331 Y105.477 E6.53758
G1 X124.98 Y106.105 E6.56762
G1 X125.571 Y106.788 E6.59766
G1 X126.099 Y107.52 E6.62767
G1 X126.561 Y108.297 E6.65774
G1 X126.952 Y109.111 E6.68778
G1 X127.215 Y109.792 E6.71206
G1 X127.594 Y110.903 E6.7511
G1 X127.918 Y111.934 E6.78704
G1 X128.15 Y112.807 E6.81709
G1 X128.304 Y113.697 E6.84713
G1 X128.379 Y114.597 E6.87717
G1 X128.374 Y115.5 E6.9072
G1 X128.29 Y116.399 E6.93723
G1 X128.125 Y117.287 E6.96727
G1 X127.942 Y117.971 E6.99082
G1 X127.609 Y119.049 E7.02835
G1 X127.252 Y120.113 E7.06568
G1 X126.927 Y120.955 E7.0957
G1 X126.529 Y121.766 E7.12574
G1 X126.061 Y122.538 E7.15577
G1 X125.526 Y123.266 E7.18582
G1 X124.929 Y123.943 E7.21584
G1 X124.274 Y124.566 E7.24591
G1 X123.722 Y125.013 E7.26953
G1 X122.838 Y125.675 E7.30626
G1 X121.91 Y126.336 E7.34416
G1 X121.152 Y126.827 E7.3742
G1 X120.353 Y127.249 E7.40425
G1 X119.52 Y127.598 E7.43429
G1 X118.66 Y127.873 E7.46432
G1 X117.779 Y128.07 E7.49435
G1 X116.883 Y128.189 E7.52441
G1 X116.166 Y128.227 E7.54829
G1 X115.022 Y128.243 E7.58634
G1 X113.929 Y128.233 E7.6227
G1 X113.027 Y128.184 E7.65274
G1 X112.133 Y128.057 E7.68278
G1 X111.254 Y127.85 E7.71281
G1 X110.396 Y127.567 E7.74286
G1 X109.567 Y127.209 E7.77289
G1 X108.773 Y126.779 E7.80293
G1 X108.168 Y126.386 E7.82692
G1 X107.257 Y125.744 E7.86399
G1 X106.374 Y125.093 E7.90048
G1 X105.672 Y124.525 E7.93051
G1 X105.022 Y123.898 E7.96055
G1 X104.431 Y123.215 E7.99059
G1 X103.902 Y122.483 E8.02063
G1 X103.44 Y121.707 E8.05067
G1 X103.048 Y120.893 E8.08072
G1 X102.778 Y120.189 E8.10579
G1 X102.401 Y119.079 E8.14478
G1 X102.083 Y118.068 E8.18003
G1 X101.85 Y117.196 E8.21005
G1 X101.696 Y116.306 E8.2401
G1 X101.621 Y115.406 E8.27013
G1 X101.626 Y114.503 E8.30017
G1 X101.71 Y113.604 E8.3302
G1 X101.874 Y112.716 E8.36023
G1 X102.059 Y112.025 E8.38403
G1 X102.395 Y110.939 E8.42184
G1 X102.748 Y109.887 E8.45874
G1 X103.073 Y109.045 E8.48876
G1 X103.471 Y108.234 E8.51881
G1 X103.939 Y107.462 E8.54884
G1 X104.474 Y106.734 E8.57888
G1 X105.071 Y106.056 E8.60893
G1 F1500 E4.60893
;MESH:BorrMallTest1.stl
G0 F6000 X112.13 Y112.502
G0 X114.999 Y117.839
;TYPE:WALL-OUTER
G1 F1500 E8.60893
G1 F948.6 X114.087 Y117.747 E8.6475
G1 F1027.8 X113.061 Y117.081 E8.695
G1 F991.7 X112.636 Y116.711 E8.71767
G1 F909.1 X112.044 Y115 E8.79716
G1 F939.3 X112.628 Y113.307 E8.87326
G1 F989.7 X113.032 Y112.931 E8.89551
G1 F991.7 X114.087 Y112.249 E8.94607
G1 F963.9 X115.001 Y112.157 E8.98411
G1 F937.5 X115.913 Y112.249 E9.02313
G1 F995.9 X116.936 Y112.916 E9.07208
G1 F989.7 X117.36 Y113.285 E9.09475
G1 F950.5 X117.864 Y114.746 E9.15964
G1 F975.6 X117.946 Y115.017 E9.17122
G1 F935.7 X117.368 Y116.688 E9.24665
G1 F941.2 X116.965 Y117.065 E9.27005
G1 F923.1 X115.913 Y117.747 E9.32426
G1 F914.3 X114.999 Y117.839 E9.36436
G0 F6000 X114.916 Y117.402
G1 F1098.4 X115.084 Y117.402 E9.37046
G1 F960 X115.696 Y117.215 E9.39707
G1 F954.3 X116.637 Y116.756 E9.44086
G1 F1052.6 X116.769 Y116.643 E9.44745
G1 F956.2 X116.887 Y116.443 E9.45714
G1 F910.8 X117.455 Y115 E9.52509
G1 X116.886 Y113.552 E9.59327
G1 F956.2 X116.769 Y113.353 E9.60291
G1 F1054.9 X116.649 Y113.246 E9.60899
G1 F956.2 X115.695 Y112.78 E9.65331
G1 F960 X115.084 Y112.594 E9.67986
G1 F1098.4 X114.916 Y112.594 E9.68596
G1 F960 X114.303 Y112.781 E9.71261
G1 F956.2 X113.359 Y113.24 E9.75642
G1 F1054.9 X113.227 Y113.353 E9.763
G1 F956.2 X113.109 Y113.553 E9.77269
G1 F909.1 X112.541 Y115.001 E9.84098
G1 X113.109 Y116.444 E9.90906
G1 F958.1 X113.227 Y116.643 E9.9187
G1 F1057.3 X113.347 Y116.75 E9.92477
G1 F956.2 X114.304 Y117.216 E9.9692
G1 F960 X114.916 Y117.402 E9.99579
G1 F1500 E5.99579
;MESH:NONMESH
G0 F300 X114.916 Y117.402 Z0.4
G0 F6000 X114.808 Y117.661
G0 X113.11 Y116.89
G0 X112.327 Y115
G0 X112.767 Y113.378
G0 X112.13 Y112.502
G0 X105.071 Y106.056
;TIME_ELAPSED:21.236314
;LAYER:1
M106 S85
;TYPE:SKIRT
G1 F1500 E9.99579
G1 F730.3 X105.726 Y105.434 E10.02584
G1 X106.281 Y104.985 E10.04958
G1 X107.184 Y104.309 E10.0871
G1 X108.093 Y103.662 E10.12421
G1 X108.851 Y103.171 E10.15425
G1 X109.65 Y102.75 E10.18428
G1 X110.483 Y102.4 E10.21434
G1 X111.343 Y102.126 E10.24436
G1 X112.225 Y101.929 E10.27442
G1 X113.12 Y101.811 E10.30444
G1 X113.834 Y101.773 E10.32822
G1 X114.978 Y101.757 E10.36628
G1 X116.073 Y101.767 E10.4027
G1 X116.975 Y101.816 E10.43274
G1 X117.869 Y101.943 E10.46277
G1 X118.748 Y102.15 E10.49281
G1 X119.606 Y102.433 E10.52286
G1 X120.435 Y102.791 E10.55289
G1 X121.229 Y103.221 E10.58293
G1 X121.844 Y103.621 E10.60733
G1 X122.547 Y104.115 E10.6359
G1 X123.628 Y104.91 E10.68053
G1 X124.331 Y105.477 E10.71057
G1 X124.98 Y106.105 E10.74061
G1 X125.571 Y106.788 E10.77065
G1 X126.099 Y107.52 E10.80067
G1 X126.561 Y108.297 E10.83074
G1 X126.952 Y109.111 E10.86077
G1 X127.215 Y109.792 E10.88505
G1 X127.594 Y110.903 E10.9241
G1 X127.918 Y111.934 E10.96004
G1 X128.15 Y112.807 E10.99008
G1 X128.304 Y113.697 E11.02013
G1 X128.379 Y114.597 E11.05016
G1 X128.374 Y115.5 E11.0802
G1 X128.29 Y116.399 E11.11023
G1 X128.125 Y117.287 E11.14027
G1 X127.942 Y117.971 E11.16382
G1 X127.609 Y119.049 E11.20135
G1 X127.252 Y120.113 E11.23867
G1 X126.927 Y120.955 E11.26869
G1 X126.529 Y121.766 E11.29874
G1 X126.061 Y122.538 E11.32877
G1 X125.526 Y123.266 E11.35881
G1 X124.929 Y123.943 E11.38884
G1 X124.274 Y124.566 E11.4189
G1 X123.722 Y125.013 E11.44253
G1 X122.838 Y125.675 E11.47926
G1 X121.91 Y126.336 E11.51715
G1 X121.152 Y126.827 E11.54719
G1 X120.353 Y127.249 E11.57725
G1 X119.52 Y127.598 E11.60728
G1 X118.66 Y127.873 E11.63732
G1 X117.779 Y128.07 E11.66734
G1 X116.883 Y128.189 E11.6974
G1 X116.166 Y128.227 E11.72129
G1 X115.022 Y128.243 E11.75934
G1 X113.929 Y128.233 E11.79569
G1 X113.027 Y128.184 E11.82574
G1 X112.133 Y128.057 E11.85577
G1 X111.254 Y127.85 E11.88581
G1 X110.396 Y127.567 E11.91586
G1 X109.567 Y127.209 E11.94589
G1 X108.773 Y126.779 E11.97592
G1 X108.168 Y126.386 E11.99992
G1 X107.257 Y125.744 E12.03699
G1 X106.374 Y125.093 E12.07347
G1 X105.672 Y124.525 E12.10351
G1 X105.022 Y123.898 E12.13355
G1 X104.431 Y123.215 E12.16359
G1 X103.902 Y122.483 E12.19362
G1 X103.44 Y121.707 E12.22366
G1 X103.048 Y120.893 E12.25371
G1 X102.778 Y120.189 E12.27879
G1 X102.401 Y119.079 E12.31778
G1 X102.083 Y118.068 E12.35303
G1 X101.85 Y117.196 E12.38305
G1 X101.696 Y116.306 E12.41309
G1 X101.621 Y115.406 E12.44313
G1 X101.626 Y114.503 E12.47316
G1 X101.71 Y113.604 E12.5032
G1 X101.874 Y112.716 E12.53323
G1 X102.059 Y112.025 E12.55702
G1 X102.395 Y110.939 E12.59483
G1 X102.748 Y109.887 E12.63174
G1 X103.073 Y109.045 E12.66176
G1 X103.471 Y108.234 E12.6918
G1 X103.939 Y107.462 E12.72183
G1 X104.474 Y106.734 E12.75188
G1 X105.071 Y106.056 E12.78193
G1 F1500 E8.78193
;MESH:BorrMallTest1.stl
G0 F7500 X112.13 Y112.502
G0 X114.999 Y117.839
;TYPE:WALL-OUTER
G1 F1500 E12.78193
G1 F577.3 X114.087 Y117.747 E12.82049
G1 F625.5 X113.061 Y117.081 E12.86799
G1 F603.6 X112.636 Y116.711 E12.89067
G1 F553.3 X112.044 Y115 E12.97016
G1 F571.7 X112.628 Y113.307 E13.04625
G1 F602.3 X113.032 Y112.931 E13.06851
G1 F603.6 X114.087 Y112.249 E13.11907
G1 F586.6 X115.001 Y112.157 E13.1571
G1 F570.6 X115.913 Y112.249 E13.19613
G1 F606.1 X116.936 Y112.916 E13.24507
G1 F602.3 X117.36 Y113.285 E13.26774
G1 F578.5 X117.864 Y114.746 E13.33264
G1 F593.8 X117.946 Y115.017 E13.34422
G1 F569.5 X117.368 Y116.688 E13.41964
G1 F572.8 X116.965 Y117.065 E13.44304
G1 F561.8 X115.913 Y117.747 E13.49725
G1 F556.4 X114.999 Y117.839 E13.53736
G0 F7500 X114.916 Y117.402
G1 F668.5 X115.084 Y117.402 E13.54346
G1 F584.3 X115.696 Y117.215 E13.57006
G1 F580.8 X116.637 Y116.756 E13.61385
G1 F640.6 X116.769 Y116.643 E13.62044
G1 F581.9 X116.887 Y116.443 E13.63014
G1 F554.3 X117.455 Y115 E13.69809
G1 X116.886 Y113.552 E13.76627
G1 F581.9 X116.769 Y113.353 E13.7759
G1 F642 X116.649 Y113.246 E13.78198
G1 F581.9 X115.695 Y112.78 E13.8263
G1 F584.3 X115.084 Y112.594 E13.85286
G1 F668.5 X114.916 Y112.594 E13.85896
G1 F584.3 X114.303 Y112.781 E13.88561
G1 F581.9 X113.359 Y113.24 E13.92942
G1 F642 X113.227 Y113.353 E13.93599
G1 F581.9 X113.109 Y113.553 E13.94569
G1 F553.3 X112.541 Y115.001 E14.01398
G1 X113.109 Y116.444 E14.08206
G1 F583.1 X113.227 Y116.643 E14.0917
G1 F643.5 X113.347 Y116.75 E14.09777
G1 F581.9 X114.304 Y117.216 E14.1422
G1 F584.3 X114.916 Y117.402 E14.16879
G1 F1500 E10.16879
;MESH:NONMESH
G0 F300 X114.916 Y117.402 Z0.6
G0 F7500 X114.808 Y117.661
G0 X113.11 Y116.89
G0 X112.327 Y115
G0 X112.767 Y113.378
G0 X112.13 Y112.502
G0 X105.071 Y106.056
;TIME_ELAPSED:33.397776
;LAYER:2
M106 S255
;TYPE:SKIRT
G1 F1500 E14.16879
G1 F727.2 X105.726 Y105.434 E14.19883
G1 X106.281 Y104.985 E14.22258
G1 X107.184 Y104.309 E14.26009
G1 X108.093 Y103.662 E14.2972
G1 X108.851 Y103.171 E14.32724
G1 X109.65 Y102.75 E14.35728
G1 X110.483 Y102.4 E14.38733
G1 X111.343 Y102.126 E14.41735
G1 X112.225 Y101.929 E14.44741
G1 X113.12 Y101.811 E14.47744
G1 X113.834 Y101.773 E14.50122
G1 X114.978 Y101.757 E14.53927
G1 X116.073 Y101.767 E14.57569
G1 X116.975 Y101.816 E14.60574
G1 X117.869 Y101.943 E14.63577
G1 X118.748 Y102.15 E14.66581
G1 X119.606 Y102.433 E14.69586
G1 X120.435 Y102.791 E14.72589
G1 X121.229 Y103.221 E14.75592
G1 X121.844 Y103.621 E14.78032
G1 X122.547 Y104.115 E14.8089
G1 X123.628 Y104.91 E14.85353
