;FLAVOR:Marlin
;TIME:8267
;Filament used: 5.92278m
;Layer height: 0.2
;MINX:6.379
;MINY:3.015
;MINZ:0.2
;MAXX:224.209
;MAXY:220.849
;MAXZ:20
;TARGET_MACHINE.NAME:Creality Ender-3 v2 Neo
;Generated with Cura_SteamEngine 5.7.2
M140 S60
M105
M190 S60
M104 S200
M105
M109 S200
M82 ;absolute extrusion mode
G92 E0 ;Reset Extruder
G28 ;Home
G1 Z2.0 F3000 ;Move Z Axis up
G1 X10.1 Y20 Z0.28 F5000.0 ;Move to start position
G1 X10.1 Y200.0 Z0.28 F1500.0 E15 ;Draw the first line
G1 X10.4 Y200.0 Z0.28 F5000.0 ;Move to side a little
G1 X10.4 Y20 Z0.28 F1500.0 E30 ;Draw the second line
G92 E0 ;Reset Extruder
G1 Z2.0 F3000 ;Move Z Axis up
G92 E0
G92 E0
G1 F1500 E-4
;LAYER_COUNT:100
;LAYER:0
M107
G0 F6000 X9.826 Y25.068 Z0.2
;TYPE:SKIRT
G1 F1500 E0
G1 F1200 X28.299 Y6.595 E0.86891
G1 X28.793 Y6.115 E0.89182
G1 X29.536 Y5.459 E0.92479
G1 X30.32 Y4.88 E0.9572
G1 X31.151 Y4.374 E0.98956
G1 X32.024 Y3.942 E1.02196
G1 X32.865 Y3.613 E1.052
G1 X33.868 Y3.321 E1.08674
G1 X34.824 Y3.133 E1.11915
G1 X35.791 Y3.032 E1.15149
G1 X36.694 Y3.015 E1.18152
G1 X37.738 Y3.088 E1.21633
G1 X38.698 Y3.245 E1.24869
G1 X39.643 Y3.485 E1.28112
G1 X40.528 Y3.795 E1.3123
G1 X41.448 Y4.213 E1.34591
G1 X42.295 Y4.694 E1.37831
G1 X43.104 Y5.254 E1.41104
G1 X44.02 Y6.032 E1.45101
G1 X44.529 Y6.52 E1.47446
G1 X220.585 Y182.576 E9.7556
G1 X221.121 Y183.128 E9.78119
G1 X221.722 Y183.803 E9.81125
G1 X222.344 Y184.64 E9.84593
G1 X222.817 Y185.409 E9.87596
G1 X223.282 Y186.346 E9.91075
G1 X223.624 Y187.221 E9.942
G1 X223.904 Y188.189 E9.97551
G1 X224.093 Y189.146 E10.00796
G1 X224.194 Y190.114 E10.04033
G1 X224.209 Y191.089 E10.07276
G1 X224.138 Y192.059 E10.10511
G1 X223.982 Y193.021 E10.13752
G1 X223.751 Y193.931 E10.16875
G1 X223.417 Y194.882 E10.20227
G1 X223.014 Y195.77 E10.23471
G1 X222.534 Y196.617 E10.26709
G1 X222 Y197.394 E10.29845
G1 X221.252 Y198.284 E10.33711
G1 X220.79 Y198.769 E10.35939
G1 X202.298 Y217.261 E11.2292
G1 X201.783 Y217.761 E11.25307
G1 X201.108 Y218.362 E11.28313
G1 X200.271 Y218.984 E11.31782
G1 X199.502 Y219.457 E11.34785
G1 X198.565 Y219.922 E11.38264
G1 X197.69 Y220.264 E11.41388
G1 X196.722 Y220.544 E11.4474
G1 X195.766 Y220.732 E11.47981
G1 X194.797 Y220.834 E11.51221
G1 X193.822 Y220.849 E11.54464
G1 X192.852 Y220.778 E11.57699
G1 X191.889 Y220.622 E11.60944
G1 X190.947 Y220.381 E11.64178
G1 X190.062 Y220.071 E11.67297
G1 X189.141 Y219.654 E11.7066
G1 X188.294 Y219.174 E11.73898
G1 X187.516 Y218.639 E11.77038
G1 X186.578 Y217.846 E11.81123
G1 X186.121 Y217.408 E11.83229
G1 X9.999 Y41.282 E20.11662
G1 X9.472 Y40.742 E20.14172
G1 X8.849 Y40.041 E20.17291
G1 X8.247 Y39.229 E20.20653
G1 X7.741 Y38.398 E20.23889
G1 X7.31 Y37.525 E20.27127
G1 X6.956 Y36.619 E20.30362
G1 X6.701 Y35.752 E20.33368
G1 X6.497 Y34.727 E20.36844
G1 X6.395 Y33.758 E20.40085
G1 X6.379 Y32.785 E20.43321
G1 X6.449 Y31.812 E20.46566
G1 X6.605 Y30.852 E20.49801
G1 X6.845 Y29.908 E20.5304
G1 X7.154 Y29.022 E20.56161
G1 X7.571 Y28.101 E20.59524
G1 X8.05 Y27.254 E20.6276
G1 X8.584 Y26.477 E20.65896
G1 X9.34 Y25.578 E20.69803
G1 X9.826 Y25.068 E20.72146
G0 F6000 X10.109 Y25.351
G1 F1200 X28.578 Y6.882 E21.59019
G1 X29.072 Y6.402 E21.6131
G1 X29.774 Y5.78 E21.64429
G1 X30.529 Y5.221 E21.67554
G1 X31.329 Y4.732 E21.70672
G1 X32.17 Y4.315 E21.73794
G1 X33.011 Y3.986 E21.76798
G1 X33.946 Y3.713 E21.80038
G1 X34.866 Y3.531 E21.83157
G1 X35.799 Y3.432 E21.86277
G1 X36.702 Y3.415 E21.89281
G1 X37.674 Y3.483 E21.92522
G1 X38.6 Y3.633 E21.95642
G1 X39.511 Y3.863 E21.98767
G1 X40.396 Y4.173 E22.01886
G1 X41.251 Y4.561 E22.05009
G1 X42.068 Y5.023 E22.08131
G1 X42.845 Y5.559 E22.1127
G1 X43.761 Y6.337 E22.15267
G1 X44.246 Y6.803 E22.17505
G1 X220.298 Y182.855 E30.45599
G1 X220.822 Y183.394 E30.48099
G1 X221.423 Y184.069 E30.51105
G1 X222.003 Y184.85 E30.54341
G1 X222.476 Y185.619 E30.57344
G1 X222.909 Y186.492 E30.60585
G1 X223.251 Y187.367 E30.6371
G1 X223.512 Y188.267 E30.66826
G1 X223.695 Y189.188 E30.6995
G1 X223.794 Y190.121 E30.7307
G1 X223.81 Y191.06 E30.76194
G1 X223.743 Y191.996 E30.79315
G1 X223.594 Y192.923 E30.82438
G1 X223.363 Y193.833 E30.8556
G1 X223.053 Y194.717 E30.88676
G1 X222.666 Y195.573 E30.91801
G1 X222.204 Y196.39 E30.94922
G1 X221.67 Y197.167 E30.98058
G1 X220.962 Y198.008 E31.01714
G1 X220.5 Y198.493 E31.03942
G1 X202.019 Y216.974 E31.90871
G1 X201.517 Y217.462 E31.932
G1 X200.842 Y218.063 E31.96206
G1 X200.061 Y218.643 E31.99441
G1 X199.292 Y219.116 E32.02444
G1 X198.419 Y219.549 E32.05685
G1 X197.544 Y219.891 E32.0881
G1 X196.644 Y220.152 E32.11927
G1 X195.723 Y220.334 E32.15049
G1 X194.79 Y220.434 E32.1817
G1 X193.851 Y220.45 E32.21294
G1 X192.915 Y220.383 E32.24415
G1 X191.988 Y220.234 E32.27538
G1 X191.079 Y220.003 E32.30657
G1 X190.194 Y219.693 E32.33776
G1 X189.338 Y219.306 E32.36901
G1 X188.521 Y218.844 E32.40022
G1 X187.743 Y218.309 E32.43163
G1 X186.837 Y217.541 E32.47113
G1 X186.404 Y217.125 E32.4911
G1 X10.285 Y41.003 E40.77527
G1 X9.771 Y40.476 E40.79975
G1 X9.148 Y39.775 E40.83095
G1 X8.588 Y39.02 E40.86221
G1 X8.099 Y38.22 E40.8934
G1 X7.682 Y37.379 E40.92462
G1 X7.34 Y36.506 E40.9558
G1 X7.085 Y35.639 E40.98586
G1 X6.895 Y34.684 E41.01825
G1 X6.795 Y33.751 E41.04946
G1 X6.778 Y32.813 E41.08066
G1 X6.844 Y31.876 E41.1119
G1 X6.993 Y30.95 E41.1431
G1 X7.223 Y30.04 E41.17432
G1 X7.532 Y29.154 E41.20552
G1 X7.919 Y28.298 E41.23677
G1 X8.38 Y27.481 E41.26797
G1 X8.914 Y26.704 E41.29933
G1 X9.646 Y25.836 E41.33709
G1 X10.109 Y25.351 E41.35939
G0 F6000 X10.392 Y25.634
G1 F1200 X28.857 Y7.169 E42.22793
G1 X29.338 Y6.701 E42.25025
G1 X30.013 Y6.101 E42.28029
G1 X30.738 Y5.562 E42.31034
G1 X31.507 Y5.09 E42.34035
G1 X32.316 Y4.688 E42.3704
G1 X33.157 Y4.359 E42.40043
G1 X34.024 Y4.105 E42.43048
G1 X34.909 Y3.929 E42.46049
G1 X35.807 Y3.832 E42.49053
G1 X36.71 Y3.815 E42.52057
G1 X37.611 Y3.878 E42.55061
G1 X38.503 Y4.021 E42.58066
G1 X39.379 Y4.241 E42.6107
G1 X40.231 Y4.538 E42.64071
G1 X41.055 Y4.91 E42.67078
G1 X41.842 Y5.353 E42.70082
G1 X42.586 Y5.864 E42.73084
G1 X43.502 Y6.642 E42.77081
G1 X43.963 Y7.086 E42.7921
G1 X220.011 Y183.134 E51.07286
G1 X220.523 Y183.66 E51.09727
G1 X221.124 Y184.335 E51.12733
G1 X221.662 Y185.06 E51.15736
G1 X222.135 Y185.829 E51.18739
G1 X222.537 Y186.638 E51.21743
G1 X222.867 Y187.479 E51.24748
G1 X223.12 Y188.345 E51.27749
G1 X223.297 Y189.231 E51.30754
G1 X223.394 Y190.129 E51.33758
G1 X223.411 Y191.032 E51.36762
G1 X223.348 Y191.933 E51.39766
G1 X223.206 Y192.825 E51.4277
G1 X222.985 Y193.701 E51.45775
G1 X222.688 Y194.553 E51.48776
G1 X222.317 Y195.377 E51.51782
G1 X221.874 Y196.164 E51.54785
G1 X221.364 Y196.909 E51.57788
G1 X220.656 Y197.75 E51.61445
G1 X220.217 Y198.21 E51.6356
G1 X201.74 Y216.687 E52.5047
G1 X201.251 Y217.163 E52.52739
G1 X200.576 Y217.764 E52.55745
G1 X199.851 Y218.302 E52.58748
G1 X199.082 Y218.775 E52.61751
G1 X198.273 Y219.177 E52.64756
G1 X197.432 Y219.507 E52.6776
G1 X196.566 Y219.76 E52.70761
G1 X195.68 Y219.936 E52.73766
G1 X194.782 Y220.034 E52.7677
G1 X193.879 Y220.051 E52.79774
G1 X192.978 Y219.988 E52.82778
G1 X192.086 Y219.846 E52.85782
G1 X191.211 Y219.625 E52.88784
G1 X190.358 Y219.328 E52.91788
G1 X189.534 Y218.957 E52.94794
G1 X188.747 Y218.514 E52.97797
G1 X188.002 Y218.004 E53.008
G1 X187.114 Y217.252 E53.04671
G1 X186.687 Y216.842 E53.06639
G1 X10.571 Y40.724 E61.3504
G1 X10.07 Y40.21 E61.37427
G1 X9.469 Y39.536 E61.40431
G1 X8.929 Y38.811 E61.43437
G1 X8.457 Y38.042 E61.46439
G1 X8.054 Y37.233 E61.49445
G1 X7.724 Y36.393 E61.52446
G1 X7.469 Y35.526 E61.55452
G1 X7.293 Y34.641 E61.58453
G1 X7.195 Y33.743 E61.61458
G1 X7.177 Y32.84 E61.64462
G1 X7.239 Y31.939 E61.67466
G1 X7.381 Y31.047 E61.7047
G1 X7.601 Y30.171 E61.73474
G1 X7.897 Y29.318 E61.76477
G1 X8.268 Y28.494 E61.79482
G1 X8.71 Y27.707 E61.82485
G1 X9.22 Y26.962 E61.85487
G1 X9.952 Y26.094 E61.89264
G1 X10.392 Y25.634 E61.91381
G1 F1500 E57.91381
;MESH:BorrMall.stl
G0 F6000 X93.97 Y90.789
G0 X98.712 Y98.96
;TYPE:WALL-INNER
G1 F1500 E61.91381
G1 F1200 X96.447 Y98.96 E61.98915
G1 X96.28 Y98.917 E61.99488
G1 X94.263 Y97.752 E62.07235
G1 X94.116 Y97.605 E62.07927
G1 X92.951 Y95.588 E62.15674
G1 X92.908 Y95.419 E62.16254
G1 X92.912 Y93.085 E62.24017
G1 X92.962 Y92.905 E62.24638
G1 X94.11 Y90.912 E62.32288
G1 X94.308 Y90.728 E62.33187
G1 X96.265 Y89.602 E62.40697
G1 X96.516 Y89.548 E62.41551
G1 X98.78 Y89.548 E62.49081
G1 X98.948 Y89.591 E62.49657
G1 X100.965 Y90.756 E62.57405
G1 X101.112 Y90.903 E62.58096
G1 X102.277 Y92.92 E62.65843
G1 X102.32 Y93.088 E62.6642
G1 X102.316 Y95.423 E62.74186
G1 X102.266 Y95.603 E62.74808
G1 X101.118 Y97.596 E62.82457
G1 X100.92 Y97.78 E62.83356
G1 X98.963 Y98.906 E62.90866
G1 X98.712 Y98.96 E62.9172
G1 F1500 E58.9172
G0 F6000 X101.078 Y97.899
G0 X191.728 Y192.056
G0 X191.947 Y194.586
G1 F1500 E62.9172
G1 F1200 X191.904 Y194.416 E62.92303
G1 X191.908 Y192.077 E63.00083
G1 X191.959 Y191.896 E63.00708
G1 X193.107 Y189.907 E63.08346
G1 X193.304 Y189.724 E63.09241
G1 X195.261 Y188.598 E63.1675
G1 X195.512 Y188.544 E63.17604
G1 X197.777 Y188.544 E63.25138
G1 X197.944 Y188.587 E63.25711
G1 X199.961 Y189.752 E63.33458
G1 X200.108 Y189.899 E63.3415
G1 X201.236 Y191.847 E63.41637
G1 X201.311 Y192.066 E63.42407
G1 X201.316 Y194.452 E63.50343
G1 X201.236 Y194.649 E63.5105
G1 X200.108 Y196.597 E63.58537
G1 X199.961 Y196.744 E63.59228
G1 X198.008 Y197.872 E63.66729
G1 X197.811 Y197.952 E63.67437
G1 X195.43 Y197.947 E63.75356
G1 X195.282 Y197.907 E63.75866
G1 X193.259 Y196.744 E63.83627
G1 X193.112 Y196.597 E63.84318
G1 X191.947 Y194.586 E63.92048
G1 F1500 E59.92048
G0 F6000 X191.86 Y194.635
G0 X192.973 Y196.722
G0 X187.549 Y202.145
G0 X194.136 Y209.015
G1 F1500 E63.92048
G1 F1200 X212.375 Y190.772 E64.77848
G1 X36.448 Y14.849 E73.05346
G1 X18.209 Y33.088 E73.91136
G1 X194.136 Y209.015 E82.18643
G0 F6000 X194.136 Y209.581
;TYPE:WALL-OUTER
G1 F1200 X212.941 Y190.772 E83.07105
G1 X36.448 Y14.283 E91.37265
G1 X17.643 Y33.088 E92.25718
G1 X194.136 Y209.581 E100.55887
G1 F1500 E96.55887
G0 F6000 X194.136 Y209.201
G0 X185.967 Y200.563
G0 X192.867 Y196.576
G0 X192.306 Y194.407
G1 F1500 E100.55887
G1 F1200 X192.305 Y192.09 E100.63593
G1 X193.458 Y190.096 E100.71254
G1 X195.462 Y188.945 E100.78941
G1 X197.767 Y188.946 E100.86607
G1 X199.767 Y190.102 E100.9429
G1 X200.915 Y192.09 E101.01926
G1 X200.91 Y194.414 E101.09655
G1 X199.764 Y196.398 E101.17276
G1 X197.773 Y197.546 E101.2492
G1 X195.455 Y197.551 E101.3263
G1 X193.453 Y196.394 E101.4032
G1 X192.306 Y194.407 E101.47951
G1 F1500 E97.47951
G0 F6000 X191.873 Y194.657
G0 X191.728 Y192.056
G0 X101.078 Y97.899
G0 X98.762 Y98.559
G1 F1500 E101.47951
G1 F1200 X96.457 Y98.558 E101.55618
G1 X94.463 Y97.405 E101.63279
G1 X93.31 Y95.403 E101.70963
G1 X93.309 Y93.106 E101.78603
G1 X94.473 Y91.094 E101.86334
G1 X96.466 Y89.949 E101.93979
G1 X98.771 Y89.95 E102.01645
G1 X100.765 Y91.103 E102.09306
G1 X101.918 Y93.097 E102.16967
G1 X101.919 Y95.402 E102.24633
G1 X100.755 Y97.414 E102.32365
G1 X98.762 Y98.559 E102.40009
G1 F1500 E98.40009
G0 F6000 X98.762 Y98.86
G0 X101.078 Y97.899
G0 X92.19 Y106.786
G0 X194.136 Y208.505
;TYPE:SKIN
G1 F1500 E102.40009
G1 F1200 X18.719 Y33.088 E110.65117
G1 X36.448 Y15.359 E111.48509
G1 X211.865 Y190.772 E119.73607
G1 X194.136 Y208.505 E120.57009
G1 F1500 E116.57009
G0 F6000 X193.952 Y208.688
G0 X185.941 Y200.537
G0 X192.867 Y196.536
G0 X191.626 Y194.748
G1 F1500 E120.57009
G1 F1200 X192.818 Y196.812 E120.64936
G1 X193.029 Y197.028 E120.6594
G1 X195.028 Y198.182 E120.73617
G1 X195.413 Y198.31 E120.74967
G1 X197.876 Y198.312 E120.83159
G1 X198.159 Y198.198 E120.84174
G1 X200.157 Y197.042 E120.91851
G1 X200.4 Y196.807 E120.92975
G1 X201.546 Y194.824 E121.00593
G1 X201.676 Y194.522 E121.01687
G1 X201.67 Y192.023 E121.09998
G1 X201.582 Y191.723 E121.11038
G1 X200.398 Y189.679 E121.18895
G1 X200.191 Y189.468 E121.19878
G1 X198.188 Y188.31 E121.27573
G1 X197.828 Y188.186 E121.2884
G1 X195.389 Y188.188 E121.36952
G1 X195.117 Y188.268 E121.37895
G1 X193.04 Y189.462 E121.45863
G1 X192.805 Y189.704 E121.46985
G1 X191.638 Y191.732 E121.54767
G1 X191.55 Y192.031 E121.55804
G1 X191.545 Y194.457 E121.63873
G1 X191.626 Y194.748 E121.64877
G1 F1500 E117.64877
G0 F6000 X191.854 Y194.624
G0 X191.728 Y192.056
G0 X101.078 Y97.899
G0 X98.836 Y99.312
G1 F1500 E121.64877
G1 F1200 X99.107 Y99.232 E121.65817
G1 X101.192 Y98.038 E121.73808
G1 X101.39 Y97.837 E121.74747
G1 X102.611 Y95.727 E121.82855
G1 X102.673 Y95.441 E121.83828
G1 X102.679 Y93.039 E121.91818
G1 X102.598 Y92.751 E121.92813
G1 X101.406 Y90.687 E122.0074
G1 X101.195 Y90.472 E122.01742
G1 X99.112 Y89.27 E122.09741
G1 X98.821 Y89.189 E122.10745
G1 X96.393 Y89.192 E122.18821
G1 X96.121 Y89.272 E122.19764
G1 X94.048 Y90.461 E122.27712
G1 X93.822 Y90.683 E122.28766
G1 X92.626 Y92.76 E122.36738
G1 X92.553 Y93.04 E122.377
G1 X92.549 Y95.461 E122.45752
G1 X92.616 Y95.728 E122.46668
G1 X93.822 Y97.82 E122.54699
G1 X94.033 Y98.036 E122.55704
G1 X96.116 Y99.238 E122.63703
G1 X96.398 Y99.319 E122.64678
G1 X98.836 Y99.312 E122.72787
G1 F1500 E118.72787
G0 F6000 X98.793 Y99.056
G0 X101.078 Y97.899
G0 X203.047 Y199.848
G0 X194.391 Y207.967
G1 F1500 E122.72787
G1 F1200 X19.257 Y32.833 E130.96564
G0 F6000 X19.539 Y32.55
G1 F1200 X194.674 Y207.684 E139.20343
G0 F6000 X194.956 Y207.401
G1 F1200 X19.822 Y32.267 E147.4412
G0 F6000 X20.105 Y31.985
G1 F1200 X195.239 Y207.119 E155.67896
G0 F6000 X195.522 Y206.836
G1 F1200 X20.388 Y31.702 E163.91673
G0 F6000 X20.671 Y31.419
G1 F1200 X195.805 Y206.553 E172.15449
G0 F6000 X196.088 Y206.27
G1 F1200 X20.954 Y31.136 E180.39226
G0 F6000 X21.237 Y30.853
G1 F1200 X196.371 Y205.987 E188.63003
G0 F6000 X196.653 Y205.704
G1 F1200 X21.519 Y30.57 E196.86779
G0 F6000 X21.802 Y30.288
G1 F1200 X196.936 Y205.422 E205.10556
G0 F6000 X197.219 Y205.139
G1 F1200 X22.085 Y30.005 E213.34333
G0 F6000 X22.368 Y29.722
G1 F1200 X197.502 Y204.856 E221.58109
G0 F6000 X197.785 Y204.573
G1 F1200 X22.651 Y29.439 E229.81886
G0 F6000 X22.934 Y29.156
G1 F1200 X198.068 Y204.29 E238.05663
G0 F6000 X198.351 Y204.007
G1 F1200 X23.216 Y28.873 E246.29442
G0 F6000 X23.499 Y28.59
G1 F1200 X198.633 Y203.725 E254.53221
G0 F6000 X198.916 Y203.442
G1 F1200 X23.782 Y28.308 E262.76997
G0 F6000 X24.065 Y28.025
G1 F1200 X93.226 Y97.186 E266.02309
G0 F6000 X93.624 Y96.958
G0 X92.857 Y95.629
G0 X92.456 Y95.85
G1 F1200 X24.348 Y27.742 E269.22669
G0 F6000 X24.631 Y27.459
G1 F1200 X92.349 Y95.177 E272.41193
G0 F6000 X92.35 Y94.613
G1 F1200 X24.913 Y27.176 E275.58396
G0 F6000 X25.196 Y26.893
G1 F1200 X92.352 Y94.049 E278.74277
G0 F6000 X92.353 Y93.484
G1 F1200 X25.479 Y26.611 E281.8883
G0 F6000 X25.762 Y26.328
G1 F1200 X92.371 Y92.937 E285.02138
G0 F6000 X92.53 Y92.53
G1 F1200 X26.045 Y26.045 E288.14863
G0 F6000 X26.328 Y25.762
G1 F1200 X92.736 Y92.171 E291.27228
G0 F6000 X92.944 Y91.812
G1 F1200 X26.611 Y25.479 E294.39239
G0 F6000 X26.893 Y25.196
G1 F1200 X93.151 Y91.454 E297.50896
G0 F6000 X93.358 Y91.095
G1 F1200 X27.176 Y24.913 E300.62196
G0 F6000 X27.459 Y24.631
G1 F1200 X93.565 Y90.737 E303.73138
G0 F6000 X93.808 Y90.414
G1 F1200 X27.742 Y24.348 E306.83892
G0 F6000 X28.025 Y24.065
G1 F1200 X94.14 Y90.18 E309.94877
G0 F6000 X94.499 Y89.974
G1 F1200 X28.308 Y23.782 E313.06222
G0 F6000 X28.59 Y23.499
G1 F1200 X94.858 Y89.767 E316.17926
G0 F6000 X95.218 Y89.561
G1 F1200 X28.873 Y23.216 E319.29992
G0 F6000 X29.156 Y22.934
G1 F1200 X95.578 Y89.355 E322.42419
G0 F6000 X95.937 Y89.148
G1 F1200 X29.439 Y22.651 E325.55203
G0 F6000 X29.722 Y22.368
G1 F1200 X96.353 Y88.999 E328.68614
G0 F6000 X96.914 Y88.994
G1 F1200 X30.005 Y22.085 E331.83334
G0 F6000 X30.288 Y21.802
G1 F1200 X97.477 Y88.992 E334.99373
G0 F6000 X98.041 Y88.99
G1 F1200 X30.57 Y21.519 E338.16736
G0 F6000 X30.853 Y21.237
G1 F1200 X98.605 Y88.988 E341.35418
G0 F6000 X99.373 Y89.191
G1 F1200 X31.136 Y20.954 E344.56384
G0 F6000 X31.419 Y20.671
G1 F1200 X100.709 Y89.961 E347.82303
G0 F6000 X100.481 Y90.357
G0 X101.513 Y91.392
G0 X101.912 Y91.164
G1 F1200 X199.703 Y188.954 E352.42279
G0 F6000 X199.473 Y189.351
G0 X198.132 Y188.578
G0 X198.362 Y188.179
G1 F1200 X102.686 Y92.504 E356.92307
G0 F6000 X102.876 Y93.26
G1 F1200 X197.605 Y187.989 E361.37884
