;FLAVOR:Marlin
;TIME:8297
;Filament used: 5.86733m
;Layer height: 0.2
;MINX:3.281
;MINY:6.082
;MINZ:0.2
;MAXX:221.111
;MAXY:223.916
;MAXZ:20
;TARGET_MACHINE.NAME:Creality Ender-3 v2 Neo
;Generated with Cura_SteamEngine 5.7.2
M140 S60
M105
M190 S60
M104 S200
M105
M109 S200
M82 ;absolute extrusion mode
G92 E0 ;Reset Extruder
G28 ;Home
G1 Z2.0 F3000 ;Move Z Axis up
G1 X10.1 Y20 Z0.28 F5000.0 ;Move to start position
G1 X10.1 Y200.0 Z0.28 F1500.0 E15 ;Draw the first line
G1 X10.4 Y200.0 Z0.28 F5000.0 ;Move to side a little
G1 X10.4 Y20 Z0.28 F1500.0 E30 ;Draw the second line
G92 E0 ;Reset Extruder
G1 Z2.0 F3000 ;Move Z Axis up
G92 E0
G92 E0
G1 F1500 E-4
;LAYER_COUNT:100
;LAYER:0
M107
G0 F6000 X25.201 Y9.662 Z0.2
;TYPE:SKIRT
G1 F1500 E0
G1 F1200 X25.695 Y9.182 E0.02291
G1 X26.438 Y8.526 E0.05588
G1 X27.222 Y7.947 E0.08829
G1 X28.053 Y7.441 E0.12065
G1 X28.926 Y7.009 E0.15305
G1 X29.767 Y6.68 E0.18308
G1 X30.77 Y6.388 E0.21783
G1 X31.726 Y6.2 E0.25023
G1 X32.693 Y6.099 E0.28257
G1 X33.596 Y6.082 E0.31261
G1 X34.64 Y6.155 E0.34742
G1 X35.6 Y6.312 E0.37977
G1 X36.545 Y6.552 E0.4122
G1 X37.43 Y6.862 E0.44339
G1 X38.35 Y7.28 E0.477
G1 X39.196 Y7.76 E0.50935
G1 X39.94 Y8.271 E0.53937
G1 X40.884 Y9.062 E0.58034
G1 X41.325 Y9.482 E0.60059
G1 X217.494 Y185.649 E8.88699
G1 X218.03 Y186.202 E8.91261
G1 X218.63 Y186.877 E8.94265
G1 X219.252 Y187.718 E8.97744
G1 X219.759 Y188.55 E9.00984
G1 X220.189 Y189.422 E9.04218
G1 X220.518 Y190.263 E9.07222
G1 X220.801 Y191.232 E9.10579
G1 X220.996 Y192.223 E9.13938
G1 X221.096 Y193.191 E9.17175
G1 X221.111 Y194.166 E9.20418
G1 X221.039 Y195.137 E9.23657
G1 X220.882 Y196.097 E9.26892
G1 X220.641 Y197.041 E9.30133
G1 X220.343 Y197.893 E9.33135
G1 X219.911 Y198.846 E9.36615
G1 X219.43 Y199.692 E9.39852
G1 X218.872 Y200.499 E9.43115
G1 X218.154 Y201.351 E9.46821
G1 X217.685 Y201.843 E9.49082
G1 X199.207 Y220.319 E10.35992
G1 X198.693 Y220.821 E10.38381
G1 X197.992 Y221.444 E10.41501
G1 X197.182 Y222.045 E10.44855
G1 X196.352 Y222.553 E10.48092
G1 X195.544 Y222.956 E10.51095
G1 X194.571 Y223.338 E10.54572
G1 X193.705 Y223.593 E10.57574
G1 X192.679 Y223.798 E10.61054
G1 X191.71 Y223.9 E10.64295
G1 X190.738 Y223.916 E10.67528
G1 X189.767 Y223.846 E10.70766
G1 X188.805 Y223.691 E10.74007
G1 X187.861 Y223.451 E10.77247
G1 X186.941 Y223.129 E10.80489
G1 X186.086 Y222.743 E10.83609
G1 X185.207 Y222.247 E10.86966
G1 X184.462 Y221.737 E10.89969
G1 X183.501 Y220.931 E10.9414
G1 X183.061 Y220.512 E10.96161
G1 X6.886 Y44.338 E19.24832
G1 X6.359 Y43.794 E19.27351
G1 X5.713 Y43.063 E19.30596
G1 X5.138 Y42.279 E19.33829
G1 X4.631 Y41.447 E19.3707
G1 X4.201 Y40.575 E19.40304
G1 X3.872 Y39.734 E19.43307
G1 X3.582 Y38.73 E19.46783
G1 X3.395 Y37.774 E19.50023
G1 X3.295 Y36.804 E19.53266
G1 X3.281 Y35.831 E19.56503
G1 X3.352 Y34.859 E19.59744
G1 X3.51 Y33.898 E19.62984
G1 X3.751 Y32.956 E19.66218
G1 X4.049 Y32.103 E19.69223
G1 X4.482 Y31.151 E19.72701
G1 X4.961 Y30.304 E19.75938
G1 X5.473 Y29.559 E19.78944
G1 X6.27 Y28.611 E19.83064
G1 X6.694 Y28.169 E19.85101
G1 X25.201 Y9.662 E20.72152
G0 F6000 X25.48 Y9.949
G1 F1200 X25.974 Y9.469 E20.74443
G1 X26.676 Y8.847 E20.77563
G1 X27.431 Y8.288 E20.80687
G1 X28.231 Y7.799 E20.83806
G1 X29.072 Y7.382 E20.86928
G1 X29.913 Y7.053 E20.89931
G1 X30.848 Y6.78 E20.93171
G1 X31.768 Y6.598 E20.9629
G1 X32.701 Y6.499 E20.99411
G1 X33.604 Y6.482 E21.02415
G1 X34.576 Y6.55 E21.05656
G1 X35.502 Y6.7 E21.08776
G1 X36.413 Y6.93 E21.11901
G1 X37.298 Y7.24 E21.1502
G1 X38.153 Y7.628 E21.18142
G1 X38.97 Y8.09 E21.21264
G1 X39.714 Y8.601 E21.24266
G1 X40.608 Y9.351 E21.28147
G1 X41.042 Y9.765 E21.30142
G1 X217.207 Y185.928 E29.58764
G1 X217.731 Y186.468 E29.61266
G1 X218.331 Y187.143 E29.6427
G1 X218.911 Y187.926 E29.67511
G1 X219.4 Y188.727 E29.70632
G1 X219.816 Y189.568 E29.73753
G1 X220.145 Y190.409 E29.76757
G1 X220.417 Y191.344 E29.79996
G1 X220.598 Y192.265 E29.83117
G1 X220.696 Y193.198 E29.86238
G1 X220.712 Y194.137 E29.89361
G1 X220.644 Y195.073 E29.92483
G1 X220.494 Y195.999 E29.95603
G1 X220.263 Y196.909 E29.98725
G1 X219.965 Y197.761 E30.01727
G1 X219.563 Y198.649 E30.04969
G1 X219.101 Y199.465 E30.08088
G1 X218.566 Y200.241 E30.11223
G1 X217.864 Y201.075 E30.14849
G1 X217.402 Y201.56 E30.17077
G1 X198.928 Y220.033 E31.0397
G1 X198.427 Y220.522 E31.06299
G1 X197.726 Y221.145 E31.09418
G1 X196.973 Y221.704 E31.12537
G1 X196.173 Y222.195 E31.15659
G1 X195.365 Y222.598 E31.18662
G1 X194.458 Y222.954 E31.21903
G1 X193.592 Y223.209 E31.24906
G1 X192.636 Y223.4 E31.28148
G1 X191.703 Y223.5 E31.31269
G1 X190.766 Y223.517 E31.34386
G1 X189.83 Y223.451 E31.37507
G1 X188.903 Y223.303 E31.40629
G1 X187.993 Y223.073 E31.43751
G1 X187.106 Y222.764 E31.46875
G1 X186.251 Y222.378 E31.49995
G1 X185.433 Y221.917 E31.53118
G1 X184.688 Y221.407 E31.56121
G1 X183.777 Y220.642 E31.60078
G1 X183.344 Y220.229 E31.62068
G1 X7.173 Y44.06 E39.90718
G1 X6.658 Y43.529 E39.93178
G1 X6.035 Y42.826 E39.96302
G1 X5.479 Y42.071 E39.99421
G1 X4.99 Y41.27 E40.02542
G1 X4.574 Y40.429 E40.05663
G1 X4.245 Y39.588 E40.08667
G1 X3.974 Y38.653 E40.11904
G1 X3.793 Y37.732 E40.15026
G1 X3.695 Y36.798 E40.1815
G1 X3.68 Y35.86 E40.2127
G1 X3.747 Y34.923 E40.24394
G1 X3.898 Y33.997 E40.27515
G1 X4.129 Y33.088 E40.30634
G1 X4.427 Y32.235 E40.3364
G1 X4.83 Y31.348 E40.3688
G1 X5.291 Y30.531 E40.4
G1 X5.803 Y29.786 E40.43007
G1 X6.559 Y28.888 E40.46911
G1 X6.983 Y28.446 E40.48948
G1 X25.48 Y9.949 E41.35952
G0 F6000 X25.759 Y10.236
G1 F1200 X26.24 Y9.768 E41.38185
G1 X26.915 Y9.168 E41.41188
G1 X27.64 Y8.629 E41.44193
G1 X28.409 Y8.157 E41.47194
G1 X29.218 Y7.755 E41.50199
G1 X30.059 Y7.426 E41.53202
G1 X30.926 Y7.172 E41.56207
G1 X31.811 Y6.996 E41.59208
G1 X32.709 Y6.899 E41.62213
G1 X33.612 Y6.882 E41.65216
G1 X34.513 Y6.945 E41.6822
G1 X35.405 Y7.088 E41.71225
G1 X36.281 Y7.308 E41.74229
G1 X37.133 Y7.605 E41.7723
G1 X37.957 Y7.977 E41.80237
G1 X38.744 Y8.42 E41.83241
G1 X39.488 Y8.931 E41.86243
G1 X40.332 Y9.64 E41.89909
G1 X40.759 Y10.048 E41.91873
G1 X216.92 Y186.207 E50.20476
G1 X217.432 Y186.734 E50.2292
G1 X218.032 Y187.409 E50.25924
G1 X218.57 Y188.135 E50.28929
G1 X219.042 Y188.905 E50.31933
G1 X219.443 Y189.714 E50.34936
G1 X219.772 Y190.555 E50.3794
G1 X220.025 Y191.422 E50.40944
G1 X220.2 Y192.308 E50.43948
G1 X220.296 Y193.206 E50.46951
G1 X220.313 Y194.109 E50.49955
G1 X220.249 Y195.01 E50.5296
G1 X220.106 Y195.901 E50.55961
G1 X219.885 Y196.777 E50.58966
G1 X219.587 Y197.629 E50.61968
G1 X219.215 Y198.452 E50.64972
G1 X218.771 Y199.239 E50.67977
G1 X218.26 Y199.983 E50.70979
G1 X217.558 Y200.817 E50.74605
G1 X217.119 Y201.277 E50.7672
G1 X198.649 Y219.747 E51.63597
G1 X198.161 Y220.223 E51.65864
G1 X197.487 Y220.824 E51.68868
G1 X196.763 Y221.363 E51.7187
G1 X195.994 Y221.837 E51.74875
G1 X195.186 Y222.24 E51.77878
G1 X194.345 Y222.57 E51.80883
G1 X193.479 Y222.825 E51.83885
G1 X192.593 Y223.002 E51.8689
G1 X191.695 Y223.1 E51.89895
G1 X190.793 Y223.118 E51.92895
G1 X189.892 Y223.056 E51.95899
G1 X189 Y222.915 E51.98903
G1 X188.124 Y222.695 E52.01907
G1 X187.27 Y222.399 E52.04913
G1 X186.447 Y222.029 E52.07914
G1 X185.659 Y221.587 E52.10919
G1 X184.914 Y221.077 E52.13922
G1 X184.053 Y220.353 E52.17664
G1 X183.627 Y219.946 E52.19623
G1 X7.46 Y43.781 E60.48254
G1 X6.957 Y43.263 E60.50656
G1 X6.357 Y42.588 E60.5366
G1 X5.82 Y41.862 E60.56663
G1 X5.348 Y41.092 E60.59667
G1 X4.947 Y40.283 E60.6267
G1 X4.618 Y39.442 E60.65674
G1 X4.366 Y38.575 E60.68677
G1 X4.191 Y37.689 E60.7168
G1 X4.095 Y36.791 E60.74684
G1 X4.079 Y35.888 E60.77688
G1 X4.142 Y34.987 E60.80692
G1 X4.286 Y34.095 E60.83697
G1 X4.507 Y33.22 E60.86699
G1 X4.805 Y32.367 E60.89704
G1 X5.178 Y31.544 E60.9271
G1 X5.621 Y30.758 E60.9571
G1 X6.133 Y30.013 E60.98717
G1 X6.848 Y29.165 E61.02406
G1 X7.272 Y28.723 E61.04443
G1 X25.759 Y10.236 E61.91401
G1 F1500 E57.91401
;MESH:PilotMallUnder.stl
G0 F6000 X81.622 Y84.773
G0 X84.064 Y89.55
;TYPE:WALL-INNER
G1 F1500 E61.91401
G1 F1200 X83.75 Y89.543 E61.92445
G1 X81.991 Y88.819 E61.98772
G1 X81.801 Y88.62 E61.99687
G1 X81.105 Y86.947 E62.05714
G1 X81.054 Y86.609 E62.06851
G1 X81.784 Y84.853 E62.13176
G1 X82.031 Y84.593 E62.14368
G1 X83.751 Y83.878 E62.20564
G1 X84.066 Y83.884 E62.21612
G1 X85.8 Y84.603 E62.27855
G1 X85.925 Y84.699 E62.28379
G1 X86.055 Y84.894 E62.29159
G1 X86.752 Y86.576 E62.35215
G1 X86.76 Y86.838 E62.36086
G1 X86.055 Y88.535 E62.42198
G1 X85.925 Y88.729 E62.42975
G1 X85.771 Y88.84 E62.43606
G1 X84.064 Y89.55 E62.49755
G1 F1500 E58.49755
G0 F6000 X85.852 Y89.002
G0 X179.89 Y185.501
G0 X180.796 Y187.601
G1 F1500 E62.49755
G1 F1200 X180.073 Y185.867 E62.56004
G1 X180.078 Y185.53 E62.57125
G1 X180.78 Y183.848 E62.63187
G1 X180.974 Y183.611 E62.64206
G1 X182.747 Y182.874 E62.70592
G1 X183.062 Y182.88 E62.7164
G1 X184.796 Y183.599 E62.77883
G1 X184.921 Y183.695 E62.78407
G1 X185.051 Y183.889 E62.79184
G1 X185.711 Y185.477 E62.84904
G1 X185.762 Y185.815 E62.86041
G1 X185.032 Y187.571 E62.92366
G1 X184.841 Y187.807 E62.93376
G1 X183.06 Y188.546 E62.99789
G1 X182.746 Y188.539 E63.00834
G1 X181.016 Y187.821 E63.07064
G1 X180.796 Y187.601 E63.08098
G1 F1500 E59.08098
G0 F6000 X180.497 Y187.156
G0 X180.889 Y187.545
G0 X182.736 Y188.737
G0 X175.354 Y196.118
G0 X191.036 Y212.083
G1 F1500 E63.08098
G1 F1200 X209.279 Y193.84 E63.93908
G1 X33.352 Y17.913 E72.21414
G1 X15.109 Y36.156 E73.07224
G1 X191.036 Y212.083 E81.34731
G0 F6000 X191.036 Y212.649
;TYPE:WALL-OUTER
G1 F1200 X209.845 Y193.84 E82.23202
G1 X33.352 Y17.347 E90.53371
G1 X14.543 Y36.156 E91.41843
G1 X191.036 Y212.649 E99.72012
G1 F1500 E95.72012
G0 F6000 X191.038 Y212.268
G0 X173.444 Y194.208
G0 X180.764 Y187.854
G0 X181.142 Y187.401
G1 F1500 E99.72012
G1 F1200 X180.459 Y185.761 E99.77921
G1 X180.46 Y185.648 E99.78297
G1 X181.163 Y183.967 E99.84357
G1 X182.845 Y183.268 E99.90415
G1 X182.957 Y183.266 E99.90788
G1 X184.596 Y183.946 E99.9669
G1 X184.67 Y184.02 E99.97038
G1 X185.349 Y185.655 E100.02926
G1 X185.348 Y185.767 E100.03299
G1 X184.675 Y187.391 E100.09145
G1 X184.587 Y187.479 E100.09559
G1 X182.963 Y188.152 E100.15406
G1 X182.861 Y188.159 E100.15746
G1 X181.216 Y187.474 E100.21673
G1 X181.142 Y187.401 E100.22019
G1 F1500 E96.22019
G0 F6000 X180.497 Y187.156
G0 X179.89 Y185.501
G0 X85.852 Y89.002
G0 X83.967 Y89.156
G1 F1500 E100.22019
G1 F1200 X83.865 Y89.163 E100.22359
G1 X82.22 Y88.478 E100.28286
G1 X82.146 Y88.404 E100.28634
G1 X81.467 Y86.769 E100.34522
G1 X81.468 Y86.657 E100.34894
G1 X82.141 Y85.033 E100.40741
G1 X82.229 Y84.945 E100.41155
G1 X83.849 Y84.272 E100.4699
G1 X83.961 Y84.27 E100.47362
G1 X85.6 Y84.95 E100.53264
G1 X85.674 Y85.024 E100.53612
G1 X86.353 Y86.663 E100.59513
G1 X86.352 Y86.775 E100.59886
G1 X85.679 Y88.395 E100.6572
G1 X85.591 Y88.483 E100.66134
G1 X83.967 Y89.156 E100.71981
G1 F1500 E96.71981
G0 F6000 X84.082 Y89.436
G0 X85.852 Y89.002
G0 X77.045 Y97.809
G0 X191.036 Y211.573
;TYPE:SKIN
G1 F1500 E100.71981
G1 F1200 X15.619 Y36.156 E108.97089
G1 X33.352 Y18.423 E109.80499
G1 X208.769 Y193.84 E118.05607
G1 X191.036 Y211.573 E118.89018
G1 F1500 E114.89018
G0 F6000 X190.852 Y211.756
G0 X173.444 Y194.208
G0 X180.764 Y187.854
G0 X180.614 Y187.949
G1 F1500 E118.89018
G1 F1200 X180.834 Y188.133 E118.89972
G1 X182.698 Y188.918 E118.96699
G1 X183.187 Y188.876 E118.98331
G1 X184.923 Y188.159 E119.04578
G1 X185.317 Y187.82 E119.06307
G1 X186.073 Y185.986 E119.12905
G1 X186.116 Y185.685 E119.13916
G1 X186.077 Y185.422 E119.148
G1 X185.326 Y183.625 E119.21278
G1 X184.986 Y183.29 E119.22866
G1 X183.098 Y182.495 E119.29679
G1 X182.617 Y182.544 E119.31287
G1 X180.944 Y183.23 E119.37301
G1 X180.688 Y183.393 E119.38311
G1 X180.472 Y183.66 E119.39453
G1 X179.707 Y185.466 E119.45976
G1 X179.731 Y185.99 E119.47721
G1 X180.427 Y187.665 E119.53754
G1 X180.614 Y187.949 E119.54885
G1 F1500 E115.54885
G0 F6000 X180.497 Y187.156
G0 X179.89 Y185.501
G0 X85.852 Y89.002
G0 X83.703 Y89.922
G1 F1500 E119.54885
G1 F1200 X84.19 Y89.88 E119.56511
G1 X85.932 Y89.162 E119.62777
G1 X86.186 Y88.973 E119.6383
G1 X86.349 Y88.758 E119.64728
G1 X87.08 Y86.99 E119.71091
G1 X87.116 Y86.679 E119.72132
G1 X87.057 Y86.376 E119.73159
G1 X86.305 Y84.577 E119.79644
G1 X85.984 Y84.291 E119.81074
G1 X84.11 Y83.506 E119.87832
G1 X83.622 Y83.544 E119.8946
G1 X81.849 Y84.278 E119.95842
G1 X81.665 Y84.419 E119.96613
G1 X81.463 Y84.686 E119.97727
G1 X80.715 Y86.479 E120.04189
G1 X80.739 Y87.002 E120.0593
G1 X81.511 Y88.851 E120.12594
G1 X81.832 Y89.137 E120.14024
G1 X83.703 Y89.922 E120.20773
G1 F1500 E116.20773
G0 F6000 X83.752 Y89.662
G0 X85.852 Y89.002
G0 X77.045 Y97.809
G0 X191.263 Y211.062
G1 F1500 E120.20773
G1 F1200 X16.13 Y35.929 E128.44545
G0 F6000 X16.413 Y35.646
G1 F1200 X191.546 Y210.779 E136.68317
G0 F6000 X191.829 Y210.496
G1 F1200 X16.695 Y35.363 E144.92091
G0 F6000 X16.978 Y35.08
G1 F1200 X192.112 Y210.214 E153.15867
G0 F6000 X192.395 Y209.931
G1 F1200 X17.261 Y34.797 E161.39644
G0 F6000 X17.544 Y34.515
G1 F1200 X192.677 Y209.648 E169.63416
G0 F6000 X192.96 Y209.365
G1 F1200 X17.827 Y34.232 E177.87188
G0 F6000 X18.11 Y33.949
G1 F1200 X193.243 Y209.082 E186.1096
G0 F6000 X193.526 Y208.799
G1 F1200 X18.393 Y33.666 E194.34732
G0 F6000 X18.675 Y33.383
G1 F1200 X193.809 Y208.517 E202.58508
G0 F6000 X194.092 Y208.234
G1 F1200 X18.958 Y33.1 E210.82285
G0 F6000 X19.241 Y32.818
G1 F1200 X194.374 Y207.951 E219.06057
G0 F6000 X194.657 Y207.668
G1 F1200 X19.524 Y32.535 E227.29829
G0 F6000 X19.807 Y32.252
G1 F1200 X194.94 Y207.385 E235.53601
G0 F6000 X195.223 Y207.102
G1 F1200 X20.09 Y31.969 E243.77373
G0 F6000 X20.372 Y31.686
G1 F1200 X195.506 Y206.82 E252.0115
G0 F6000 X195.789 Y206.537
G1 F1200 X20.655 Y31.403 E260.24926
G0 F6000 X20.938 Y31.12
G1 F1200 X196.072 Y206.254 E268.48703
G0 F6000 X196.354 Y205.971
G1 F1200 X21.221 Y30.838 E276.72475
G0 F6000 X21.504 Y30.555
G1 F1200 X196.637 Y205.688 E284.96247
G0 F6000 X196.92 Y205.405
G1 F1200 X21.787 Y30.272 E293.20019
G0 F6000 X22.07 Y29.989
G1 F1200 X197.203 Y205.122 E301.43791
G0 F6000 X197.486 Y204.84
G1 F1200 X181.11 Y188.464 E302.20818
G0 F6000 X181.287 Y188.042
G0 X182.723 Y188.644
G0 X182.084 Y188.872
G1 F1200 X197.769 Y204.557 E302.94596
G0 F6000 X198.051 Y204.274
G1 F1200 X182.88 Y189.103 E303.65955
G0 F6000 X183.362 Y189.019
G1 F1200 X198.334 Y203.991 E304.36379
G0 F6000 X198.617 Y203.708
G1 F1200 X183.763 Y188.854 E305.06248
G0 F6000 X184.163 Y188.689
G1 F1200 X198.9 Y203.425 E305.75564
G0 F6000 X199.183 Y203.143
G1 F1200 X184.564 Y188.524 E306.44327
G0 F6000 X184.964 Y188.358
G1 F1200 X199.466 Y202.86 E307.1254
G0 F6000 X199.748 Y202.577
G1 F1200 X185.285 Y188.113 E307.80572
G0 F6000 X185.537 Y187.8
G1 F1200 X200.031 Y202.294 E308.48747
G0 F6000 X200.314 Y202.011
G1 F1200 X185.703 Y187.4 E309.17473
G0 F6000 X185.868 Y186.999
G1 F1200 X200.597 Y201.728 E309.86754
G0 F6000 X200.88 Y201.446
G1 F1200 X186.034 Y186.6 E310.56585
G0 F6000 X186.2 Y186.2
G1 F1200 X201.163 Y201.163 E311.26966
G0 F6000 X201.446 Y200.88
G1 F1200 X186.307 Y185.741 E311.98175
G0 F6000 X186.106 Y184.974
G1 F1200 X201.728 Y200.597 E312.71659
G0 F6000 X202.011 Y200.314
G1 F1200 X185.7 Y184.003 E313.48381
G0 F6000 X185.275 Y184.18
G0 X184.434 Y183.34
G0 X184.612 Y182.915
G1 F1200 X86.701 Y85.004 E318.08924
G0 F6000 X86.277 Y85.18
G0 X86.686 Y86.156
G0 X87.111 Y85.979
G1 F1200 X183.635 Y182.504 E322.62946
G0 F6000 X182.88 Y182.315
G1 F1200 X87.312 Y86.746 E327.1247
G0 F6000 X87.204 Y87.204
G1 F1200 X182.41 Y182.41 E331.6029
G0 F6000 X182.009 Y182.575
G1 F1200 X87.039 Y87.605 E336.07
G0 F6000 X86.874 Y88.005
G1 F1200 X181.608 Y182.74 E340.52602
G0 F6000 X181.207 Y182.904
G1 F1200 X86.709 Y88.406 E344.97092
G0 F6000 X86.544 Y88.806
G1 F1200 X180.813 Y183.076 E349.40507
G0 F6000 X180.491 Y183.32
G1 F1200 X86.307 Y89.136 E353.83519
G0 F6000 X85.967 Y89.361
G1 F1200 X180.256 Y183.65 E358.27026
G0 F6000 X180.089 Y184.049
G1 F1200 X85.567 Y89.527 E362.71628
G0 F6000 X85.167 Y89.693
G1 F1200 X179.921 Y184.447 E367.17322
G0 F6000 X179.754 Y184.845
G1 F1200 X84.767 Y89.858 E371.64112
G0 F6000 X84.368 Y90.025
G1 F1200 X179.586 Y185.243 E376.11988
G0 F6000 X179.518 Y185.741
G1 F1200 X83.884 Y90.107 E380.61821
