;FLAVOR:Marlin
;TIME:8264
;Filament used: 5.80071m
;Layer height: 0.2
;MINX:4.797
;MINY:0
;MINZ:0.2
;MAXX:222.629
;MAXY:215.316
;MAXZ:20
;TARGET_MACHINE.NAME:Creality Ender-3 v2 Neo
;Generated with Cura_SteamEngine 5.7.2
M140 S60
M105
M190 S60
M104 S200
M105
M109 S200
M82 ;absolute extrusion mode
G92 E0 ;Reset Extruder
G28 ;Home
G1 Z2.0 F3000 ;Move Z Axis up
G1 X10.1 Y20 Z0.28 F5000.0 ;Move to start position
G1 X10.1 Y200.0 Z0.28 F1500.0 E15 ;Draw the first line
G1 X10.4 Y200.0 Z0.28 F5000.0 ;Move to side a little
G1 X10.4 Y20 Z0.28 F1500.0 E30 ;Draw the second line
G92 E0 ;Reset Extruder
G1 Z2.0 F3000 ;Move Z Axis up
G92 E0
G92 E0
G1 F1500 E-4
;LAYER_COUNT:100
;LAYER:0
M107
G0 F6000 X27.871 Y0.00 Z0.2
;TYPE:SKIRT
G1 F1500 E0
G1 F1200 X27.213 Y0.582 E0.02922
G1 X26.719 Y1.062 E0.05213
G1 X8.212 Y19.569 E0.92264
G1 X7.788 Y20.011 E0.94301
G1 X7.001 Y20.946 E0.98366
G1 X6.467 Y21.723 E1.01502
G1 X5.971 Y22.603 E1.04861
G1 X5.585 Y23.458 E1.07982
G1 X5.262 Y24.376 E1.11218
G1 X5.022 Y25.321 E1.14461
G1 X4.867 Y26.283 E1.17702
G1 X4.797 Y27.254 E1.2094
G1 X4.813 Y28.227 E1.24177
G1 X4.915 Y29.196 E1.27417
G1 X5.12 Y30.222 E1.30897
G1 X5.374 Y31.088 E1.33899
G1 X5.756 Y32.061 E1.37376
G1 X6.159 Y32.869 E1.40379
G1 X6.666 Y33.699 E1.43614
G1 X7.268 Y34.51 E1.46973
G1 X7.891 Y35.211 E1.50092
G1 X8.385 Y35.717 E1.52444
G1 X184.541 Y211.875 E9.81033
G1 X184.997 Y212.313 E9.83136
G1 X185.935 Y213.106 E9.87221
G1 X186.713 Y213.641 E9.90362
G1 X187.56 Y214.121 E9.936
G1 X188.481 Y214.538 E9.96962
G1 X189.366 Y214.848 E10.00081
G1 X190.308 Y215.089 E10.03315
G1 X191.271 Y215.245 E10.0656
G1 X192.241 Y215.316 E10.09795
G1 X193.216 Y215.301 E10.13038
G1 X194.185 Y215.199 E10.16279
G1 X195.141 Y215.011 E10.19519
G1 X196.109 Y214.731 E10.22871
G1 X196.984 Y214.389 E10.25995
G1 X197.921 Y213.924 E10.29475
G1 X198.69 Y213.451 E10.32477
G1 X199.527 Y212.829 E10.35946
G1 X200.202 Y212.228 E10.38952
G1 X200.717 Y211.728 E10.41339
G1 X219.214 Y193.231 E11.28343
G1 X219.638 Y192.789 E11.3038
G1 X220.394 Y191.893 E11.3428
G1 X220.952 Y191.086 E11.37543
G1 X221.433 Y190.239 E11.40783
G1 X221.851 Y189.319 E11.44144
G1 X222.161 Y188.434 E11.47262
G1 X222.401 Y187.489 E11.50505
G1 X222.558 Y186.529 E11.53741
G1 X222.629 Y185.558 E11.56979
G1 X222.614 Y184.583 E11.60222
G1 X222.513 Y183.615 E11.63459
G1 X222.325 Y182.659 E11.667
G1 X222.033 Y181.656 E11.70174
G1 X221.704 Y180.815 E11.73178
G1 X221.272 Y179.942 E11.76418
G1 X220.766 Y179.111 E11.79653
G1 X220.187 Y178.327 E11.82895
G1 X219.531 Y177.584 E11.86192
G1 X219.051 Y177.09 E11.88483
G1 X42.866 Y0.905 E20.17203
G1 X42.424 Y0.481 E20.1924
G1 X41.849 Y0.00 E20.21733
G0 F6000 X41.228 Y0.00
G1 F1200 X42.147 Y0.77 E20.25721
G1 X42.589 Y1.194 E20.27758
G1 X218.764 Y177.369 E28.56431
G1 X219.244 Y177.863 E28.58722
G1 X219.866 Y178.565 E28.61842
G1 X220.425 Y179.32 E28.64966
G1 X220.914 Y180.12 E28.68085
G1 X221.331 Y180.961 E28.71207
G1 X221.66 Y181.802 E28.74211
G1 X221.933 Y182.737 E28.7745
G1 X222.115 Y183.657 E28.8057
G1 X222.214 Y184.59 E28.8369
G1 X222.23 Y185.529 E28.86814
G1 X222.163 Y186.465 E28.89935
G1 X222.013 Y187.391 E28.93055
G1 X221.783 Y188.302 E28.9618
G1 X221.473 Y189.187 E28.99299
G1 X221.085 Y190.042 E29.02422
G1 X220.623 Y190.859 E29.05543
G1 X220.088 Y191.635 E29.08678
G1 X219.349 Y192.512 E29.12493
G1 X218.925 Y192.954 E29.1453
G1 X200.438 Y211.441 E30.01487
G1 X199.936 Y211.929 E30.03816
G1 X199.261 Y212.53 E30.06822
G1 X198.48 Y213.11 E30.10057
G1 X197.711 Y213.583 E30.1306
G1 X196.838 Y214.016 E30.16301
G1 X195.963 Y214.358 E30.19426
G1 X195.063 Y214.619 E30.22543
G1 X194.142 Y214.801 E30.25665
G1 X193.209 Y214.901 E30.28786
G1 X192.27 Y214.917 E30.3191
G1 X191.334 Y214.85 E30.35031
G1 X190.407 Y214.701 E30.38153
G1 X189.498 Y214.47 E30.41273
G1 X188.613 Y214.16 E30.44392
G1 X187.757 Y213.773 E30.47516
G1 X186.94 Y213.311 E30.50638
G1 X186.162 Y212.776 E30.53778
G1 X185.274 Y212.024 E30.57649
G1 X184.824 Y211.592 E30.59724
G1 X8.671 Y35.438 E38.88296
G1 X8.19 Y34.945 E38.90586
G1 X7.567 Y34.244 E38.93706
G1 X7.007 Y33.49 E38.9683
G1 X6.517 Y32.69 E38.9995
G1 X6.114 Y31.882 E39.02953
G1 X5.758 Y30.975 E39.06194
G1 X5.504 Y30.109 E39.09195
G1 X5.313 Y29.153 E39.12438
G1 X5.213 Y28.22 E39.15559
G1 X5.196 Y27.282 E39.18679
G1 X5.262 Y26.346 E39.218
G1 X5.41 Y25.419 E39.24922
G1 X5.64 Y24.508 E39.28047
G1 X5.95 Y23.623 E39.31166
G1 X6.336 Y22.768 E39.34286
G1 X6.797 Y21.95 E39.37409
G1 X7.331 Y21.173 E39.40545
G1 X8.077 Y20.288 E39.44395
G1 X8.501 Y19.846 E39.46432
G1 X26.998 Y1.349 E40.33436
G1 X27.492 Y0.869 E40.35727
G1 X28.194 Y0.247 E40.38847
G1 X28.526 Y0.00 E40.40223
G0 F6000 X29.205 Y0.00
G1 F1200 X28.433 Y0.568 E40.43411
G1 X27.758 Y1.168 E40.46415
G1 X27.277 Y1.636 E40.48647
G1 X8.79 Y20.123 E41.35604
G1 X8.366 Y20.565 E41.37641
G1 X7.637 Y21.431 E41.41406
G1 X7.127 Y22.176 E41.44409
G1 X6.685 Y22.964 E41.47414
G1 X6.315 Y23.787 E41.50415
G1 X6.018 Y24.64 E41.53419
G1 X5.798 Y25.516 E41.56423
G1 X5.657 Y26.408 E41.59427
G1 X5.595 Y27.309 E41.62431
G1 X5.613 Y28.212 E41.65435
G1 X5.711 Y29.11 E41.68439
G1 X5.888 Y29.996 E41.71444
G1 X6.142 Y30.862 E41.74446
G1 X6.472 Y31.703 E41.77451
G1 X6.875 Y32.511 E41.80454
G1 X7.348 Y33.28 E41.83457
G1 X7.888 Y34.005 E41.86463
G1 X8.489 Y34.679 E41.89467
G1 X8.957 Y35.159 E41.91697
G1 X185.107 Y211.309 E50.20252
G1 X185.533 Y211.719 E50.22219
G1 X186.421 Y212.471 E50.26089
G1 X187.166 Y212.981 E50.29092
G1 X187.953 Y213.424 E50.32096
G1 X188.777 Y213.795 E50.35101
G1 X189.63 Y214.092 E50.38105
G1 X190.505 Y214.313 E50.41107
G1 X191.397 Y214.455 E50.44111
G1 X192.298 Y214.518 E50.47115
G1 X193.201 Y214.501 E50.50119
G1 X194.099 Y214.403 E50.53124
G1 X194.985 Y214.227 E50.56128
G1 X195.851 Y213.974 E50.59129
G1 X196.692 Y213.644 E50.62134
G1 X197.501 Y213.242 E50.65138
G1 X198.27 Y212.769 E50.68141
G1 X198.995 Y212.231 E50.71144
G1 X199.67 Y211.63 E50.7415
G1 X200.159 Y211.154 E50.7642
G1 X218.636 Y192.677 E51.6333
G1 X219.06 Y192.235 E51.65367
G1 X219.782 Y191.377 E51.69097
G1 X220.293 Y190.633 E51.72099
G1 X220.736 Y189.846 E51.75102
G1 X221.108 Y189.022 E51.78109
G1 X221.405 Y188.17 E51.8111
G1 X221.625 Y187.294 E51.84114
G1 X221.768 Y186.402 E51.87119
G1 X221.831 Y185.501 E51.90123
G1 X221.814 Y184.598 E51.93127
G1 X221.717 Y183.7 E51.96131
G1 X221.541 Y182.815 E51.99132
G1 X221.287 Y181.948 E52.02137
G1 X220.958 Y181.107 E52.05141
G1 X220.556 Y180.298 E52.08146
G1 X220.084 Y179.529 E52.11147
G1 X219.545 Y178.804 E52.14151
G1 X218.945 Y178.129 E52.17155
G1 X218.477 Y177.648 E52.19387
G1 X42.312 Y1.483 E60.48013
G1 X41.87 Y1.059 E60.50051
G1 X41.006 Y0.331 E60.53808
G1 X40.524 Y0.00 E60.55753
G1 F1500 E56.55753
;MESH:PilotTestMall.stl
G0 F6000 X32.698 Y22.111
G0 X32.573 Y27.906
;TYPE:WALL-INNER
G1 F1500 E60.55753
G1 F1200 X32.238 Y27.912 E60.56867
G1 X30.504 Y27.193 E60.63111
G1 X30.379 Y27.097 E60.63635
G1 X30.249 Y26.902 E60.64415
G1 X29.563 Y25.233 E60.70416
G1 X29.544 Y25.051 E60.71025
G1 X29.59 Y24.849 E60.71714
G1 X30.281 Y23.185 E60.77707
G1 X30.502 Y22.967 E60.78739
G1 X32.232 Y22.25 E60.84968
G1 X32.55 Y22.251 E60.86025
G1 X34.284 Y22.971 E60.9227
G1 X34.505 Y23.192 E60.9331
G1 X35.238 Y24.942 E60.9962
G1 X35.199 Y25.31 E61.00851
G1 X34.5 Y26.98 E61.06872
G1 X34.272 Y27.203 E61.07933
G1 X32.573 Y27.906 E61.14049
G1 F1500 E57.14049
G0 F6000 X34.362 Y27.361
G0 X129.11 Y122.112
G0 X131.23 Y126.907
G1 F1500 E61.14049
G1 F1200 X129.471 Y126.183 E61.20375
G1 X129.281 Y125.985 E61.21288
G1 X128.548 Y124.216 E61.27657
G1 X128.585 Y123.845 E61.28897
G1 X129.245 Y122.257 E61.34617
G1 X129.375 Y122.063 E61.35393
G1 X129.51 Y121.958 E61.35962
G1 X131.21 Y121.25 E61.42087
G1 X131.516 Y121.227 E61.43108
G1 X133.28 Y121.968 E61.49472
G1 X133.405 Y122.063 E61.49994
G1 X133.535 Y122.257 E61.5077
G1 X134.195 Y123.845 E61.5649
G1 X134.246 Y124.183 E61.57627
G1 X133.516 Y125.939 E61.63952
G1 X133.405 Y126.093 E61.64584
G1 X133.251 Y126.204 E61.65215
G1 X131.544 Y126.914 E61.71364
G1 X131.23 Y126.907 E61.72409
G1 F1500 E57.72409
G0 F6000 X131.189 Y127.005
G0 X133.332 Y126.366
G0 X124.525 Y135.172
G0 X192.552 Y203.483
G1 F1500 E61.72409
G1 F1200 X210.795 Y185.24 E62.58218
G1 X34.868 Y9.313 E70.85725
G1 X16.629 Y27.556 E71.71525
G1 X192.552 Y203.483 E79.99022
G0 F6000 X192.552 Y204.049
;TYPE:WALL-OUTER
G1 F1200 X211.361 Y185.24 E80.87494
G1 X34.868 Y8.747 E89.17663
G1 X16.063 Y27.556 E90.06125
G1 X192.552 Y204.049 E98.36285
G1 F1500 E94.36285
G0 F6000 X192.555 Y203.668
G0 X123.748 Y134.395
G0 X129.41 Y126.346
G0 X131.345 Y126.527
G1 F1500 E98.36285
G1 F1200 X129.7 Y125.842 E98.42211
G1 X129.626 Y125.768 E98.42559
G1 X128.947 Y124.129 E98.4846
G1 X128.948 Y124.017 E98.48833
G1 X129.647 Y122.335 E98.54891
G1 X131.328 Y121.632 E98.60951
G1 X131.432 Y121.625 E98.61298
G1 X133.08 Y122.314 E98.67239
G1 X133.154 Y122.388 E98.67587
G1 X133.833 Y124.023 E98.73475
G1 X133.832 Y124.135 E98.73848
G1 X133.159 Y125.759 E98.79695
G1 X133.071 Y125.847 E98.80109
G1 X131.447 Y126.52 E98.85955
G1 X131.345 Y126.527 E98.86296
G1 F1500 E94.86296
G0 F6000 X131.154 Y126.99
G0 X129.466 Y126.003
G0 X128.668 Y124.078
G0 X129.11 Y122.112
G0 X34.568 Y27.192
G0 X34.138 Y26.825
G1 F1500 E98.86296
G1 F1200 X32.455 Y27.524 E98.92357
G1 X32.343 Y27.526 E98.92729
G1 X30.704 Y26.846 E98.98631
G1 X30.63 Y26.772 E98.98979
G1 X29.95 Y25.131 E99.04887
G1 X29.948 Y25.036 E99.05203
G1 X30.637 Y23.38 E99.11169
G1 X30.693 Y23.325 E99.1143
G1 X32.353 Y22.636 E99.17408
G1 X32.448 Y22.638 E99.17724
G1 X34.084 Y23.318 E99.23617
G1 X34.158 Y23.392 E99.23965
G1 X34.858 Y25.087 E99.30064
G1 X34.138 Y26.825 E99.36321
G1 F1500 E95.36321
G0 F6000 X34.417 Y26.941
G0 X34.568 Y27.192
G0 X25.542 Y36.215
G0 X192.552 Y202.973
;TYPE:SKIN
G1 F1500 E99.36321
G1 F1200 X17.139 Y27.556 E107.6142
G1 X34.868 Y9.823 E108.44821
G1 X210.285 Y185.24 E116.69929
G1 X192.552 Y202.973 E117.53339
G1 F1500 E113.53339
G0 F6000 X192.735 Y203.157
G0 X123.807 Y134.454
G0 X129.41 Y126.346
G0 X131.182 Y127.286
G1 F1500 E117.53339
G1 F1200 X131.671 Y127.244 E117.54972
G1 X133.413 Y126.522 E117.61243
G1 X133.698 Y126.306 E117.62433
G1 X133.832 Y126.108 E117.63228
G1 X134.557 Y124.354 E117.6954
G1 X134.6 Y124.053 E117.70552
G1 X134.561 Y123.79 E117.71436
G1 X133.812 Y121.999 E117.77893
G1 X133.528 Y121.676 E117.79323
G1 X131.589 Y120.866 E117.86313
G1 X131.102 Y120.904 E117.87937
G1 X129.318 Y121.647 E117.94365
G1 X128.958 Y122.007 E117.96058
G1 X128.195 Y123.834 E118.02644
G1 X128.219 Y124.362 E118.04402
G1 X129 Y126.222 E118.11111
G1 X129.313 Y126.498 E118.12499
G1 X131.182 Y127.286 E118.19245
G1 F1500 E114.19245
G0 F6000 X131.237 Y127.025
G0 X129.466 Y126.003
G0 X128.668 Y124.078
G0 X129.11 Y122.112
G0 X34.362 Y27.361
G0 X32.482 Y28.288
G1 F1500 E118.19245
G1 F1200 X32.68 Y28.247 E118.19918
G1 X34.452 Y27.512 E118.26298
G1 X34.702 Y27.31 E118.27367
G1 X34.836 Y27.112 E118.28163
G1 X35.539 Y25.42 E118.34257
G1 X35.599 Y25.166 E118.35125
G1 X35.585 Y24.846 E118.3619
G1 X34.783 Y22.932 E118.43092
G1 X34.466 Y22.661 E118.44479
G1 X32.77 Y21.943 E118.50605
G1 X32.5 Y21.876 E118.5153
G1 X32.152 Y21.896 E118.5269
G1 X30.435 Y22.603 E118.58866
G1 X30.122 Y22.81 E118.60114
G1 X29.976 Y22.989 E118.60882
G1 X29.17 Y24.92 E118.67842
G1 X29.222 Y25.365 E118.69332
G1 X29.973 Y27.153 E118.75782
G1 X30.256 Y27.488 E118.7724
G1 X32.145 Y28.262 E118.8403
G1 X32.482 Y28.288 E118.85154
G1 F1500 E114.85154
G0 F6000 X32.463 Y28.03
G0 X34.362 Y27.361
G0 X201.376 Y194.376
G0 X192.812 Y202.429
G1 F1500 E118.85154
G1 F1200 X17.68 Y27.296 E127.08924
G0 F6000 X17.963 Y27.014
G1 F1200 X193.095 Y202.146 E135.32691
G0 F6000 X193.378 Y201.863
G1 F1200 X18.245 Y26.731 E143.56461
G0 F6000 X18.528 Y26.448
G1 F1200 X193.661 Y201.581 E151.80233
G0 F6000 X193.944 Y201.298
G1 F1200 X18.811 Y26.165 E160.04005
G0 F6000 X19.094 Y25.882
G1 F1200 X194.227 Y201.015 E168.27777
G0 F6000 X194.51 Y200.732
G1 F1200 X19.377 Y25.599 E176.51549
G0 F6000 X19.66 Y25.317
G1 F1200 X194.792 Y200.449 E184.75316
G0 F6000 X195.075 Y200.166
G1 F1200 X19.943 Y25.034 E192.99083
G0 F6000 X20.225 Y24.751
G1 F1200 X195.358 Y199.884 E201.22855
G0 F6000 X195.641 Y199.601
G1 F1200 X20.508 Y24.468 E209.46627
G0 F6000 X20.791 Y24.185
G1 F1200 X195.924 Y199.318 E217.70399
G0 F6000 X196.207 Y199.035
G1 F1200 X21.074 Y23.902 E225.94171
G0 F6000 X21.357 Y23.619
G1 F1200 X196.489 Y198.752 E234.1794
G0 F6000 X196.772 Y198.469
G1 F1200 X21.64 Y23.337 E242.41708
G0 F6000 X21.922 Y23.054
G1 F1200 X197.055 Y198.186 E250.65477
G0 F6000 X197.338 Y197.904
G1 F1200 X22.205 Y22.771 E258.89249
G0 F6000 X22.488 Y22.488
G1 F1200 X197.621 Y197.621 E267.13021
G0 F6000 X197.904 Y197.338
G1 F1200 X22.771 Y22.205 E275.36793
G0 F6000 X23.054 Y21.922
G1 F1200 X198.186 Y197.055 E283.60563
G0 F6000 X198.469 Y196.772
G1 F1200 X23.336 Y21.639 E291.84335
G0 F6000 X23.619 Y21.356
G1 F1200 X198.752 Y196.489 E300.08107
G0 F6000 X199.035 Y196.207
G1 F1200 X129.712 Y126.884 E303.34181
G0 F6000 X129.89 Y126.46
G0 X130.861 Y126.867
G0 X130.683 Y127.289
G1 F1200 X199.318 Y195.924 E306.57019
G0 F6000 X199.601 Y195.641
G1 F1200 X131.426 Y127.466 E309.77693
G0 F6000 X131.895 Y127.369
G1 F1200 X199.884 Y195.358 E312.97492
G0 F6000 X200.166 Y195.075
G1 F1200 X132.293 Y127.202 E316.16746
G0 F6000 X132.692 Y127.035
G1 F1200 X200.449 Y194.792 E319.35454
G0 F6000 X200.732 Y194.51
G1 F1200 X133.091 Y126.868 E322.53619
G0 F6000 X133.49 Y126.702
G1 F1200 X201.015 Y194.227 E325.71236
G0 F6000 X201.298 Y193.944
G1 F1200 X133.821 Y126.467 E328.88627
G0 F6000 X134.041 Y126.122
G1 F1200 X201.581 Y193.661 E332.06312
G0 F6000 X201.863 Y193.378
G1 F1200 X134.207 Y125.721 E335.24548
G0 F6000 X134.372 Y125.321
G1 F1200 X202.146 Y193.095 E338.43336
G0 F6000 X202.429 Y192.812
G1 F1200 X134.538 Y124.921 E341.62674
G0 F6000 X134.702 Y124.52
G1 F1200 X202.712 Y192.53 E344.82572
G0 F6000 X202.995 Y192.247
G1 F1200 X134.799 Y124.051 E348.03346
G0 F6000 X134.539 Y123.225
G1 F1200 X203.278 Y191.964 E351.26673
G0 F6000 X203.56 Y191.681
G1 F1200 X134.129 Y122.25 E354.53255
G0 F6000 X133.707 Y122.426
G0 X132.589 Y121.566
G0 X133.205 Y121.326
G1 F1200 X35.132 Y23.252 E359.14563
G0 F6000 X34.711 Y23.428
G0 X35.12 Y24.403
G0 X35.541 Y24.227
G1 F1200 X132.233 Y120.919 E363.69372
G0 F6000 X131.427 Y120.679
G1 F1200 X35.795 Y25.047 E368.19196
G0 F6000 X35.712 Y25.529
G1 F1200 X130.936 Y120.754 E372.67103
G0 F6000 X130.538 Y120.921
G1 F1200 X35.546 Y25.929 E377.13916
G0 F6000 X35.379 Y26.328
G1 F1200 X130.138 Y121.087 E381.59633
G0 F6000 X129.739 Y121.253
G1 F1200 X35.213 Y26.728 E386.04252
G0 F6000 X35.047 Y27.127
G1 F1200 X129.34 Y121.42 E390.47777
G0 F6000 X129.019 Y121.665
G1 F1200 X34.822 Y27.468 E394.90851
G0 F6000 X34.498 Y27.71
G1 F1200 X128.758 Y121.97 E399.34221
G0 F6000 X128.592 Y122.369
G1 F1200 X34.099 Y27.876 E403.78687
G0 F6000 X33.699 Y28.042
G1 F1200 X128.424 Y122.767 E408.24245
G0 F6000 X128.257 Y123.166
G1 F1200 X33.298 Y28.207 E412.70903
G0 F6000 X32.898 Y28.373
G1 F1200 X128.09 Y123.565 E417.18657
G0 F6000 X128.003 Y124.043
G1 F1200 X32.443 Y28.484 E421.68139
G0 F6000 X31.676 Y28.282
G1 F1200 X128.184 Y124.789 E426.22081
G0 F6000 X128.606 Y124.614
G0 X129.015 Y125.59
G0 X128.593 Y125.765
G1 F1200 X30.722 Y27.893 E430.82439
G0 F6000 X30.897 Y27.468
G0 X30.015 Y26.585
G0 X29.59 Y26.762
G1 F1200 X23.902 Y21.073 E431.09196
G0 F6000 X24.184 Y20.79
G1 F1200 X29.185 Y25.791 E431.32719
G0 F6000 X28.983 Y25.023
G1 F1200 X24.467 Y20.508 E431.53958
G0 F6000 X24.75 Y20.225
G1 F1200 X29.095 Y24.57 E431.74396
G0 F6000 X29.262 Y24.171
G1 F1200 X25.033 Y19.942 E431.94288
G0 F6000 X25.316 Y19.659
G1 F1200 X29.428 Y23.772 E432.13632
G0 F6000 X29.595 Y23.372
G1 F1200 X25.599 Y19.376 E432.32428
G0 F6000 X25.882 Y19.093
G1 F1200 X29.761 Y22.973 E432.50676
G0 F6000 X30 Y22.647
G1 F1200 X26.164 Y18.81 E432.68721
G0 F6000 X26.447 Y18.528
G1 F1200 X30.345 Y22.426 E432.87056
G0 F6000 X30.745 Y22.26
G1 F1200 X26.73 Y18.245 E433.05942
G0 F6000 X27.013 Y17.962
G1 F1200 X31.146 Y22.095 E433.25382
G0 F6000 X31.548 Y21.931
G1 F1200 X27.296 Y17.679 E433.45382
G0 F6000 X27.579 Y17.396
G1 F1200 X31.948 Y21.766 E433.65935
G0 F6000 X32.43 Y21.682
