;FLAVOR:Marlin
;TIME:8508
;Filament used: 6.04673m
;Layer height: 0.2
;MINX:6.331
;MINY:9.507
;MINZ:0.2
;MAXX:224.161
;MAXY:227.34
;MAXZ:20
;TARGET_MACHINE.NAME:Creality Ender-3 v2 Neo
;Generated with Cura_SteamEngine 5.7.2
M140 S60
M105
M190 S60
M104 S200
M105
M109 S200
M82 ;absolute extrusion mode
G92 E0 ;Reset Extruder
G28 ;Home
G1 Z2.0 F3000 ;Move Z Axis up
G1 X10.1 Y20 Z0.28 F5000.0 ;Move to start position
G1 X10.1 Y200.0 Z0.28 F1500.0 E15 ;Draw the first line
G1 X10.4 Y200.0 Z0.28 F5000.0 ;Move to side a little
G1 X10.4 Y20 Z0.28 F1500.0 E30 ;Draw the second line
G92 E0 ;Reset Extruder
G1 Z2.0 F3000 ;Move Z Axis up
G92 E0
G92 E0
G1 F1500 E-4
;LAYER_COUNT:100
;LAYER:0
M107
G0 F6000 X28.251 Y13.087 Z0.2
;TYPE:SKIRT
G1 F1500 E0
G1 F1200 X28.745 Y12.607 E0.02291
G1 X29.488 Y11.951 E0.05588
G1 X30.272 Y11.372 E0.08829
G1 X31.103 Y10.866 E0.12065
G1 X31.976 Y10.434 E0.15305
G1 X32.817 Y10.105 E0.18308
G1 X33.82 Y9.813 E0.21783
G1 X34.776 Y9.625 E0.25023
G1 X35.743 Y9.524 E0.28257
G1 X36.646 Y9.507 E0.31261
G1 X37.69 Y9.58 E0.34742
G1 X38.65 Y9.737 E0.37977
G1 X39.595 Y9.977 E0.4122
G1 X40.48 Y10.287 E0.44339
G1 X41.4 Y10.705 E0.477
G1 X42.247 Y11.186 E0.5094
G1 X43.054 Y11.744 E0.54203
G1 X43.956 Y12.506 E0.5813
G1 X44.398 Y12.93 E0.60167
G1 X220.583 Y189.115 E8.88888
G1 X221.063 Y189.609 E8.91179
G1 X221.719 Y190.352 E8.94475
G1 X222.298 Y191.136 E8.97717
G1 X222.804 Y191.967 E9.00953
G1 X223.236 Y192.84 E9.04192
G1 X223.565 Y193.681 E9.07196
G1 X223.857 Y194.684 E9.10671
G1 X224.045 Y195.64 E9.13911
G1 X224.146 Y196.608 E9.17148
G1 X224.161 Y197.583 E9.20391
G1 X224.09 Y198.554 E9.2363
G1 X223.933 Y199.514 E9.26865
G1 X223.693 Y200.459 E9.30108
G1 X223.383 Y201.344 E9.33227
G1 X222.965 Y202.264 E9.36588
G1 X222.484 Y203.111 E9.39827
G1 X221.926 Y203.918 E9.43091
G1 X221.164 Y204.82 E9.47018
G1 X220.741 Y205.262 E9.49053
G1 X202.246 Y223.757 E10.36048
G1 X201.728 Y224.259 E10.38447
G1 X201.053 Y224.859 E10.41451
G1 X200.212 Y225.482 E10.44932
G1 X199.411 Y225.97 E10.48051
G1 X198.508 Y226.418 E10.51404
G1 X197.667 Y226.747 E10.54408
G1 X196.698 Y227.03 E10.57765
G1 X195.707 Y227.225 E10.61124
G1 X194.739 Y227.325 E10.64361
G1 X193.764 Y227.34 E10.67604
G1 X192.793 Y227.268 E10.70843
G1 X191.833 Y227.111 E10.74078
G1 X190.889 Y226.87 E10.77319
G1 X190.037 Y226.572 E10.80321
G1 X189.084 Y226.14 E10.83801
G1 X188.238 Y225.659 E10.87038
G1 X187.431 Y225.101 E10.90301
G1 X186.577 Y224.381 E10.94016
G1 X186.076 Y223.904 E10.96317
G1 X9.936 Y47.763 E19.24828
G1 X9.409 Y47.219 E19.27347
G1 X8.763 Y46.488 E19.30592
G1 X8.188 Y45.704 E19.33825
G1 X7.681 Y44.872 E19.37066
G1 X7.251 Y44 E19.403
G1 X6.922 Y43.159 E19.43303
G1 X6.632 Y42.155 E19.46779
G1 X6.445 Y41.199 E19.50019
G1 X6.345 Y40.229 E19.53262
G1 X6.331 Y39.256 E19.56499
G1 X6.402 Y38.284 E19.5974
G1 X6.56 Y37.323 E19.6298
G1 X6.801 Y36.381 E19.66214
G1 X7.099 Y35.528 E19.69219
G1 X7.532 Y34.576 E19.72697
G1 X8.011 Y33.729 E19.75934
G1 X8.523 Y32.984 E19.7894
G1 X9.32 Y32.036 E19.8306
G1 X9.744 Y31.594 E19.85097
G1 X28.251 Y13.087 E20.72148
G0 F6000 X28.53 Y13.374
G1 F1200 X29.024 Y12.894 E20.74439
G1 X29.726 Y12.272 E20.77559
G1 X30.481 Y11.713 E20.80683
G1 X31.281 Y11.224 E20.83802
G1 X32.122 Y10.807 E20.86924
G1 X32.963 Y10.478 E20.89927
G1 X33.898 Y10.205 E20.93167
G1 X34.818 Y10.023 E20.96286
G1 X35.751 Y9.924 E20.99407
G1 X36.654 Y9.907 E21.02411
G1 X37.626 Y9.975 E21.05652
G1 X38.552 Y10.125 E21.08772
G1 X39.463 Y10.355 E21.11897
G1 X40.348 Y10.665 E21.15016
G1 X41.203 Y11.053 E21.18138
G1 X42.02 Y11.515 E21.2126
G1 X42.796 Y12.05 E21.24395
G1 X43.679 Y12.795 E21.28238
G1 X44.121 Y13.219 E21.30275
G1 X220.296 Y189.394 E29.58948
G1 X220.776 Y189.888 E29.61239
G1 X221.398 Y190.59 E29.64358
G1 X221.957 Y191.345 E29.67483
G1 X222.446 Y192.145 E29.70601
G1 X222.863 Y192.986 E29.73724
G1 X223.192 Y193.827 E29.76727
G1 X223.465 Y194.762 E29.79967
G1 X223.647 Y195.682 E29.83086
G1 X223.746 Y196.615 E29.86207
G1 X223.762 Y197.554 E29.8933
G1 X223.695 Y198.49 E29.92451
G1 X223.545 Y199.416 E29.95571
G1 X223.315 Y200.327 E29.98696
G1 X223.005 Y201.212 E30.01815
G1 X222.617 Y202.067 E30.04938
G1 X222.155 Y202.884 E30.0806
G1 X221.62 Y203.66 E30.11195
G1 X220.875 Y204.543 E30.15037
G1 X220.452 Y204.985 E30.17072
G1 X201.967 Y223.47 E31.0402
G1 X201.462 Y223.96 E31.0636
G1 X200.787 Y224.56 E31.09364
G1 X200.004 Y225.14 E31.12605
G1 X199.203 Y225.628 E31.15725
G1 X198.362 Y226.045 E31.18847
G1 X197.521 Y226.374 E31.2185
G1 X196.586 Y226.646 E31.25089
G1 X195.665 Y226.827 E31.28211
G1 X194.732 Y226.925 E31.31331
G1 X193.793 Y226.941 E31.34455
G1 X192.857 Y226.873 E31.37576
G1 X191.931 Y226.723 E31.40696
G1 X191.021 Y226.492 E31.43819
G1 X190.169 Y226.194 E31.46821
G1 X189.281 Y225.792 E31.50063
G1 X188.465 Y225.33 E31.53182
G1 X187.689 Y224.795 E31.56317
G1 X186.853 Y224.091 E31.59952
G1 X186.352 Y223.614 E31.62253
G1 X10.223 Y47.485 E39.9071
G1 X9.708 Y46.954 E39.9317
G1 X9.085 Y46.251 E39.96294
G1 X8.529 Y45.496 E39.99413
G1 X8.04 Y44.695 E40.02534
G1 X7.624 Y43.854 E40.05655
G1 X7.295 Y43.013 E40.08658
G1 X7.024 Y42.078 E40.11896
G1 X6.843 Y41.157 E40.15018
G1 X6.745 Y40.223 E40.18142
G1 X6.73 Y39.285 E40.21262
G1 X6.797 Y38.348 E40.24386
G1 X6.948 Y37.422 E40.27507
G1 X7.179 Y36.513 E40.30626
G1 X7.477 Y35.66 E40.33631
G1 X7.88 Y34.773 E40.36872
G1 X8.341 Y33.956 E40.39992
G1 X8.853 Y33.211 E40.42999
G1 X9.609 Y32.313 E40.46903
G1 X10.033 Y31.871 E40.4894
G1 X28.53 Y13.374 E41.35944
G0 F6000 X28.809 Y13.661
G1 F1200 X29.29 Y13.193 E41.38176
G1 X29.965 Y12.593 E41.4118
G1 X30.69 Y12.054 E41.44185
G1 X31.459 Y11.582 E41.47186
G1 X32.268 Y11.18 E41.50191
G1 X33.109 Y10.851 E41.53194
G1 X33.976 Y10.597 E41.56199
G1 X34.861 Y10.421 E41.592
G1 X35.759 Y10.324 E41.62204
G1 X36.662 Y10.307 E41.65208
G1 X37.563 Y10.37 E41.68212
G1 X38.455 Y10.513 E41.71217
G1 X39.331 Y10.733 E41.74221
G1 X40.183 Y11.03 E41.77222
G1 X41.007 Y11.402 E41.80229
G1 X41.794 Y11.845 E41.83233
G1 X42.538 Y12.356 E41.86235
G1 X43.402 Y13.084 E41.89993
G1 X43.844 Y13.508 E41.9203
G1 X220.009 Y189.673 E50.20656
G1 X220.477 Y190.154 E50.22888
G1 X221.077 Y190.829 E50.25892
G1 X221.616 Y191.554 E50.28896
G1 X222.088 Y192.323 E50.31898
G1 X222.49 Y193.132 E50.34902
G1 X222.819 Y193.973 E50.37906
G1 X223.073 Y194.84 E50.40911
G1 X223.249 Y195.725 E50.43912
G1 X223.346 Y196.623 E50.46916
G1 X223.363 Y197.526 E50.4992
G1 X223.3 Y198.427 E50.52924
G1 X223.157 Y199.319 E50.55929
G1 X222.937 Y200.195 E50.58933
G1 X222.64 Y201.047 E50.61934
G1 X222.268 Y201.871 E50.64941
G1 X221.825 Y202.658 E50.67944
G1 X221.314 Y203.402 E50.70946
G1 X220.586 Y204.266 E50.74704
G1 X220.163 Y204.708 E50.76739
G1 X201.688 Y223.183 E51.6364
G1 X201.196 Y223.661 E51.65921
G1 X200.521 Y224.261 E51.68925
G1 X199.795 Y224.799 E51.71931
G1 X199.025 Y225.27 E51.74933
G1 X198.216 Y225.672 E51.77937
G1 X197.375 Y226.001 E51.80941
G1 X196.508 Y226.254 E51.83945
G1 X195.622 Y226.429 E51.86949
G1 X194.724 Y226.525 E51.89952
G1 X193.821 Y226.542 E51.92956
G1 X192.92 Y226.478 E51.95961
G1 X192.029 Y226.335 E51.98962
G1 X191.153 Y226.114 E52.01967
G1 X190.301 Y225.816 E52.04969
G1 X189.478 Y225.444 E52.07973
G1 X188.691 Y225 E52.10978
G1 X187.947 Y224.489 E52.1398
G1 X187.111 Y223.785 E52.17615
G1 X186.635 Y223.331 E52.19803
G1 X10.51 Y47.206 E60.48241
G1 X10.007 Y46.688 E60.50643
G1 X9.407 Y46.013 E60.53647
G1 X8.87 Y45.287 E60.5665
G1 X8.398 Y44.517 E60.59654
G1 X7.997 Y43.708 E60.62657
G1 X7.668 Y42.867 E60.65661
G1 X7.416 Y42 E60.68664
G1 X7.241 Y41.114 E60.71667
G1 X7.145 Y40.216 E60.74671
G1 X7.129 Y39.313 E60.77675
G1 X7.192 Y38.412 E60.80679
G1 X7.336 Y37.52 E60.83684
G1 X7.557 Y36.645 E60.86686
G1 X7.855 Y35.792 E60.89691
G1 X8.228 Y34.969 E60.92697
G1 X8.671 Y34.183 E60.95697
G1 X9.183 Y33.438 E60.98704
G1 X9.898 Y32.59 E61.02393
G1 X10.322 Y32.148 E61.0443
G1 X28.809 Y13.661 E61.91388
G1 F1500 E57.91388
;MESH:BorrMallUnder.stl
G0 F6000 X83.308 Y86.699
G0 X88.312 Y94.789
;TYPE:WALL-INNER
G1 F1500 E61.91388
G1 F1200 X88.06 Y94.844 E61.92246
G1 X85.791 Y94.844 E61.99792
G1 X85.622 Y94.8 E62.00373
G1 X83.611 Y93.636 E62.08101
G1 X83.464 Y93.489 E62.08793
G1 X82.299 Y91.478 E62.16523
G1 X82.256 Y91.308 E62.17106
G1 X82.26 Y88.969 E62.24885
G1 X82.311 Y88.788 E62.25511
G1 X83.459 Y86.799 E62.33149
G1 X83.655 Y86.616 E62.34041
G1 X85.608 Y85.491 E62.41537
G1 X85.86 Y85.436 E62.42395
G1 X88.129 Y85.436 E62.49942
G1 X88.298 Y85.48 E62.50523
G1 X90.309 Y86.644 E62.58251
G1 X90.456 Y86.791 E62.58943
G1 X91.621 Y88.802 E62.66672
G1 X91.664 Y88.972 E62.67256
G1 X91.66 Y91.311 E62.75035
G1 X91.609 Y91.492 E62.75661
G1 X90.461 Y93.481 E62.83299
G1 X90.265 Y93.664 E62.84191
G1 X88.312 Y94.789 E62.91687
G1 F1500 E58.91687
G0 F6000 X90.421 Y93.783
G0 X181.072 Y187.944
G0 X181.291 Y190.468
G1 F1500 E62.91687
G1 F1200 X181.248 Y190.299 E62.92267
G1 X181.252 Y187.965 E63.0003
G1 X181.302 Y187.785 E63.00651
G1 X182.45 Y185.792 E63.08301
G1 X182.648 Y185.608 E63.092
G1 X184.605 Y184.482 E63.1671
G1 X184.856 Y184.428 E63.17564
G1 X187.121 Y184.428 E63.25097
G1 X187.288 Y184.471 E63.25671
G1 X189.305 Y185.636 E63.33418
G1 X189.452 Y185.783 E63.34109
G1 X190.617 Y187.8 E63.41857
G1 X190.66 Y187.968 E63.42433
G1 X190.656 Y190.303 E63.502
G1 X190.606 Y190.483 E63.50821
G1 X189.452 Y192.485 E63.58507
G1 X189.298 Y192.637 E63.59226
G1 X187.303 Y193.786 E63.66884
G1 X187.052 Y193.84 E63.67737
G1 X184.787 Y193.84 E63.75271
G1 X184.62 Y193.797 E63.75844
G1 X182.603 Y192.632 E63.83592
G1 X182.456 Y192.485 E63.84283
G1 X181.291 Y190.468 E63.9203
G1 F1500 E59.9203
G0 F6000 X181.204 Y190.52
G0 X182.63 Y192.462
G0 X184.464 Y193.916
G0 X178.621 Y199.758
G0 X194.087 Y215.507
G1 F1500 E63.9203
G1 F1200 X212.327 Y197.265 E64.7783
G1 X36.4 Y21.341 E73.0533
G1 X18.161 Y39.58 E73.91121
G1 X194.087 Y215.507 E82.18625
G0 F6000 X194.087 Y216.073
;TYPE:WALL-OUTER
G1 F1200 X212.893 Y197.265 E83.07087
G1 X36.4 Y20.775 E91.37249
G1 X17.595 Y39.58 E92.25702
G1 X194.087 Y216.073 E100.55869
G1 F1500 E96.55869
G0 F6000 X194.088 Y215.693
G0 X176.869 Y198.034
G0 X182.315 Y192.608
G0 X182.803 Y192.285
G1 F1500 E100.55869
G1 F1200 X181.65 Y190.283 E100.63553
G1 X181.649 Y187.986 E100.71193
G1 X182.813 Y185.974 E100.78924
G1 X184.806 Y184.829 E100.86569
G1 X187.111 Y184.83 E100.94235
G1 X189.105 Y185.983 E101.01896
G1 X190.258 Y187.977 E101.09557
G1 X190.259 Y190.282 E101.17224
G1 X189.105 Y192.287 E101.24918
G1 X187.102 Y193.439 E101.32603
G1 X184.797 Y193.438 E101.4027
G1 X182.803 Y192.285 E101.47931
G1 F1500 E97.47931
G0 F6000 X182.367 Y192.538
G0 X181.067 Y190.323
G0 X90.421 Y93.783
G0 X88.118 Y94.443
G1 F1500 E101.47931
G1 F1200 X85.801 Y94.442 E101.55637
G1 X83.815 Y93.295 E101.63265
G1 X82.658 Y91.3 E101.70935
G1 X82.657 Y88.982 E101.78645
G1 X83.809 Y86.989 E101.86302
G1 X85.802 Y85.837 E101.93958
G1 X88.119 Y85.838 E102.01664
G1 X90.105 Y86.985 E102.09292
G1 X91.262 Y88.98 E102.16963
G1 X91.263 Y91.298 E102.24673
G1 X90.111 Y93.291 E102.32329
G1 X88.118 Y94.443 E102.39986
G1 F1500 E98.39986
G0 F6000 X88.268 Y94.703
G0 X90.421 Y93.783
G0 X81.533 Y102.67
G0 X194.084 Y214.997
;TYPE:SKIN
G1 F1500 E102.39986
G1 F1200 X18.671 Y39.58 E110.65084
G1 X36.4 Y21.851 E111.48476
G1 X211.817 Y197.264 E119.73574
G1 X194.084 Y214.997 E120.56985
G1 F1500 E116.56985
G0 F6000 X193.902 Y215.178
G0 X175.288 Y196.425
G0 X182.215 Y192.433
G0 X180.956 Y190.608
G1 F1500 E120.56985
G1 F1200 X182.162 Y192.7 E120.65016
G1 X182.373 Y192.916 E120.6602
G1 X184.372 Y194.07 E120.73697
G1 X184.735 Y194.198 E120.74978
G1 X187.171 Y194.192 E120.8308
G1 X187.447 Y194.112 E120.84036
G1 X189.516 Y192.919 E120.91979
G1 X189.744 Y192.691 E120.93052
G1 X190.932 Y190.623 E121.00984
G1 X191.013 Y190.348 E121.01937
G1 X191.019 Y187.919 E121.10016
G1 X190.938 Y187.631 E121.11011
G1 X189.746 Y185.568 E121.18936
G1 X189.535 Y185.352 E121.1994
G1 X187.532 Y184.194 E121.27636
G1 X187.172 Y184.07 E121.28902
G1 X184.733 Y184.072 E121.37014
G1 X184.461 Y184.152 E121.37957
G1 X182.388 Y185.341 E121.45906
G1 X182.162 Y185.563 E121.46959
G1 X180.966 Y187.64 E121.54931
G1 X180.893 Y187.92 E121.55893
G1 X180.889 Y190.341 E121.63945
G1 X180.956 Y190.608 E121.64861
G1 F1500 E117.64861
G0 F6000 X181.2 Y190.514
G0 X181.072 Y187.944
G0 X90.421 Y93.783
G0 X88.179 Y95.196
G1 F1500 E121.64861
G1 F1200 X88.455 Y95.116 E121.65817
G1 X90.521 Y93.93 E121.7374
G1 X90.753 Y93.686 E121.7486
G1 X91.936 Y91.631 E121.82747
G1 X92.014 Y91.357 E121.83694
G1 X92.023 Y88.923 E121.9179
G1 X91.942 Y88.635 E121.92785
G1 X90.732 Y86.548 E122.00808
G1 X90.525 Y86.35 E122.01761
G1 X88.461 Y85.158 E122.09689
G1 X88.169 Y85.077 E122.10696
G1 X85.744 Y85.081 E122.18762
G1 X85.461 Y85.159 E122.19738
G1 X83.411 Y86.342 E122.27611
G1 X83.162 Y86.592 E122.28784
G1 X81.99 Y88.624 E122.36586
G1 X81.902 Y88.923 E122.37623
G1 X81.897 Y91.349 E122.45692
G1 X81.978 Y91.641 E122.467
G1 X83.184 Y93.728 E122.54717
G1 X83.391 Y93.926 E122.55669
G1 X85.459 Y95.122 E122.63615
G1 X85.747 Y95.203 E122.6461
G1 X88.179 Y95.196 E122.72699
G1 F1500 E118.72699
G0 F6000 X88.141 Y94.94
G0 X90.421 Y93.783
G0 X81.533 Y102.67
G0 X194.217 Y214.581
G1 F1500 E122.72699
G1 F1200 X19.085 Y39.449 E130.96466
G0 F6000 X19.368 Y39.167
G1 F1200 X194.5 Y214.299 E139.20233
G0 F6000 X194.782 Y214.016
G1 F1200 X19.65 Y38.884 E147.44001
G0 F6000 X19.933 Y38.601
G1 F1200 X195.065 Y213.733 E155.67768
G0 F6000 X195.348 Y213.45
G1 F1200 X20.216 Y38.318 E163.91535
G0 F6000 X20.499 Y38.035
G1 F1200 X195.631 Y213.167 E172.15302
G0 F6000 X195.914 Y212.884
G1 F1200 X20.782 Y37.752 E180.3907
G0 F6000 X21.065 Y37.47
G1 F1200 X196.197 Y212.602 E188.62837
G0 F6000 X196.48 Y212.319
G1 F1200 X21.348 Y37.187 E196.86604
G0 F6000 X21.63 Y36.904
G1 F1200 X196.762 Y212.036 E205.10371
G0 F6000 X197.045 Y211.753
G1 F1200 X21.913 Y36.621 E213.34139
G0 F6000 X22.196 Y36.338
G1 F1200 X197.328 Y211.47 E221.57906
G0 F6000 X197.611 Y211.187
G1 F1200 X22.479 Y36.055 E229.81673
G0 F6000 X22.762 Y35.773
G1 F1200 X197.894 Y210.904 E238.05438
G0 F6000 X198.177 Y210.622
G1 F1200 X23.045 Y35.49 E246.29205
G0 F6000 X23.327 Y35.207
G1 F1200 X198.459 Y210.339 E254.52972
G0 F6000 X198.742 Y210.056
G1 F1200 X23.61 Y34.924 E262.7674
G0 F6000 X23.893 Y34.641
G1 F1200 X82.916 Y93.664 E265.54366
G0 F6000 X83.428 Y94.176
G1 F1200 X181.904 Y192.652 E270.17567
G0 F6000 X182.433 Y193.181
G1 F1200 X199.025 Y209.773 E270.9561
G0 F6000 X199.308 Y209.49
G1 F1200 X183.773 Y193.955 E271.68682
G0 F6000 X184.002 Y193.558
G0 X184.445 Y193.814
G0 X184.778 Y194.395
G1 F1200 X199.591 Y209.207 E272.38356
G0 F6000 X199.874 Y208.925
G1 F1200 X185.343 Y194.394 E273.06705
G0 F6000 X185.909 Y194.394
G1 F1200 X200.156 Y208.642 E273.73721
G0 F6000 X200.439 Y208.359
G1 F1200 X186.474 Y194.394 E274.39408
G0 F6000 X187.039 Y194.393
G1 F1200 X200.722 Y208.076 E275.03769
G0 F6000 X201.005 Y207.793
G1 F1200 X187.512 Y194.3 E275.67236
G0 F6000 X187.873 Y194.096
G1 F1200 X201.288 Y207.51 E276.30333
G0 F6000 X201.571 Y207.228
G1 F1200 X188.232 Y193.889 E276.93076
G0 F6000 X188.59 Y193.681
G1 F1200 X201.854 Y206.945 E277.55466
G0 F6000 X202.136 Y206.662
G1 F1200 X188.949 Y193.474 E278.17496
G0 F6000 X189.307 Y193.267
G1 F1200 X202.419 Y206.379 E278.7917
G0 F6000 X202.702 Y206.096
G1 F1200 X189.66 Y193.054 E279.40516
G0 F6000 X189.933 Y192.762
G1 F1200 X202.985 Y205.813 E280.01906
G0 F6000 X203.268 Y205.53
G1 F1200 X190.14 Y192.402 E280.63656
G0 F6000 X190.346 Y192.043
G1 F1200 X203.551 Y205.248 E281.25769
G0 F6000 X203.833 Y204.965
G1 F1200 X190.552 Y191.683 E281.88241
G0 F6000 X190.758 Y191.324
G1 F1200 X204.116 Y204.682 E282.51073
G0 F6000 X204.399 Y204.399
G1 F1200 X190.965 Y190.965 E283.14262
G0 F6000 X191.149 Y190.584
G1 F1200 X204.682 Y204.116 E283.77915
G0 F6000 X204.965 Y203.833
G1 F1200 X191.209 Y190.077 E284.42619
G0 F6000 X191.211 Y189.514
G1 F1200 X205.248 Y203.551 E285.08644
G0 F6000 X205.53 Y203.268
G1 F1200 X191.213 Y188.95 E285.7599
G0 F6000 X191.215 Y188.387
G1 F1200 X205.813 Y202.985 E286.44654
G0 F6000 X206.096 Y202.702
G1 F1200 X191.193 Y187.799 E287.14753
G0 F6000 X190.75 Y187.916
G0 X190.191 Y186.858
G0 X190.589 Y186.63
