;FLAVOR:Marlin
;TIME:4049
;Filament used: 2.30761m
;Layer height: 0.2
;MINX:89.267
;MINY:89.268
;MINZ:0.2
;MAXX:180.732
;MAXY:140.732
;MAXZ:23
;TARGET_MACHINE.NAME:Creality Ender-3 v2 Neo
;Generated with Cura_SteamEngine 5.7.2
M140 S60
M105
M190 S60
M104 S200
M105
M109 S200
M82 ;absolute extrusion mode
G92 E0 ;Reset Extruder
G28 ;Home
G1 Z2.0 F3000 ;Move Z Axis up
G1 X10.1 Y20 Z0.28 F5000.0 ;Move to start position
G1 X10.1 Y200.0 Z0.28 F1500.0 E15 ;Draw the first line
G1 X10.4 Y200.0 Z0.28 F5000.0 ;Move to side a little
G1 X10.4 Y20 Z0.28 F1500.0 E30 ;Draw the second line
G92 E0 ;Reset Extruder
G1 Z2.0 F3000 ;Move Z Axis up
G92 E0
G92 E0
G1 F1500 E-4
;LAYER_COUNT:115
;LAYER:0
M107
G0 F6000 X95.843 Y97.997 Z0.2
;TYPE:SKIRT
G1 F1500 E0
G1 F1200 X98.077 Y95.762 E0.1051
G1 X98.682 Y95.174 E0.13316
G1 X99.356 Y94.573 E0.1632
G1 X100.201 Y93.947 E0.19818
G1 X101.177 Y93.362 E0.23602
G1 X102.052 Y92.901 E0.26892
G1 X104.945 Y91.426 E0.37692
G1 X105.596 Y91.106 E0.40105
G1 X106.472 Y90.724 E0.43284
G1 X107.436 Y90.402 E0.46664
G1 X108.533 Y90.15 E0.50408
G1 X109.303 Y90.016 E0.53007
G1 X112.733 Y89.472 E0.64558
G1 X113.463 Y89.368 E0.67011
G1 X114.433 Y89.275 E0.70252
G1 X115.407 Y89.268 E0.73491
G1 X116.357 Y89.345 E0.76661
G1 X117.02 Y89.434 E0.78886
G1 X121.094 Y90.076 E0.92604
G1 X123.66 Y90.443 E1.01225
G1 X126.111 Y90.722 E1.0943
G1 X128.687 Y90.946 E1.1803
G1 X131.134 Y91.085 E1.26182
G1 X133.702 Y91.159 E1.34726
G1 X136.19 Y91.161 E1.43002
G1 X138.722 Y91.091 E1.51426
G1 X141.218 Y90.951 E1.59741
G1 X143.754 Y90.74 E1.68205
G1 X146.206 Y90.461 E1.76413
G1 X149.037 Y90.057 E1.85924
G1 X152.603 Y89.492 E1.97933
G1 X153.467 Y89.368 E2.00836
G1 X154.437 Y89.275 E2.04077
G1 X155.411 Y89.268 E2.07317
G1 X156.357 Y89.345 E2.10473
G1 X157.036 Y89.437 E2.12752
G1 X161.321 Y90.119 E2.27184
G1 X162.275 Y90.318 E2.30425
G1 X163.206 Y90.6 E2.33661
G1 X164.095 Y90.955 E2.36844
G1 X164.539 Y91.168 E2.38482
G1 X168.046 Y92.95 E2.51566
G1 X168.809 Y93.352 E2.54434
G1 X169.649 Y93.846 E2.57676
G1 X170.385 Y94.369 E2.60679
G1 X171.3 Y95.161 E2.64704
G1 X171.893 Y95.734 E2.67446
G1 X174.336 Y98.177 E2.78938
G1 X174.825 Y98.681 E2.81273
G1 X175.426 Y99.355 E2.84277
G1 X176.052 Y100.2 E2.87774
G1 X176.64 Y101.182 E2.91581
G1 X177.089 Y102.035 E2.94787
G1 X178.506 Y104.811 E3.05154
G1 X178.892 Y105.595 E3.0806
G1 X179.282 Y106.487 E3.11298
G1 X179.58 Y107.374 E3.1441
G1 X179.786 Y108.203 E3.17252
G1 X179.924 Y108.927 E3.19703
G1 X180.536 Y112.786 E3.32698
G1 X180.632 Y113.463 E3.34973
G1 X180.724 Y114.431 E3.38207
G1 X180.732 Y115.372 E3.41337
G1 X180.634 Y116.504 E3.45116
G1 X180.5 Y117.447 E3.48284
G1 X179.996 Y120.63 E3.59002
G1 X179.847 Y121.483 E3.61882
G1 X179.652 Y122.364 E3.64883
G1 X179.333 Y123.367 E3.68384
G1 X178.901 Y124.377 E3.72038
G1 X178.472 Y125.252 E3.75279
G1 X177.037 Y128.071 E3.858
G1 X176.635 Y128.83 E3.88657
G1 X176.14 Y129.668 E3.91894
G1 X175.592 Y130.435 E3.95029
G1 X174.84 Y131.298 E3.98836
G1 X174.275 Y131.882 E4.01539
G1 X171.822 Y134.336 E4.13079
G1 X171.33 Y134.814 E4.15361
G1 X170.587 Y135.471 E4.1866
G1 X169.829 Y136.032 E4.21796
G1 X168.816 Y136.641 E4.25727
G1 X168.101 Y137.018 E4.28416
G1 X165.197 Y138.5 E4.3926
G1 X164.386 Y138.899 E4.42266
G1 X163.526 Y139.275 E4.45388
G1 X162.562 Y139.597 E4.48768
G1 X161.488 Y139.844 E4.52433
G1 X160.553 Y140.006 E4.5559
G1 X157.206 Y140.536 E4.6686
G1 X156.536 Y140.631 E4.69111
G1 X155.568 Y140.723 E4.72345
G1 X154.665 Y140.732 E4.75349
G1 X153.457 Y140.628 E4.79382
G1 X152.503 Y140.491 E4.82587
G1 X148.979 Y139.933 E4.94454
G1 X146.427 Y139.566 E5.03029
G1 X143.933 Y139.279 E5.11379
G1 X141.427 Y139.061 E5.19746
G1 X138.906 Y138.915 E5.28144
G1 X136.4 Y138.84 E5.36483
G1 X133.876 Y138.836 E5.44878
G1 X131.353 Y138.903 E5.53273
G1 X128.887 Y139.038 E5.61487
G1 X126.363 Y139.25 E5.69911
G1 X123.821 Y139.535 E5.78419
G1 X120.99 Y139.937 E5.87929
G1 X117.22 Y140.534 E6.00625
G1 X116.526 Y140.632 E6.02956
G1 X115.559 Y140.724 E6.06187
G1 X114.655 Y140.732 E6.09193
G1 X113.456 Y140.628 E6.13196
G1 X112.525 Y140.494 E6.16325
G1 X109.372 Y139.995 E6.26942
G1 X108.545 Y139.853 E6.29733
G1 X107.595 Y139.642 E6.3297
G1 X106.733 Y139.372 E6.35974
G1 X105.605 Y138.894 E6.40049
G1 X104.747 Y138.471 E6.4323
G1 X101.928 Y137.036 E6.53751
G1 X101.169 Y136.634 E6.56608
G1 X100.331 Y136.139 E6.59845
G1 X99.564 Y135.591 E6.6298
G1 X98.701 Y134.839 E6.66788
G1 X98.117 Y134.274 E6.6949
G1 X95.656 Y131.812 E6.81068
G1 X95.165 Y131.306 E6.83413
G1 X94.565 Y130.631 E6.86417
G1 X93.939 Y129.785 E6.89918
G1 X93.357 Y128.814 E6.93683
G1 X92.981 Y128.101 E6.96364
G1 X91.496 Y125.19 E7.07233
G1 X91.104 Y124.394 E7.10184
G1 X90.722 Y123.518 E7.13363
G1 X90.4 Y122.553 E7.16746
G1 X90.147 Y121.447 E7.2052
G1 X90.018 Y120.706 E7.23021
G1 X89.464 Y117.211 E7.34791
G1 X89.369 Y116.543 E7.37035
G1 X89.276 Y115.574 E7.40273
G1 X89.267 Y114.671 E7.43276
G1 X89.371 Y113.46 E7.47319
G1 X89.514 Y112.461 E7.50676
G1 X89.996 Y109.419 E7.6092
G1 X90.146 Y108.549 E7.63856
G1 X90.357 Y107.597 E7.67099
G1 X90.627 Y106.736 E7.701
G1 X91.101 Y105.617 E7.74142
G1 X91.537 Y104.728 E7.77435
G1 X92.952 Y101.949 E7.87808
G1 X93.36 Y101.177 E7.90712
G1 X93.855 Y100.339 E7.93949
G1 X94.402 Y99.572 E7.97082
G1 X95.175 Y98.684 E8.00998
G1 X95.843 Y97.997 E8.04185
G0 F6000 X96.126 Y98.28
G1 F1200 X98.356 Y96.049 E8.14677
G1 X98.948 Y95.473 E8.17424
G1 X99.622 Y94.872 E8.20428
G1 X100.407 Y94.29 E8.23678
G1 X101.364 Y93.716 E8.27389
G1 X102.234 Y93.257 E8.30661
G1 X105.122 Y91.785 E8.41442
G1 X105.756 Y91.473 E8.43793
G1 X106.632 Y91.091 E8.46971
G1 X107.526 Y90.792 E8.50106
G1 X108.602 Y90.544 E8.53779
G1 X109.366 Y90.411 E8.56358
G1 X112.79 Y89.868 E8.67889
G1 X113.502 Y89.766 E8.70281
G1 X114.436 Y89.675 E8.73402
G1 X115.375 Y89.667 E8.76526
G1 X116.325 Y89.744 E8.79696
G1 X116.958 Y89.829 E8.8182
G1 X121.037 Y90.472 E8.95554
G1 X123.603 Y90.839 E9.04176
G1 X126.077 Y91.121 E9.12458
G1 X128.653 Y91.344 E9.21057
G1 X131.122 Y91.485 E9.29283
G1 X133.69 Y91.559 E9.37828
G1 X136.201 Y91.561 E9.46179
G1 X138.733 Y91.491 E9.54604
G1 X141.251 Y91.35 E9.62992
G1 X143.787 Y91.138 E9.71456
G1 X146.263 Y90.857 E9.79744
G1 X149.094 Y90.453 E9.89255
G1 X152.66 Y89.888 E10.01264
G1 X153.506 Y89.766 E10.04107
G1 X154.44 Y89.675 E10.07228
G1 X155.379 Y89.667 E10.10351
G1 X156.325 Y89.744 E10.13508
G1 X156.973 Y89.832 E10.15683
G1 X161.24 Y90.511 E10.30054
G1 X162.16 Y90.701 E10.33178
G1 X163.058 Y90.971 E10.36297
G1 X163.922 Y91.316 E10.39391
G1 X164.358 Y91.525 E10.41
G1 X167.86 Y93.304 E10.54064
G1 X168.607 Y93.697 E10.56871
G1 X169.417 Y94.172 E10.59995
G1 X170.153 Y94.695 E10.62998
G1 X171.022 Y95.449 E10.66824
G1 X171.615 Y96.022 E10.69567
G1 X174.049 Y98.456 E10.81016
G1 X174.526 Y98.947 E10.83293
G1 X175.127 Y99.621 E10.86296
G1 X175.709 Y100.406 E10.89546
G1 X176.286 Y101.369 E10.9328
G1 X176.733 Y102.217 E10.96468
G1 X178.147 Y104.988 E11.06815
G1 X178.526 Y105.756 E11.09664
G1 X178.903 Y106.615 E11.12784
G1 X179.192 Y107.471 E11.15789
G1 X179.393 Y108.278 E11.18555
G1 X179.529 Y108.99 E11.20966
G1 X180.14 Y112.842 E11.33938
G1 X180.234 Y113.501 E11.36152
G1 X180.324 Y114.435 E11.39273
G1 X180.333 Y115.338 E11.42276
G1 X180.235 Y116.47 E11.46056
G1 X180.105 Y117.384 E11.49126
G1 X179.602 Y120.561 E11.59824
G1 X179.456 Y121.397 E11.62647
G1 X179.261 Y122.278 E11.65648
G1 X178.965 Y123.21 E11.68901
G1 X178.542 Y124.201 E11.72484
G1 X178.116 Y125.07 E11.75703
G1 X176.683 Y127.884 E11.86206
G1 X176.29 Y128.627 E11.89002
G1 X175.814 Y129.436 E11.92124
G1 X175.29 Y130.172 E11.95129
G1 X174.538 Y131.035 E11.98936
G1 X173.992 Y131.599 E12.01547
G1 X171.543 Y134.049 E12.13069
G1 X171.051 Y134.527 E12.1535
G1 X170.349 Y135.149 E12.1847
G1 X169.591 Y135.71 E12.21606
G1 X168.629 Y136.287 E12.25337
G1 X167.919 Y136.662 E12.28008
G1 X165.02 Y138.141 E12.38832
G1 X164.226 Y138.532 E12.41776
G1 X163.366 Y138.908 E12.44898
G1 X162.472 Y139.207 E12.48033
G1 X161.398 Y139.454 E12.51699
G1 X160.49 Y139.611 E12.54764
G1 X157.15 Y140.14 E12.66011
G1 X156.498 Y140.233 E12.68201
G1 X155.564 Y140.323 E12.71322
G1 X154.661 Y140.332 E12.74326
G1 X153.514 Y140.232 E12.78155
G1 X152.566 Y140.096 E12.81341
G1 X149.036 Y139.537 E12.93228
G1 X146.484 Y139.17 E13.01803
G1 X143.979 Y138.882 E13.1019
G1 X141.452 Y138.662 E13.18626
G1 X138.918 Y138.515 E13.27068
G1 X136.412 Y138.44 E13.35407
G1 X133.866 Y138.436 E13.43875
G1 X131.342 Y138.503 E13.52273
G1 X128.854 Y138.64 E13.60561
G1 X126.318 Y138.852 E13.69025
G1 X123.776 Y139.137 E13.77533
G1 X120.927 Y139.542 E13.87104
G1 X117.164 Y140.138 E13.99775
G1 X116.488 Y140.234 E14.02046
G1 X115.555 Y140.324 E14.05164
G1 X114.651 Y140.332 E14.08171
G1 X113.513 Y140.232 E14.1197
G1 X112.588 Y140.099 E14.15079
G1 X109.44 Y139.601 E14.25679
G1 X108.631 Y139.462 E14.28409
G1 X107.715 Y139.26 E14.31529
G1 X106.853 Y138.99 E14.34533
G1 X105.782 Y138.535 E14.38404
G1 X104.929 Y138.115 E14.41566
G1 X102.115 Y136.682 E14.52069
G1 X101.372 Y136.289 E14.54865
G1 X100.563 Y135.813 E14.57987
G1 X99.827 Y135.289 E14.60992
G1 X98.964 Y134.537 E14.64799
G1 X98.4 Y133.991 E14.6741
G1 X95.943 Y131.534 E14.78967
G1 X95.464 Y131.04 E14.81255
G1 X94.864 Y130.365 E14.84259
G1 X94.282 Y129.579 E14.87512
G1 X93.711 Y128.627 E14.91204
G1 X93.337 Y127.919 E14.93868
G1 X91.855 Y125.013 E15.04717
G1 X91.471 Y124.234 E15.07606
G1 X91.089 Y123.358 E15.10785
G1 X90.79 Y122.464 E15.1392
G1 X90.541 Y121.378 E15.17626
G1 X90.413 Y120.643 E15.20107
G1 X89.86 Y117.154 E15.31856
G1 X89.767 Y116.504 E15.3404
G1 X89.676 Y115.57 E15.37162
G1 X89.667 Y114.667 E15.40165
G1 X89.767 Y113.517 E15.44004
G1 X89.909 Y112.524 E15.47341
G1 X90.39 Y109.487 E15.57568
G1 X90.537 Y108.635 E15.60443
G1 X90.739 Y107.717 E15.6357
G1 X91.009 Y106.856 E15.66571
G1 X91.46 Y105.793 E15.70411
G1 X91.893 Y104.91 E15.73682
G1 X93.306 Y102.136 E15.84037
G1 X93.705 Y101.38 E15.8688
G1 X94.181 Y100.571 E15.90002
G1 X94.728 Y99.804 E15.93135
G1 X95.462 Y98.963 E15.96848
G1 X96.126 Y98.28 E16.00016
G0 F6000 X96.409 Y98.563
G1 F1200 X98.635 Y96.336 E16.10489
G1 X99.214 Y95.772 E16.13177
G1 X99.888 Y95.171 E16.16181
G1 X100.613 Y94.633 E16.19184
G1 X101.551 Y94.07 E16.22822
G1 X102.416 Y93.613 E16.26076
G1 X105.299 Y92.144 E16.36838
G1 X105.933 Y91.832 E16.39188
G1 X106.76 Y91.47 E16.42191
G1 X107.616 Y91.182 E16.45195
G1 X108.692 Y90.934 E16.48867
G1 X109.429 Y90.806 E16.51355
G1 X112.847 Y90.264 E16.62866
G1 X113.541 Y90.164 E16.65198
G1 X114.44 Y90.075 E16.68202
G1 X115.343 Y90.066 E16.71206
G1 X116.293 Y90.143 E16.74376
G1 X116.896 Y90.224 E16.764
G1 X120.98 Y90.868 E16.90151
G1 X123.546 Y91.235 E16.98772
G1 X126.043 Y91.52 E17.07131
G1 X128.619 Y91.742 E17.15731
G1 X131.11 Y91.885 E17.2403
G1 X133.678 Y91.959 E17.32574
G1 X136.212 Y91.961 E17.41003
G1 X138.744 Y91.891 E17.49427
G1 X141.284 Y91.749 E17.57888
G1 X143.82 Y91.536 E17.66353
G1 X146.32 Y91.253 E17.74721
G1 X149.151 Y90.849 E17.84232
G1 X152.717 Y90.284 E17.96241
G1 X153.545 Y90.164 E17.99024
G1 X154.444 Y90.075 E18.02028
G1 X155.347 Y90.066 E18.05032
G1 X156.293 Y90.143 E18.08189
G1 X156.91 Y90.227 E18.1026
G1 X161.16 Y90.903 E18.24573
G1 X162.045 Y91.084 E18.27578
G1 X162.91 Y91.343 E18.30581
G1 X163.749 Y91.677 E18.33584
G1 X164.177 Y91.882 E18.35163
G1 X167.674 Y93.658 E18.48208
G1 X168.405 Y94.042 E18.50954
G1 X169.185 Y94.498 E18.53959
G1 X169.921 Y95.021 E18.56962
G1 X170.744 Y95.736 E18.60588
G1 X171.332 Y96.305 E18.6331
G1 X173.762 Y98.735 E18.7474
G1 X174.227 Y99.213 E18.76958
G1 X174.828 Y99.887 E18.79961
G1 X175.366 Y100.612 E18.82964
G1 X175.932 Y101.556 E18.86625
G1 X176.377 Y102.399 E18.89795
G1 X177.788 Y105.165 E19.00123
G1 X178.16 Y105.917 E19.02913
G1 X178.524 Y106.743 E19.05916
G1 X178.813 Y107.599 E19.08921
G1 X179 Y108.353 E19.11504
G1 X179.134 Y109.053 E19.13875
G1 X179.744 Y112.899 E19.26827
G1 X179.836 Y113.54 E19.2898
G1 X179.924 Y114.439 E19.31985
G1 X179.933 Y115.342 E19.34988
G1 X179.839 Y116.414 E19.38568
G1 X179.71 Y117.321 E19.41615
G1 X179.208 Y120.492 E19.52293
G1 X179.065 Y121.311 E19.55058
G1 X178.87 Y122.192 E19.58059
G1 X178.597 Y123.053 E19.61063
G1 X178.183 Y124.025 E19.64577
G1 X177.76 Y124.888 E19.67774
G1 X176.329 Y127.697 E19.78259
G1 X175.945 Y128.425 E19.80997
G1 X175.488 Y129.204 E19.84
G1 X174.964 Y129.94 E19.87005
G1 X174.251 Y130.757 E19.90612
G1 X173.709 Y131.316 E19.93202
G1 X171.264 Y133.762 E20.04705
G1 X170.785 Y134.228 E20.06927
G1 X170.11 Y134.828 E20.09931
G1 X169.385 Y135.367 E20.12936
G1 X168.442 Y135.933 E20.16594
G1 X167.737 Y136.306 E20.19247
G1 X164.843 Y137.782 E20.30052
G1 X164.065 Y138.166 E20.32937
G1 X163.238 Y138.529 E20.35941
G1 X162.382 Y138.817 E20.38945
G1 X161.308 Y139.064 E20.42611
G1 X160.427 Y139.216 E20.45584
G1 X157.093 Y139.744 E20.56811
G1 X156.459 Y139.835 E20.58942
G1 X155.56 Y139.923 E20.61946
G1 X154.657 Y139.932 E20.6495
G1 X153.571 Y139.836 E20.68576
G1 X152.629 Y139.701 E20.71741
G1 X149.093 Y139.141 E20.83648
G1 X146.541 Y138.774 E20.92223
G1 X144.014 Y138.483 E21.00684
G1 X141.487 Y138.264 E21.0912
G1 X138.93 Y138.115 E21.17639
G1 X136.424 Y138.04 E21.25978
G1 X133.856 Y138.036 E21.34519
G1 X131.331 Y138.103 E21.4292
G1 X128.821 Y138.242 E21.51281
G1 X126.273 Y138.454 E21.59785
G1 X123.731 Y138.739 E21.68293
G1 X120.864 Y139.147 E21.77925
G1 X117.108 Y139.742 E21.90573
G1 X116.449 Y139.836 E21.92787
G1 X115.551 Y139.924 E21.95788
G1 X114.647 Y139.932 E21.98795
G1 X113.57 Y139.836 E22.02391
G1 X112.65 Y139.704 E22.05483
G1 X109.508 Y139.207 E22.16063
G1 X108.717 Y139.071 E22.18732
G1 X107.835 Y138.878 E22.21735
G1 X106.973 Y138.608 E22.2474
G1 X105.959 Y138.176 E22.28406
G1 X105.111 Y137.759 E22.31549
G1 X102.302 Y136.328 E22.42034
G1 X101.574 Y135.944 E22.44771
G1 X100.795 Y135.487 E22.47775
G1 X100.059 Y134.963 E22.5078
G1 X99.242 Y134.25 E22.54387
G1 X98.683 Y133.708 E22.56977
G1 X96.23 Y131.255 E22.68515
G1 X95.763 Y130.774 E22.70745
G1 X95.163 Y130.099 E22.73748
G1 X94.625 Y129.373 E22.76754
G1 X94.065 Y128.44 E22.80373
G1 X93.693 Y127.737 E22.83018
G1 X92.214 Y124.836 E22.93849
G1 X91.83 Y124.057 E22.96737
G1 X91.468 Y123.23 E22.9974
G1 X91.18 Y122.374 E23.02744
G1 X90.935 Y121.309 E23.06379
G1 X90.808 Y120.58 E23.0884
G1 X90.256 Y117.097 E23.20569
G1 X90.165 Y116.465 E23.22693
G1 X90.076 Y115.566 E23.25697
G1 X90.067 Y114.663 E23.28701
G1 X90.163 Y113.574 E23.32337
G1 X90.304 Y112.587 E23.35653
G1 X90.784 Y109.555 E23.45863
G1 X90.928 Y108.72 E23.48681
G1 X91.121 Y107.837 E23.51687
G1 X91.391 Y106.976 E23.54689
G1 X91.819 Y105.969 E23.58328
G1 X92.249 Y105.092 E23.61577
G1 X93.66 Y102.322 E23.71916
G1 X94.05 Y101.582 E23.74698
G1 X94.507 Y100.803 E23.77702
G1 X95.03 Y100.067 E23.80705
G1 X95.749 Y99.242 E23.84345
G1 X96.409 Y98.563 E23.87494
G1 F1500 E19.87494
;MESH:PinneHallare.stl
G0 F6000 X112.536 Y112.877
G0 X114.865 Y118.093
;TYPE:WALL-INNER
G1 F1500 E23.87494
G1 F1200 X112.959 Y117.299 E23.94362
G1 X112.807 Y117.189 E23.94986
G1 X112.697 Y117.037 E23.9561
G1 X111.928 Y115.192 E24.02258
G1 X111.916 Y114.839 E24.03433
G1 X112.697 Y112.959 E24.10204
G1 X112.84 Y112.777 E24.10974
G1 X112.959 Y112.697 E24.11451
G1 X114.804 Y111.928 E24.18099
G1 X115.157 Y111.916 E24.19274
G1 X117.037 Y112.697 E24.26045
G1 X117.219 Y112.839 E24.26812
G1 X117.318 Y113 E24.27441
G1 X118.092 Y114.858 E24.34136
G1 X118.097 Y115.122 E24.35014
G1 X117.299 Y117.037 E24.41914
G1 X117.157 Y117.219 E24.42682
G1 X116.996 Y117.318 E24.4331
G1 X115.136 Y118.093 E24.50012
G1 X114.865 Y118.093 E24.50914
G1 F1500 E20.50914
G0 F6000 X114.826 Y118.187
G0 X115.122 Y118.275
G0 X116.773 Y128.656
G0 X115 Y129.14
G1 F1500 E24.50914
G1 F1200 X119.368 Y128.446 E24.65624
G1 X123.31 Y126.44 E24.80335
G1 X126.44 Y123.306 E24.95067
G1 X128.45 Y119.368 E25.09772
G1 X129.14 Y114.997 E25.2449
G1 X128.446 Y110.628 E25.39204
G1 X126.44 Y106.686 E25.53915
G1 X123.306 Y103.556 E25.68647
G1 X119.368 Y101.546 E25.83352
G1 X114.997 Y100.856 E25.9807
G1 X110.628 Y101.55 E26.12784
G1 X106.686 Y103.556 E26.27495
G1 X103.556 Y106.689 E26.42225
G1 X101.546 Y110.628 E26.56933
G1 X100.856 Y114.995 E26.71638
G1 X101.55 Y119.368 E26.86365
